(Exported by FreeCAD)
(Post Processor: grbl_post)
(Output Time:2021-11-07 22:47:06.557131)
(Begin preamble)
G17 G90
G21
(Begin operation: Fixture)
(Path: Fixture)
G54
(Finish operation: Fixture)
(Begin operation: 2.5mm_Endmill003)
(Path: 2.5mm_Endmill003)
(2.5mm_Endmill003)
(Begin toolchange)
( M6 T1.0 )
M3 S200.0
(Finish operation: 2.5mm_Endmill003)
(Begin operation: motor)
(Path: motor)
(motor)
(Compensated Tool Path. Diameter: 2.5)
G0 Z6.000
G0 Z6.000
G0 Z6.000
G0 Z6.000
G0 Z6.000
G0 X0.000 Y0.000
G0 X35.991 Y-20.253
G0 X35.991 Y-20.253 Z4.000
G1 X35.991 Y-20.253 Z-3.000 F120.000
G2 X36.446 Y-20.002 Z-3.000 I0.430 J-0.242 K0.000 F300.000
G2 X36.428 Y-20.989 Z-3.000 I-0.025 J-0.493 K0.000 F300.000
G1 X36.313 Y-20.976 Z-3.000 F300.000
G2 X35.991 Y-20.253 Z-3.000 I0.109 J0.482 K0.000 F300.000
G1 X35.991 Y-20.253 Z-7.000 F120.000
G2 X36.446 Y-20.002 Z-7.000 I0.430 J-0.242 K0.000 F300.000
G2 X36.428 Y-20.989 Z-7.000 I-0.025 J-0.493 K0.000 F300.000
G1 X36.313 Y-20.976 Z-7.000 F300.000
G2 X35.991 Y-20.253 Z-7.000 I0.109 J0.482 K0.000 F300.000
G1 X35.991 Y-20.253 Z-10.000 F120.000
G2 X36.446 Y-20.002 Z-10.000 I0.430 J-0.242 K0.000 F300.000
G2 X36.428 Y-20.989 Z-10.000 I-0.025 J-0.493 K0.000 F300.000
G1 X36.313 Y-20.976 Z-10.000 F300.000
G2 X35.991 Y-20.253 Z-10.000 I0.109 J0.482 K0.000 F300.000
G0 Z6.000
G0 Z6.000
G0 X35.991 Y-20.253
G0 X33.498 Y-17.229
G0 X33.498 Y-17.229 Z4.000
G1 X33.498 Y-17.229 Z-3.000 F120.000
G2 X23.426 Y-20.994 Z-3.000 I-10.498 J12.729 K0.000 F300.000
G1 X22.330 Y-20.986 Z-3.000 F300.000
G2 X23.425 Y11.994 Z-3.000 I0.670 J16.486 K0.000 F300.000
G2 X33.498 Y-17.229 Z-3.000 I-0.425 J-16.494 K0.000 F300.000
G1 X33.498 Y-17.229 Z-7.000 F120.000
G2 X23.426 Y-20.994 Z-7.000 I-10.498 J12.729 K0.000 F300.000
G1 X22.330 Y-20.986 Z-7.000 F300.000
G2 X23.425 Y11.994 Z-7.000 I0.670 J16.486 K0.000 F300.000
G2 X33.498 Y-17.229 Z-7.000 I-0.425 J-16.494 K0.000 F300.000
G1 X33.498 Y-17.229 Z-10.000 F120.000
G2 X23.426 Y-20.994 Z-10.000 I-10.498 J12.729 K0.000 F300.000
G1 X22.330 Y-20.986 Z-10.000 F300.000
G2 X23.425 Y11.994 Z-10.000 I0.670 J16.486 K0.000 F300.000
G2 X33.498 Y-17.229 Z-10.000 I-0.425 J-16.494 K0.000 F300.000
G0 Z6.000
G0 Z6.000
G0 X33.498 Y-17.229
G0 X9.895 Y11.116
G0 X9.895 Y11.116 Z4.000
G1 X9.895 Y11.116 Z-3.000 F120.000
G2 X9.585 Y11.001 Z-3.000 I-0.316 J0.379 K0.000 F300.000
G1 X9.470 Y11.014 Z-3.000 F300.000
G2 X9.604 Y11.988 Z-3.000 I0.109 J0.482 K0.000 F300.000
G2 X9.895 Y11.116 Z-3.000 I-0.025 J-0.493 K0.000 F300.000
G1 X9.895 Y11.116 Z-7.000 F120.000
G2 X9.585 Y11.001 Z-7.000 I-0.316 J0.379 K0.000 F300.000
G1 X9.470 Y11.014 Z-7.000 F300.000
G2 X9.604 Y11.988 Z-7.000 I0.109 J0.482 K0.000 F300.000
G2 X9.895 Y11.116 Z-7.000 I-0.025 J-0.493 K0.000 F300.000
G1 X9.895 Y11.116 Z-10.000 F120.000
G2 X9.585 Y11.001 Z-10.000 I-0.316 J0.379 K0.000 F300.000
G1 X9.470 Y11.014 Z-10.000 F300.000
G2 X9.604 Y11.988 Z-10.000 I0.109 J0.482 K0.000 F300.000
G2 X9.895 Y11.116 Z-10.000 I-0.025 J-0.493 K0.000 F300.000
G0 Z6.000
G0 Z6.000
(Finish operation: motor)
(Begin operation: bearing002)
(Path: bearing002)
(bearing002)
(Compensated Tool Path. Diameter: 2.5)
G0 Z3.000
G0 X0.000 Y0.000
G0 X-6.951 Y33.763
G0 X-6.951 Y33.763 Z2.000
G1 X-6.951 Y33.763 Z-3.000 F120.000
G2 X-7.105 Y34.218 Z-3.000 I-0.049 J0.237 K0.000 F300.000
G2 X-6.895 Y33.782 Z-3.000 I0.105 J-0.218 K0.000 F300.000
G2 X-6.951 Y33.763 Z-3.000 I-0.105 J0.218 K0.000 F300.000
G1 X-6.951 Y33.763 Z-7.000 F120.000
G2 X-7.105 Y34.218 Z-7.000 I-0.049 J0.237 K0.000 F300.000
G2 X-6.895 Y33.782 Z-7.000 I0.105 J-0.218 K0.000 F300.000
G2 X-6.951 Y33.763 Z-7.000 I-0.105 J0.218 K0.000 F300.000
G1 X-6.951 Y33.763 Z-10.000 F120.000
G2 X-7.105 Y34.218 Z-10.000 I-0.049 J0.237 K0.000 F300.000
G2 X-6.895 Y33.782 Z-10.000 I0.105 J-0.218 K0.000 F300.000
G2 X-6.951 Y33.763 Z-10.000 I-0.105 J0.218 K0.000 F300.000
G0 Z3.000
G0 Z3.000
G0 X-6.951 Y33.763
G0 X-1.747 Y33.887
G0 X-1.747 Y33.887 Z2.000
G1 X-1.747 Y33.887 Z-3.000 F120.000
G2 X1.943 Y38.629 Z-3.000 I4.747 J0.113 K0.000 F300.000
G2 X7.629 Y35.057 Z-3.000 I1.057 J-4.629 K0.000 F300.000
G2 X4.057 Y29.371 Z-3.000 I-4.629 J-1.057 K0.000 F300.000
G2 X-1.747 Y33.887 Z-3.000 I-1.057 J4.629 K0.000 F300.000
G1 X-1.747 Y33.887 Z-7.000 F120.000
G2 X1.943 Y38.629 Z-7.000 I4.747 J0.113 K0.000 F300.000
G2 X7.629 Y35.057 Z-7.000 I1.057 J-4.629 K0.000 F300.000
G2 X4.057 Y29.371 Z-7.000 I-4.629 J-1.057 K0.000 F300.000
G2 X-1.747 Y33.887 Z-7.000 I-1.057 J4.629 K0.000 F300.000
G1 X-1.747 Y33.887 Z-10.000 F120.000
G2 X1.943 Y38.629 Z-10.000 I4.747 J0.113 K0.000 F300.000
G2 X7.629 Y35.057 Z-10.000 I1.057 J-4.629 K0.000 F300.000
G2 X4.057 Y29.371 Z-10.000 I-4.629 J-1.057 K0.000 F300.000
G2 X-1.747 Y33.887 Z-10.000 I-1.057 J4.629 K0.000 F300.000
G0 Z3.000
G0 Z3.000
G0 X-1.747 Y33.887
G0 X12.758 Y33.998
G0 X12.758 Y33.998 Z2.000
G1 X12.758 Y33.998 Z-3.000 F120.000
G2 X13.218 Y34.105 Z-3.000 I0.242 J0.002 K0.000 F300.000
G2 X12.782 Y33.895 Z-3.000 I-0.218 J-0.105 K0.000 F300.000
G2 X12.758 Y33.998 Z-3.000 I0.218 J0.105 K0.000 F300.000
G1 X12.758 Y33.998 Z-7.000 F120.000
G2 X13.218 Y34.105 Z-7.000 I0.242 J0.002 K0.000 F300.000
G2 X12.782 Y33.895 Z-7.000 I-0.218 J-0.105 K0.000 F300.000
G2 X12.758 Y33.998 Z-7.000 I0.218 J0.105 K0.000 F300.000
G1 X12.758 Y33.998 Z-10.000 F120.000
G2 X13.218 Y34.105 Z-10.000 I0.242 J0.002 K0.000 F300.000
G2 X12.782 Y33.895 Z-10.000 I-0.218 J-0.105 K0.000 F300.000
G2 X12.758 Y33.998 Z-10.000 I0.218 J0.105 K0.000 F300.000
G0 Z3.000
G0 Z3.000
G0 X12.758 Y33.998
G0 X30.485 Y23.768
G0 X30.485 Y23.768 Z2.000
G1 X30.485 Y23.768 Z-3.000 F120.000
G2 X32.201 Y24.629 Z-3.000 I1.512 J-0.873 K0.000 F300.000
G2 X32.033 Y21.149 Z-3.000 I-0.203 J-1.734 K0.000 F300.000
G1 X31.762 Y21.165 Z-3.000 F300.000
G2 X30.485 Y23.768 Z-3.000 I0.236 J1.730 K0.000 F300.000
G1 X30.485 Y23.768 Z-7.000 F120.000
G2 X32.201 Y24.629 Z-7.000 I1.512 J-0.873 K0.000 F300.000
G2 X32.033 Y21.149 Z-7.000 I-0.203 J-1.734 K0.000 F300.000
G1 X31.762 Y21.165 Z-7.000 F300.000
G2 X30.485 Y23.768 Z-7.000 I0.236 J1.730 K0.000 F300.000
G1 X30.485 Y23.768 Z-10.000 F120.000
G2 X32.201 Y24.629 Z-10.000 I1.512 J-0.873 K0.000 F300.000
G2 X32.033 Y21.149 Z-10.000 I-0.203 J-1.734 K0.000 F300.000
G1 X31.762 Y21.165 Z-10.000 F300.000
G2 X30.485 Y23.768 Z-10.000 I0.236 J1.730 K0.000 F300.000
G0 Z3.000
G0 Z3.000
G0 X30.485 Y23.768
G0 X46.164 Y35.202
G0 X46.164 Y35.202 Z2.000
G1 X46.164 Y35.202 Z-3.000 F120.000
G2 X50.164 Y42.745 Z-3.000 I3.836 J2.798 K0.000 F300.000
G2 X50.103 Y33.253 Z-3.000 I-0.164 J-4.745 K0.000 F300.000
G1 X49.562 Y33.272 Z-3.000 F300.000
G2 X46.164 Y35.202 Z-3.000 I0.439 J4.728 K0.000 F300.000
G1 X46.164 Y35.202 Z-7.000 F120.000
G2 X50.164 Y42.745 Z-7.000 I3.836 J2.798 K0.000 F300.000
G2 X50.103 Y33.253 Z-7.000 I-0.164 J-4.745 K0.000 F300.000
G1 X49.562 Y33.272 Z-7.000 F300.000
G2 X46.164 Y35.202 Z-7.000 I0.439 J4.728 K0.000 F300.000
G1 X46.164 Y35.202 Z-10.000 F120.000
G2 X50.164 Y42.745 Z-10.000 I3.836 J2.798 K0.000 F300.000
G2 X50.103 Y33.253 Z-10.000 I-0.164 J-4.745 K0.000 F300.000
G1 X49.562 Y33.272 Z-10.000 F300.000
G2 X46.164 Y35.202 Z-10.000 I0.439 J4.728 K0.000 F300.000
G0 Z3.000
G0 Z3.000
G0 X46.164 Y35.202
G0 X66.652 Y51.998
G0 X66.652 Y51.998 Z2.000
G1 X66.652 Y51.998 Z-3.000 F120.000
G2 X66.359 Y52.514 Z-3.000 I1.350 J1.107 K0.000 F300.000
G2 X67.412 Y54.749 Z-3.000 I1.643 J0.591 K0.000 F300.000
G2 X69.646 Y53.694 Z-3.000 I0.590 J-1.644 K0.000 F300.000
G2 X66.652 Y51.998 Z-3.000 I-1.644 J-0.589 K0.000 F300.000
G1 X66.652 Y51.998 Z-7.000 F120.000
G2 X66.359 Y52.514 Z-7.000 I1.350 J1.107 K0.000 F300.000
G2 X67.412 Y54.749 Z-7.000 I1.643 J0.591 K0.000 F300.000
G2 X69.646 Y53.694 Z-7.000 I0.590 J-1.644 K0.000 F300.000
G2 X66.652 Y51.998 Z-7.000 I-1.644 J-0.589 K0.000 F300.000
G1 X66.652 Y51.998 Z-10.000 F120.000
G2 X66.359 Y52.514 Z-10.000 I1.350 J1.107 K0.000 F300.000
G2 X67.412 Y54.749 Z-10.000 I1.643 J0.591 K0.000 F300.000
G2 X69.646 Y53.694 Z-10.000 I0.590 J-1.644 K0.000 F300.000
G2 X66.652 Y51.998 Z-10.000 I-1.644 J-0.589 K0.000 F300.000
G0 Z3.000
G0 Z3.000
G0 X66.652 Y51.998
G0 X78.826 Y40.169
G0 X78.826 Y40.169 Z2.000
G1 X78.826 Y40.169 Z-3.000 F120.000
G2 X78.895 Y40.218 Z-3.000 I0.174 J-0.169 K0.000 F300.000
G2 X79.105 Y39.782 Z-3.000 I0.105 J-0.218 K0.000 F300.000
G2 X78.826 Y40.169 Z-3.000 I-0.105 J0.218 K0.000 F300.000
G1 X78.826 Y40.169 Z-7.000 F120.000
G2 X78.895 Y40.218 Z-7.000 I0.174 J-0.169 K0.000 F300.000
G2 X79.105 Y39.782 Z-7.000 I0.105 J-0.218 K0.000 F300.000
G2 X78.826 Y40.169 Z-7.000 I-0.105 J0.218 K0.000 F300.000
G1 X78.826 Y40.169 Z-10.000 F120.000
G2 X78.895 Y40.218 Z-10.000 I0.174 J-0.169 K0.000 F300.000
G2 X79.105 Y39.782 Z-10.000 I0.105 J-0.218 K0.000 F300.000
G2 X78.826 Y40.169 Z-10.000 I-0.105 J0.218 K0.000 F300.000
G0 Z3.000
G0 Z3.000
G0 X78.826 Y40.169
G0 X78.919 Y34.747
G0 X78.919 Y34.747 Z2.000
G1 X78.919 Y34.747 Z-3.000 F120.000
G2 X80.057 Y25.371 Z-3.000 I0.081 J-4.747 K0.000 F300.000
G2 X77.943 Y34.629 Z-3.000 I-1.057 J4.629 K0.000 F300.000
G2 X78.919 Y34.747 Z-3.000 I1.057 J-4.629 K0.000 F300.000
G1 X78.919 Y34.747 Z-7.000 F120.000
G2 X80.057 Y25.371 Z-7.000 I0.081 J-4.747 K0.000 F300.000
G2 X77.943 Y34.629 Z-7.000 I-1.057 J4.629 K0.000 F300.000
G2 X78.919 Y34.747 Z-7.000 I1.057 J-4.629 K0.000 F300.000
G1 X78.919 Y34.747 Z-10.000 F120.000
G2 X80.057 Y25.371 Z-10.000 I0.081 J-4.747 K0.000 F300.000
G2 X77.943 Y34.629 Z-10.000 I-1.057 J4.629 K0.000 F300.000
G2 X78.919 Y34.747 Z-10.000 I1.057 J-4.629 K0.000 F300.000
G0 Z3.000
G0 Z3.000
G0 X78.919 Y34.747
G0 X78.999 Y20.242
G0 X78.999 Y20.242 Z2.000
G1 X78.999 Y20.242 Z-3.000 F120.000
G2 X79.055 Y20.236 Z-3.000 I0.001 J-0.242 K0.000 F300.000
G2 X78.987 Y19.758 Z-3.000 I-0.055 J-0.236 K0.000 F300.000
G1 X78.935 Y19.767 Z-3.000 F300.000
G2 X78.999 Y20.242 Z-3.000 I0.065 J0.233 K0.000 F300.000
G1 X78.999 Y20.242 Z-7.000 F120.000
G2 X79.055 Y20.236 Z-7.000 I0.001 J-0.242 K0.000 F300.000
G2 X78.987 Y19.758 Z-7.000 I-0.055 J-0.236 K0.000 F300.000
G1 X78.935 Y19.767 Z-7.000 F300.000
G2 X78.999 Y20.242 Z-7.000 I0.065 J0.233 K0.000 F300.000
G1 X78.999 Y20.242 Z-10.000 F120.000
G2 X79.055 Y20.236 Z-10.000 I0.001 J-0.242 K0.000 F300.000
G2 X78.987 Y19.758 Z-10.000 I-0.055 J-0.236 K0.000 F300.000
G1 X78.935 Y19.767 Z-10.000 F300.000
G2 X78.999 Y20.242 Z-10.000 I0.065 J0.233 K0.000 F300.000
G0 Z3.000
G0 Z3.000
G0 Z3.000
G0 Z3.000
G0 Z3.000
G0 Z3.000
G0 X0.000 Y0.000
G0 X37.752 Y60.794
G0 X37.752 Y60.794 Z2.000
G1 X37.752 Y60.794 Z-3.000 F120.000
G2 X37.775 Y61.218 Z-3.000 I0.128 J0.206 K0.000 F300.000
G2 X38.098 Y61.105 Z-3.000 I0.105 J-0.218 K0.000 F300.000
G2 X37.985 Y60.782 Z-3.000 I-0.218 J-0.105 K0.000 F300.000
G2 X37.752 Y60.794 Z-3.000 I-0.105 J0.218 K0.000 F300.000
G1 X37.752 Y60.794 Z-7.000 F120.000
G2 X37.775 Y61.218 Z-7.000 I0.128 J0.206 K0.000 F300.000
G2 X38.098 Y61.105 Z-7.000 I0.105 J-0.218 K0.000 F300.000
G2 X37.985 Y60.782 Z-7.000 I-0.218 J-0.105 K0.000 F300.000
G2 X37.752 Y60.794 Z-7.000 I-0.105 J0.218 K0.000 F300.000
G1 X37.752 Y60.794 Z-10.000 F120.000
G2 X37.775 Y61.218 Z-10.000 I0.128 J0.206 K0.000 F300.000
G2 X38.098 Y61.105 Z-10.000 I0.105 J-0.218 K0.000 F300.000
G2 X37.985 Y60.782 Z-10.000 I-0.218 J-0.105 K0.000 F300.000
G2 X37.752 Y60.794 Z-10.000 I-0.105 J0.218 K0.000 F300.000
G0 Z3.000
G0 Z3.000
G0 X37.752 Y60.794
G0 X-3.638 Y60.999
G0 X-3.638 Y60.999 Z2.000
G1 X-3.638 Y60.999 Z-3.000 F120.000
G2 X-3.775 Y60.782 Z-3.000 I-0.242 J0.001 K0.000 F300.000
G2 X-4.098 Y60.895 Z-3.000 I-0.105 J0.218 K0.000 F300.000
G2 X-3.985 Y61.218 Z-3.000 I0.218 J0.105 K0.000 F300.000
G2 X-3.638 Y60.999 Z-3.000 I0.105 J-0.218 K0.000 F300.000
G1 X-3.638 Y60.999 Z-7.000 F120.000
G2 X-3.775 Y60.782 Z-7.000 I-0.242 J0.001 K0.000 F300.000
G2 X-4.098 Y60.895 Z-7.000 I-0.105 J0.218 K0.000 F300.000
G2 X-3.985 Y61.218 Z-7.000 I0.218 J0.105 K0.000 F300.000
G2 X-3.638 Y60.999 Z-7.000 I0.105 J-0.218 K0.000 F300.000
G1 X-3.638 Y60.999 Z-10.000 F120.000
G2 X-3.775 Y60.782 Z-10.000 I-0.242 J0.001 K0.000 F300.000
G2 X-4.098 Y60.895 Z-10.000 I-0.105 J0.218 K0.000 F300.000
G2 X-3.985 Y61.218 Z-10.000 I0.218 J0.105 K0.000 F300.000
G2 X-3.638 Y60.999 Z-10.000 I0.105 J-0.218 K0.000 F300.000
G0 Z3.000
G0 Z3.000
(Finish operation: bearing002)
(Begin operation: fan mount)
(Path: fan mount)
(fan mount)
(Compensated Tool Path. Diameter: 2.5)
G0 Z3.000
G0 X0.000 Y0.000
G0 X52.791 Y-17.734
G0 X52.791 Y-17.734 Z2.000
G1 X52.791 Y-17.734 Z-2.000 F120.000
G1 X57.193 Y-13.332 Z-2.000 F300.000
G3 X57.537 Y-13.696 Z-2.000 I1.515 J1.088 K0.000 F300.000
G1 X53.145 Y-18.088 Z-2.000 F300.000
G1 X52.791 Y-17.734 Z-2.000 F300.000
G0 Z3.000
G0 X82.572 Y-11.804 Z3.000
G0 X82.572 Y-11.804 Z2.000
G1 X82.572 Y-11.804 Z-2.000 F120.000
G3 X82.910 Y-11.435 Z-2.000 I-3.757 J3.775 K0.000 F300.000
G1 X86.854 Y-15.379 Z-2.000 F300.000
G1 X86.500 Y-15.732 Z-2.000 F300.000
G1 X82.572 Y-11.804 Z-2.000 F300.000
G0 Z3.000
G0 X82.796 Y11.563 Z3.000
G0 X82.796 Y11.563 Z2.000
G1 X82.796 Y11.563 Z-2.000 F120.000
G3 X82.454 Y11.929 Z-2.000 I-4.056 J-3.453 K0.000 F300.000
G1 X86.379 Y15.854 Z-2.000 F300.000
G1 X86.732 Y15.500 Z-2.000 F300.000
G1 X82.796 Y11.563 Z-2.000 F300.000
G0 Z3.000
G0 X57.670 Y13.805 Z3.000
G0 X57.670 Y13.805 Z2.000
G1 X57.670 Y13.805 Z-2.000 F120.000
G3 X57.303 Y13.464 Z-2.000 I0.845 J-1.278 K0.000 F300.000
G1 X52.912 Y17.855 Z-2.000 F300.000
G1 X53.266 Y18.209 Z-2.000 F300.000
G1 X57.670 Y13.805 Z-2.000 F300.000
G1 X57.670 Y13.805 Z-5.000 F120.000
G3 X57.303 Y13.464 Z-5.000 I0.845 J-1.278 K0.000 F300.000
G1 X52.912 Y17.855 Z-5.000 F300.000
G1 X53.266 Y18.209 Z-5.000 F300.000
G1 X57.670 Y13.805 Z-5.000 F300.000
G0 Z3.000
G0 X82.454 Y11.929 Z3.000
G0 X82.454 Y11.929 Z2.000
G1 X82.454 Y11.929 Z-5.000 F120.000
G1 X86.379 Y15.854 Z-5.000 F300.000
G1 X86.732 Y15.500 Z-5.000 F300.000
G1 X82.796 Y11.563 Z-5.000 F300.000
G3 X82.454 Y11.929 Z-5.000 I-4.056 J-3.453 K0.000 F300.000
G0 Z3.000
G0 X82.910 Y-11.435 Z3.000
G0 X82.910 Y-11.435 Z2.000
G1 X82.910 Y-11.435 Z-5.000 F120.000
G1 X86.854 Y-15.379 Z-5.000 F300.000
G1 X86.500 Y-15.732 Z-5.000 F300.000
G1 X82.572 Y-11.804 Z-5.000 F300.000
G3 X82.910 Y-11.435 Z-5.000 I-3.757 J3.775 K0.000 F300.000
G0 Z3.000
G0 X57.537 Y-13.696 Z3.000
G0 X57.537 Y-13.696 Z2.000
G1 X57.537 Y-13.696 Z-5.000 F120.000
G1 X53.145 Y-18.088 Z-5.000 F300.000
G1 X52.791 Y-17.734 Z-5.000 F300.000
G1 X57.193 Y-13.332 Z-5.000 F300.000
G3 X57.537 Y-13.696 Z-5.000 I1.515 J1.088 K0.000 F300.000
G1 X57.537 Y-13.696 Z-8.000 F120.000
G1 X53.145 Y-18.088 Z-8.000 F300.000
G1 X52.791 Y-17.734 Z-8.000 F300.000
G1 X57.193 Y-13.332 Z-8.000 F300.000
G3 X57.537 Y-13.696 Z-8.000 I1.515 J1.088 K0.000 F300.000
G0 Z3.000
G0 X82.572 Y-11.804 Z3.000
G0 X82.572 Y-11.804 Z2.000
G1 X82.572 Y-11.804 Z-8.000 F120.000
G3 X82.910 Y-11.435 Z-8.000 I-3.757 J3.775 K0.000 F300.000
G1 X86.854 Y-15.379 Z-8.000 F300.000
G1 X86.500 Y-15.732 Z-8.000 F300.000
G1 X82.572 Y-11.804 Z-8.000 F300.000
G0 Z3.000
G0 X82.796 Y11.563 Z3.000
G0 X82.796 Y11.563 Z2.000
G1 X82.796 Y11.563 Z-8.000 F120.000
G3 X82.454 Y11.929 Z-8.000 I-4.056 J-3.453 K0.000 F300.000
G1 X86.379 Y15.854 Z-8.000 F300.000
G1 X86.732 Y15.500 Z-8.000 F300.000
G1 X82.796 Y11.563 Z-8.000 F300.000
G0 Z3.000
G0 X57.670 Y13.805 Z3.000
G0 X57.670 Y13.805 Z2.000
G1 X57.670 Y13.805 Z-8.000 F120.000
G3 X57.303 Y13.464 Z-8.000 I0.845 J-1.278 K0.000 F300.000
G1 X52.912 Y17.855 Z-8.000 F300.000
G1 X53.266 Y18.209 Z-8.000 F300.000
G1 X57.670 Y13.805 Z-8.000 F300.000
G1 X57.670 Y13.805 Z-8.100 F120.000
G3 X57.303 Y13.464 Z-8.100 I0.845 J-1.278 K0.000 F300.000
G1 X52.912 Y17.855 Z-8.100 F300.000
G1 X53.266 Y18.209 Z-8.100 F300.000
G1 X57.670 Y13.805 Z-8.100 F300.000
G0 Z3.000
G0 X82.454 Y11.929 Z3.000
G0 X82.454 Y11.929 Z2.000
G1 X82.454 Y11.929 Z-8.100 F120.000
G1 X86.379 Y15.854 Z-8.100 F300.000
G1 X86.732 Y15.500 Z-8.100 F300.000
G1 X82.796 Y11.563 Z-8.100 F300.000
G3 X82.454 Y11.929 Z-8.100 I-4.056 J-3.453 K0.000 F300.000
G0 Z3.000
G0 X82.910 Y-11.435 Z3.000
G0 X82.910 Y-11.435 Z2.000
G1 X82.910 Y-11.435 Z-8.100 F120.000
G1 X86.854 Y-15.379 Z-8.100 F300.000
G1 X86.500 Y-15.732 Z-8.100 F300.000
G1 X82.572 Y-11.804 Z-8.100 F300.000
G3 X82.910 Y-11.435 Z-8.100 I-3.757 J3.775 K0.000 F300.000
G0 Z3.000
G0 X57.537 Y-13.696 Z3.000
G0 X57.537 Y-13.696 Z2.000
G1 X57.537 Y-13.696 Z-8.100 F120.000
G1 X53.145 Y-18.088 Z-8.100 F300.000
G1 X52.791 Y-17.734 Z-8.100 F300.000
G1 X57.193 Y-13.332 Z-8.100 F300.000
G3 X57.537 Y-13.696 Z-8.100 I1.515 J1.088 K0.000 F300.000
G0 Z3.000
G0 Z3.000
(Finish operation: fan mount)
(Begin operation: hotend mount)
(Path: hotend mount)
(hotend mount)
(Begin Drilling)
G0 Z3.000
G90
G99
G81 X59.000 Y12.000 Z-10.000 F120.000 R2.000
G80
G0 Z2.000
G81 X59.000 Y-12.000 Z-10.000 F120.000 R2.000
G80
G0 Z2.000
G81 X83.000 Y-12.000 Z-10.000 F120.000 R2.000
G80
G0 Z2.000
G81 X83.000 Y12.000 Z-10.000 F120.000 R2.000
G80
G0 Z2.000
G0 Z3.000
(Finish operation: hotend mount)
(Begin operation: port002)
(Path: port002)
(port002)
(Compensated Tool Path. Diameter: 2.5)
G0 Z6.000
G0 X0.000 Y0.000
G0 X4.941 Y-12.148
G0 X4.941 Y-12.148 Z4.000
G1 X4.941 Y-12.148 Z-3.000 F120.000
G1 X12.333 Y-20.957 Z-3.000 F300.000
G1 X8.886 Y-23.850 Z-3.000 F300.000
G1 X1.493 Y-15.040 Z-3.000 F300.000
G1 X4.941 Y-12.148 Z-3.000 F300.000
G1 X4.941 Y-12.148 Z-7.000 F120.000
G1 X12.333 Y-20.957 Z-7.000 F300.000
G1 X8.886 Y-23.850 Z-7.000 F300.000
G1 X1.493 Y-15.040 Z-7.000 F300.000
G1 X4.941 Y-12.148 Z-7.000 F300.000
G1 X4.941 Y-12.148 Z-10.000 F120.000
G1 X12.333 Y-20.957 Z-10.000 F300.000
G1 X8.886 Y-23.850 Z-10.000 F300.000
G1 X1.493 Y-15.040 Z-10.000 F300.000
G1 X4.941 Y-12.148 Z-10.000 F300.000
G0 Z6.000
G0 Z6.000
(Finish operation: port002)
(Begin operation: fanhole)
(Path: fanhole)
(fanhole)
(Compensated Tool Path. Diameter: 2.5)
G0 Z6.000
G0 X0.000 Y0.000
G0 X57.151
G0 X57.151 Z4.000
G1 X57.151 Y-0.000 Z-3.000 F120.000
G2 X82.706 Y1.915 Z-3.000 I12.849 J0.000 K0.000 F300.000
G2 X57.294 Y-1.915 Z-3.000 I-12.706 J-1.915 K0.000 F300.000
G2 X57.151 Y-0.000 Z-3.000 I12.706 J1.915 K0.000 F300.000
G1 X57.151 Y-0.000 Z-7.000 F120.000
G2 X82.706 Y1.915 Z-7.000 I12.849 J0.000 K0.000 F300.000
G2 X57.294 Y-1.915 Z-7.000 I-12.706 J-1.915 K0.000 F300.000
G2 X57.151 Y-0.000 Z-7.000 I12.706 J1.915 K0.000 F300.000
G1 X57.151 Y-0.000 Z-10.000 F120.000
G2 X82.706 Y1.915 Z-10.000 I12.849 J0.000 K0.000 F300.000
G2 X57.294 Y-1.915 Z-10.000 I-12.706 J-1.915 K0.000 F300.000
G2 X57.151 Y-0.000 Z-10.000 I12.706 J1.915 K0.000 F300.000
G0 Z6.000
G0 Z6.000
(Finish operation: fanhole)
(Begin operation: outline)
(Path: outline)
(outline)
(Compensated Tool Path. Diameter: 2.5)
G0 Z3.000
G0 X0.000 Y0.000
G0 X-12.250
G0 X-12.250 Z2.000
G1 X-12.250 Y0.000 Z-3.000 F120.000
G1 X-12.250 Y65.000 Z-3.000 F300.000
G2 X-11.884 Y65.884 Z-3.000 I1.250 J-0.000 K0.000 F300.000
G1 X-6.884 Y70.884 Z-3.000 F300.000
G2 X-6.000 Y71.250 Z-3.000 I0.884 J-0.884 K0.000 F300.000
G1 X1.992 Y71.250 Z-3.000 F300.000
G2 X3.085 Y69.394 Z-3.000 I-0.000 J-1.250 K0.000 F300.000
G3 X3.048 Y52.670 Z-3.000 I13.920 J-8.392 K0.000 F300.000
G3 X25.362 Y47.067 Z-3.000 I13.952 J8.331 K0.000 F300.000
G3 X30.916 Y69.393 Z-3.000 I-8.361 J13.934 K0.000 F300.000
G2 X32.008 Y71.250 Z-3.000 I1.093 J0.607 K0.000 F300.000
G1 X69.000 Y71.250 Z-3.000 F300.000
G2 X69.884 Y70.884 Z-3.000 I-0.000 J-1.250 K0.000 F300.000
G1 X89.884 Y50.884 Z-3.000 F300.000
G2 X90.250 Y50.000 Z-3.000 I-0.884 J-0.884 K0.000 F300.000
G1 X90.250 Y-20.000 Z-3.000 F300.000
G2 X89.884 Y-20.884 Z-3.000 I-1.250 J0.000 K0.000 F300.000
G1 X79.884 Y-30.884 Z-3.000 F300.000
G2 X79.000 Y-31.250 Z-3.000 I-0.884 J0.884 K0.000 F300.000
G1 X9.000 Y-31.250 Z-3.000 F300.000
G2 X8.116 Y-30.884 Z-3.000 I0.000 J1.250 K0.000 F300.000
G1 X-11.884 Y-10.884 Z-3.000 F300.000
G2 X-12.250 Y-10.000 Z-3.000 I0.884 J0.884 K0.000 F300.000
G1 X-12.250 Y0.000 Z-3.000 F300.000
G1 X-12.250 Y0.000 Z-7.000 F120.000
G1 X-12.250 Y65.000 Z-7.000 F300.000
G2 X-11.884 Y65.884 Z-7.000 I1.250 J-0.000 K0.000 F300.000
G1 X-6.884 Y70.884 Z-7.000 F300.000
G2 X-6.000 Y71.250 Z-7.000 I0.884 J-0.884 K0.000 F300.000
G1 X1.992 Y71.250 Z-7.000 F300.000
G2 X3.085 Y69.394 Z-7.000 I-0.000 J-1.250 K0.000 F300.000
G3 X3.048 Y52.670 Z-7.000 I13.920 J-8.392 K0.000 F300.000
G3 X25.362 Y47.067 Z-7.000 I13.952 J8.331 K0.000 F300.000
G3 X30.916 Y69.393 Z-7.000 I-8.361 J13.934 K0.000 F300.000
G2 X32.008 Y71.250 Z-7.000 I1.093 J0.607 K0.000 F300.000
G1 X69.000 Y71.250 Z-7.000 F300.000
G2 X69.884 Y70.884 Z-7.000 I-0.000 J-1.250 K0.000 F300.000
G1 X89.884 Y50.884 Z-7.000 F300.000
G2 X90.250 Y50.000 Z-7.000 I-0.884 J-0.884 K0.000 F300.000
G1 X90.250 Y-20.000 Z-7.000 F300.000
G2 X89.884 Y-20.884 Z-7.000 I-1.250 J0.000 K0.000 F300.000
G1 X79.884 Y-30.884 Z-7.000 F300.000
G2 X79.000 Y-31.250 Z-7.000 I-0.884 J0.884 K0.000 F300.000
G1 X9.000 Y-31.250 Z-7.000 F300.000
G2 X8.116 Y-30.884 Z-7.000 I0.000 J1.250 K0.000 F300.000
G1 X-11.884 Y-10.884 Z-7.000 F300.000
G2 X-12.250 Y-10.000 Z-7.000 I0.884 J0.884 K0.000 F300.000
G1 X-12.250 Y0.000 Z-7.000 F300.000
G1 X-12.250 Y0.000 Z-10.000 F120.000
G1 X-12.250 Y65.000 Z-10.000 F300.000
G2 X-11.884 Y65.884 Z-10.000 I1.250 J-0.000 K0.000 F300.000
G1 X-6.884 Y70.884 Z-10.000 F300.000
G2 X-6.000 Y71.250 Z-10.000 I0.884 J-0.884 K0.000 F300.000
G1 X1.992 Y71.250 Z-10.000 F300.000
G2 X3.085 Y69.394 Z-10.000 I-0.000 J-1.250 K0.000 F300.000
G3 X3.048 Y52.670 Z-10.000 I13.920 J-8.392 K0.000 F300.000
G3 X25.362 Y47.067 Z-10.000 I13.952 J8.331 K0.000 F300.000
G3 X30.916 Y69.393 Z-10.000 I-8.361 J13.934 K0.000 F300.000
G2 X32.008 Y71.250 Z-10.000 I1.093 J0.607 K0.000 F300.000
G1 X69.000 Y71.250 Z-10.000 F300.000
G2 X69.884 Y70.884 Z-10.000 I-0.000 J-1.250 K0.000 F300.000
G1 X89.884 Y50.884 Z-10.000 F300.000
G2 X90.250 Y50.000 Z-10.000 I-0.884 J-0.884 K0.000 F300.000
G1 X90.250 Y-20.000 Z-10.000 F300.000
G2 X89.884 Y-20.884 Z-10.000 I-1.250 J0.000 K0.000 F300.000
G1 X79.884 Y-30.884 Z-10.000 F300.000
G2 X79.000 Y-31.250 Z-10.000 I-0.884 J0.884 K0.000 F300.000
G1 X9.000 Y-31.250 Z-10.000 F300.000
G2 X8.116 Y-30.884 Z-10.000 I0.000 J1.250 K0.000 F300.000
G1 X-11.884 Y-10.884 Z-10.000 F300.000
G2 X-12.250 Y-10.000 Z-10.000 I0.884 J0.884 K0.000 F300.000
G1 X-12.250 Y0.000 Z-10.000 F300.000
G0 Z3.000
G0 Z3.000
(Finish operation: outline)
(Begin postamble)
M5
G17 G90
M2
