(Exported by FreeCAD)
(Post Processor: grbl_post)
(Output Time:2021-11-08 09:09:55.688550)
(Begin preamble)
G17 G90
G21
(Begin operation: Fixture)
(Path: Fixture)
G54
(Finish operation: Fixture)
(Begin operation: 2.5mm_Endmill003)
(Path: 2.5mm_Endmill003)
(2.5mm_Endmill003)
(Begin toolchange)
( M6 T1.0 )
M3 S200.0
(Finish operation: 2.5mm_Endmill003)
(Begin operation: Profile)
(Path: Profile)
(Profile)
(Compensated Tool Path. Diameter: 2.5)
G0 Z3.000
G0 X0.000 Y0.000
G0 X4.765 Y-14.294
G0 X4.765 Y-14.294 Z2.000
G1 X4.765 Y-14.294 Z-3.000 F120.000
G2 X5.285 Y-15.687 Z-3.000 I0.235 J-0.706 K0.000 F300.000
G2 X4.715 Y-14.313 Z-3.000 I-0.285 J0.687 K0.000 F300.000
G2 X4.765 Y-14.294 Z-3.000 I0.285 J-0.687 K0.000 F300.000
G1 X4.765 Y-14.294 Z-7.000 F120.000
G2 X5.285 Y-15.687 Z-7.000 I0.235 J-0.706 K0.000 F300.000
G2 X4.715 Y-14.313 Z-7.000 I-0.285 J0.687 K0.000 F300.000
G2 X4.765 Y-14.294 Z-7.000 I0.285 J-0.687 K0.000 F300.000
G1 X4.765 Y-14.294 Z-10.000 F120.000
G2 X5.285 Y-15.687 Z-10.000 I0.235 J-0.706 K0.000 F300.000
G2 X4.715 Y-14.313 Z-10.000 I-0.285 J0.687 K0.000 F300.000
G2 X4.765 Y-14.294 Z-10.000 I0.285 J-0.687 K0.000 F300.000
G0 Z3.000
G0 Z3.000
(Finish operation: Profile)
(Begin operation: Profile001)
(Path: Profile001)
(Profile001)
(Compensated Tool Path. Diameter: 2.5)
G0 Z3.000
G0 X0.000 Y0.000
G0 Y1.250
G0 Y1.250 Z2.000
G1 X-0.000 Y1.250 Z-3.000 F120.000
G1 X10.000 Y1.250 Z-3.000 F300.000
G2 X11.250 Y0.000 Z-3.000 I0.000 J-1.250 K0.000 F300.000
G1 X11.250 Y-20.000 Z-3.000 F300.000
G2 X10.000 Y-21.250 Z-3.000 I-1.250 J-0.000 K0.000 F300.000
G1 X-0.000 Y-21.250 Z-3.000 F300.000
G2 X-1.250 Y-20.000 Z-3.000 I-0.000 J1.250 K0.000 F300.000
G1 X-1.250 Y0.000 Z-3.000 F300.000
G2 X-0.000 Y1.250 Z-3.000 I1.250 J0.000 K0.000 F300.000
G1 X-0.000 Y1.250 Z-7.000 F120.000
G1 X10.000 Y1.250 Z-7.000 F300.000
G2 X11.250 Y0.000 Z-7.000 I0.000 J-1.250 K0.000 F300.000
G1 X11.250 Y-20.000 Z-7.000 F300.000
G2 X10.000 Y-21.250 Z-7.000 I-1.250 J-0.000 K0.000 F300.000
G1 X-0.000 Y-21.250 Z-7.000 F300.000
G2 X-1.250 Y-20.000 Z-7.000 I-0.000 J1.250 K0.000 F300.000
G1 X-1.250 Y0.000 Z-7.000 F300.000
G2 X-0.000 Y1.250 Z-7.000 I1.250 J0.000 K0.000 F300.000
G1 X-0.000 Y1.250 Z-10.000 F120.000
G1 X10.000 Y1.250 Z-10.000 F300.000
G2 X11.250 Y0.000 Z-10.000 I0.000 J-1.250 K0.000 F300.000
G1 X11.250 Y-20.000 Z-10.000 F300.000
G2 X10.000 Y-21.250 Z-10.000 I-1.250 J-0.000 K0.000 F300.000
G1 X-0.000 Y-21.250 Z-10.000 F300.000
G2 X-1.250 Y-20.000 Z-10.000 I-0.000 J1.250 K0.000 F300.000
G1 X-1.250 Y0.000 Z-10.000 F300.000
G2 X-0.000 Y1.250 Z-10.000 I1.250 J0.000 K0.000 F300.000
G0 Z3.000
G0 Z3.000
(Finish operation: Profile001)
(Begin postamble)
M5
G17 G90
M2
