(Exported by FreeCAD)
(Post Processor: grbl_post)
(Output Time:2021-11-08 08:02:52.061368)
(Begin preamble)
G17 G90
G21
(Begin operation: Fixture)
(Path: Fixture)
G54
(Finish operation: Fixture)
(Begin operation: 2.5mm_Endmill003)
(Path: 2.5mm_Endmill003)
(2.5mm_Endmill003)
(Begin toolchange)
( M6 T1.0 )
M3 S200.0
(Finish operation: 2.5mm_Endmill003)
(Begin operation: Profile001)
(Path: Profile001)
(Profile001)
(Compensated Tool Path. Diameter: 2.5)
G0 Z3.000
G0 X0.000 Y0.000
G0 X4.758
G0 X4.758 Z2.000
G1 X4.758 Y0.000 Z-3.000 F120.000
G2 X4.895 Y0.218 Z-3.000 I0.242 J-0.000 K0.000 F300.000
G2 X5.105 Y-0.218 Z-3.000 I0.105 J-0.218 K0.000 F300.000
G2 X4.758 Y0.000 Z-3.000 I-0.105 J0.218 K0.000 F300.000
G1 X4.758 Y0.000 Z-7.000 F120.000
G2 X4.895 Y0.218 Z-7.000 I0.242 J-0.000 K0.000 F300.000
G2 X5.105 Y-0.218 Z-7.000 I0.105 J-0.218 K0.000 F300.000
G2 X4.758 Y0.000 Z-7.000 I-0.105 J0.218 K0.000 F300.000
G1 X4.758 Y0.000 Z-10.000 F120.000
G2 X4.895 Y0.218 Z-10.000 I0.242 J-0.000 K0.000 F300.000
G2 X5.105 Y-0.218 Z-10.000 I0.105 J-0.218 K0.000 F300.000
G2 X4.758 Y0.000 Z-10.000 I-0.105 J0.218 K0.000 F300.000
G0 Z3.000
G0 Z3.000
G0 X4.758
G0 X10.252
G0 X10.252 Z2.000
G1 X10.252 Y0.000 Z-3.000 F120.000
G2 X13.943 Y4.629 Z-3.000 I4.748 J-0.000 K0.000 F300.000
G2 X16.057 Y-4.629 Z-3.000 I1.057 J-4.629 K0.000 F300.000
G2 X10.252 Y0.000 Z-3.000 I-1.057 J4.629 K0.000 F300.000
G1 X10.252 Y0.000 Z-7.000 F120.000
G2 X13.943 Y4.629 Z-7.000 I4.748 J-0.000 K0.000 F300.000
G2 X16.057 Y-4.629 Z-7.000 I1.057 J-4.629 K0.000 F300.000
G2 X10.252 Y0.000 Z-7.000 I-1.057 J4.629 K0.000 F300.000
G1 X10.252 Y0.000 Z-10.000 F120.000
G2 X13.943 Y4.629 Z-10.000 I4.748 J-0.000 K0.000 F300.000
G2 X16.057 Y-4.629 Z-10.000 I1.057 J-4.629 K0.000 F300.000
G2 X10.252 Y0.000 Z-10.000 I-1.057 J4.629 K0.000 F300.000
G0 Z3.000
G0 Z3.000
G0 X10.252
G0 X24.758
G0 X24.758 Z2.000
G1 X24.758 Y-0.000 Z-3.000 F120.000
G2 X24.895 Y0.218 Z-3.000 I0.242 J-0.000 K0.000 F300.000
G2 X25.105 Y-0.218 Z-3.000 I0.105 J-0.218 K0.000 F300.000
G2 X24.758 Y-0.000 Z-3.000 I-0.105 J0.218 K0.000 F300.000
G1 X24.758 Y-0.000 Z-7.000 F120.000
G2 X24.895 Y0.218 Z-7.000 I0.242 J-0.000 K0.000 F300.000
G2 X25.105 Y-0.218 Z-7.000 I0.105 J-0.218 K0.000 F300.000
G2 X24.758 Y-0.000 Z-7.000 I-0.105 J0.218 K0.000 F300.000
G1 X24.758 Y-0.000 Z-10.000 F120.000
G2 X24.895 Y0.218 Z-10.000 I0.242 J-0.000 K0.000 F300.000
G2 X25.105 Y-0.218 Z-10.000 I0.105 J-0.218 K0.000 F300.000
G2 X24.758 Y-0.000 Z-10.000 I-0.105 J0.218 K0.000 F300.000
G0 Z3.000
G0 Z3.000
(Finish operation: Profile001)
(Begin operation: Profile)
(Path: Profile)
(Profile)
(Compensated Tool Path. Diameter: 2.5)
G0 Z3.000
G0 X0.000 Y0.000
G0 X-1.234 Y0.003
G0 X-1.234 Y0.003 Z2.000
G1 X-1.234 Y0.003 Z-3.000 F120.000
G2 X0.068 Y4.482 Z-3.000 I8.419 J-0.017 K0.000 F300.000
G2 X4.438 Y8.586 Z-3.000 I10.973 J-7.305 K0.000 F300.000
G2 X15.326 Y11.255 Z-3.000 I10.455 J-19.109 K0.000 F300.000
G2 X23.936 Y9.404 Z-3.000 I-0.090 J-21.370 K0.000 F300.000
G2 X29.056 Y5.657 Z-3.000 I-5.201 J-12.480 K0.000 F300.000
G2 X31.244 Y0.095 Z-3.000 I-6.395 J-5.726 K0.000 F300.000
G2 X29.138 Y-5.594 Z-3.000 I-8.999 J0.096 K0.000 F300.000
G2 X24.977 Y-8.904 Z-3.000 I-11.271 J9.900 K0.000 F300.000
G2 X18.090 Y-11.047 Z-3.000 I-9.390 J18.042 K0.000 F300.000
G2 X6.668 Y-9.660 Z-3.000 I-3.111 J22.110 K0.000 F300.000
G2 X1.289 Y-6.052 Z-3.000 I4.939 J13.175 K0.000 F300.000
G2 X-1.132 Y-1.321 Z-3.000 I6.417 J6.269 K0.000 F300.000
G2 X-1.234 Y0.003 Z-3.000 I8.317 J1.306 K0.000 F300.000
G1 X-1.234 Y0.003 Z-7.000 F120.000
G2 X0.068 Y4.482 Z-7.000 I8.419 J-0.017 K0.000 F300.000
G2 X4.438 Y8.586 Z-7.000 I10.973 J-7.305 K0.000 F300.000
G2 X15.326 Y11.255 Z-7.000 I10.455 J-19.109 K0.000 F300.000
G2 X23.936 Y9.404 Z-7.000 I-0.090 J-21.370 K0.000 F300.000
G2 X29.056 Y5.657 Z-7.000 I-5.201 J-12.480 K0.000 F300.000
G2 X31.244 Y0.095 Z-7.000 I-6.395 J-5.726 K0.000 F300.000
G2 X29.138 Y-5.594 Z-7.000 I-8.999 J0.096 K0.000 F300.000
G2 X24.977 Y-8.904 Z-7.000 I-11.271 J9.900 K0.000 F300.000
G2 X18.090 Y-11.047 Z-7.000 I-9.390 J18.042 K0.000 F300.000
G2 X6.668 Y-9.660 Z-7.000 I-3.111 J22.110 K0.000 F300.000
G2 X1.289 Y-6.052 Z-7.000 I4.939 J13.175 K0.000 F300.000
G2 X-1.132 Y-1.321 Z-7.000 I6.417 J6.269 K0.000 F300.000
G2 X-1.234 Y0.003 Z-7.000 I8.317 J1.306 K0.000 F300.000
G1 X-1.234 Y0.003 Z-10.000 F120.000
G2 X0.068 Y4.482 Z-10.000 I8.419 J-0.017 K0.000 F300.000
G2 X4.438 Y8.586 Z-10.000 I10.973 J-7.305 K0.000 F300.000
G2 X15.326 Y11.255 Z-10.000 I10.455 J-19.109 K0.000 F300.000
G2 X23.936 Y9.404 Z-10.000 I-0.090 J-21.370 K0.000 F300.000
G2 X29.056 Y5.657 Z-10.000 I-5.201 J-12.480 K0.000 F300.000
G2 X31.244 Y0.095 Z-10.000 I-6.395 J-5.726 K0.000 F300.000
G2 X29.138 Y-5.594 Z-10.000 I-8.999 J0.096 K0.000 F300.000
G2 X24.977 Y-8.904 Z-10.000 I-11.271 J9.900 K0.000 F300.000
G2 X18.090 Y-11.047 Z-10.000 I-9.390 J18.042 K0.000 F300.000
G2 X6.668 Y-9.660 Z-10.000 I-3.111 J22.110 K0.000 F300.000
G2 X1.289 Y-6.052 Z-10.000 I4.939 J13.175 K0.000 F300.000
G2 X-1.132 Y-1.321 Z-10.000 I6.417 J6.269 K0.000 F300.000
G2 X-1.234 Y0.003 Z-10.000 I8.317 J1.306 K0.000 F300.000
G0 Z3.000
G0 Z3.000
(Finish operation: Profile)
(Begin postamble)
M5
G17 G90
M2
