(Exported by FreeCAD)
(Post Processor: grbl_post)
(Output Time:2021-11-08 07:57:13.073892)
(Begin preamble)
G17 G90
G21
(Begin operation: Fixture)
(Path: Fixture)
G54
(Finish operation: Fixture)
(Begin operation: 2.5mm_Endmill003)
(Path: 2.5mm_Endmill003)
(2.5mm_Endmill003)
(Begin toolchange)
( M6 T1.0 )
M3 S200.0
(Finish operation: 2.5mm_Endmill003)
(Begin operation: Profile)
(Path: Profile)
(Profile)
(Compensated Tool Path. Diameter: 2.5)
G0 Z3.000
G0 X0.000 Y0.000
G0 X10.632 Y-9.666
G0 X10.632 Y-9.666 Z2.000
G1 X10.632 Y-9.666 Z-3.000 F120.000
G2 X10.708 Y-9.598 Z-3.000 I0.368 J-0.334 K0.000 F300.000
G2 X11.402 Y-9.708 Z-3.000 I0.292 J-0.402 K0.000 F300.000
G2 X11.292 Y-10.402 Z-3.000 I-0.402 J-0.292 K0.000 F300.000
G2 X10.632 Y-9.666 Z-3.000 I-0.292 J0.402 K0.000 F300.000
G1 X10.632 Y-9.666 Z-7.000 F120.000
G2 X10.708 Y-9.598 Z-7.000 I0.368 J-0.334 K0.000 F300.000
G2 X11.402 Y-9.708 Z-7.000 I0.292 J-0.402 K0.000 F300.000
G2 X11.292 Y-10.402 Z-7.000 I-0.402 J-0.292 K0.000 F300.000
G2 X10.632 Y-9.666 Z-7.000 I-0.292 J0.402 K0.000 F300.000
G1 X10.632 Y-9.666 Z-10.000 F120.000
G2 X10.708 Y-9.598 Z-10.000 I0.368 J-0.334 K0.000 F300.000
G2 X11.402 Y-9.708 Z-10.000 I0.292 J-0.402 K0.000 F300.000
G2 X11.292 Y-10.402 Z-10.000 I-0.402 J-0.292 K0.000 F300.000
G2 X10.632 Y-9.666 Z-10.000 I-0.292 J0.402 K0.000 F300.000
G0 Z3.000
G0 Z3.000
(Finish operation: Profile)
(Begin operation: Profile001)
(Path: Profile001)
(Profile001)
(Compensated Tool Path. Diameter: 2.5)
G0 Z3.000
G0 X0.000 Y0.000
G0 Y1.250
G0 Y1.250 Z2.000
G1 X0.000 Y1.250 Z-3.000 F120.000
G1 X25.000 Y1.250 Z-3.000 F300.000
G2 X26.250 Y0.000 Z-3.000 I0.000 J-1.250 K0.000 F300.000
G1 X26.250 Y-20.000 Z-3.000 F300.000
G2 X25.000 Y-21.250 Z-3.000 I-1.250 J-0.000 K0.000 F300.000
G1 X0.000 Y-21.250 Z-3.000 F300.000
G2 X-1.250 Y-20.000 Z-3.000 I-0.000 J1.250 K0.000 F300.000
G1 X-1.250 Y0.000 Z-3.000 F300.000
G2 X0.000 Y1.250 Z-3.000 I1.250 J0.000 K0.000 F300.000
G1 X0.000 Y1.250 Z-7.000 F120.000
G1 X25.000 Y1.250 Z-7.000 F300.000
G2 X26.250 Y0.000 Z-7.000 I0.000 J-1.250 K0.000 F300.000
G1 X26.250 Y-20.000 Z-7.000 F300.000
G2 X25.000 Y-21.250 Z-7.000 I-1.250 J-0.000 K0.000 F300.000
G1 X0.000 Y-21.250 Z-7.000 F300.000
G2 X-1.250 Y-20.000 Z-7.000 I-0.000 J1.250 K0.000 F300.000
G1 X-1.250 Y0.000 Z-7.000 F300.000
G2 X0.000 Y1.250 Z-7.000 I1.250 J0.000 K0.000 F300.000
G1 X0.000 Y1.250 Z-10.000 F120.000
G1 X25.000 Y1.250 Z-10.000 F300.000
G2 X26.250 Y0.000 Z-10.000 I0.000 J-1.250 K0.000 F300.000
G1 X26.250 Y-20.000 Z-10.000 F300.000
G2 X25.000 Y-21.250 Z-10.000 I-1.250 J-0.000 K0.000 F300.000
G1 X0.000 Y-21.250 Z-10.000 F300.000
G2 X-1.250 Y-20.000 Z-10.000 I-0.000 J1.250 K0.000 F300.000
G1 X-1.250 Y0.000 Z-10.000 F300.000
G2 X0.000 Y1.250 Z-10.000 I1.250 J0.000 K0.000 F300.000
G0 Z3.000
G0 Z3.000
(Finish operation: Profile001)
(Begin postamble)
M5
G17 G90
M2
