(Exported by FreeCAD)
(Post Processor: grbl_post)
(Output Time:2021-11-08 08:07:01.014392)
(Begin preamble)
G17 G90
G21
(Begin operation: Fixture)
(Path: Fixture)
G54
(Finish operation: Fixture)
(Begin operation: 2.5mm_Endmill003)
(Path: 2.5mm_Endmill003)
(2.5mm_Endmill003)
(Begin toolchange)
( M6 T1.0 )
M3 S200.0
(Finish operation: 2.5mm_Endmill003)
(Begin operation: Profile)
(Path: Profile)
(Profile)
(Compensated Tool Path. Diameter: 2.5)
G0 Z3.000
G0 X0.000 Y0.000
G0 X6.688 Y10.701
G0 X6.688 Y10.701 Z2.000
G1 X6.688 Y10.701 Z-1.500 F120.000
G2 X8.434 Y22.049 Z-1.500 I3.312 J5.299 K0.000 F300.000
G2 X16.049 Y17.566 Z-1.500 I1.566 J-6.049 K0.000 F300.000
G2 X11.566 Y9.951 Z-1.500 I-6.049 J-1.566 K0.000 F300.000
G2 X6.688 Y10.701 Z-1.500 I-1.566 J6.049 K0.000 F300.000
G1 X6.688 Y10.701 Z-4.000 F120.000
G2 X8.434 Y22.049 Z-4.000 I3.312 J5.299 K0.000 F300.000
G2 X16.049 Y17.566 Z-4.000 I1.566 J-6.049 K0.000 F300.000
G2 X11.566 Y9.951 Z-4.000 I-6.049 J-1.566 K0.000 F300.000
G2 X6.688 Y10.701 Z-4.000 I-1.566 J6.049 K0.000 F300.000
G0 Z3.000
G0 Z3.000
(Finish operation: Profile)
(Begin operation: Profile001)
(Path: Profile001)
(Profile001)
(Compensated Tool Path. Diameter: 2.5)
G0 Z3.000
G0 X0.000 Y0.000
G0 X7.484 Y11.974
G0 X7.484 Y11.974 Z2.000
G1 X7.484 Y11.974 Z-3.000 F120.000
G2 X8.943 Y20.629 Z-3.000 I2.516 J4.026 K0.000 F300.000
G2 X11.057 Y11.371 Z-3.000 I1.057 J-4.629 K0.000 F300.000
G2 X7.484 Y11.974 Z-3.000 I-1.057 J4.629 K0.000 F300.000
G1 X7.484 Y11.974 Z-7.000 F120.000
G2 X8.943 Y20.629 Z-7.000 I2.516 J4.026 K0.000 F300.000
G2 X11.057 Y11.371 Z-7.000 I1.057 J-4.629 K0.000 F300.000
G2 X7.484 Y11.974 Z-7.000 I-1.057 J4.629 K0.000 F300.000
G1 X7.484 Y11.974 Z-10.000 F120.000
G2 X8.943 Y20.629 Z-10.000 I2.516 J4.026 K0.000 F300.000
G2 X11.057 Y11.371 Z-10.000 I1.057 J-4.629 K0.000 F300.000
G2 X7.484 Y11.974 Z-10.000 I-1.057 J4.629 K0.000 F300.000
G0 Z3.000
G0 Z3.000
(Finish operation: Profile001)
(Begin operation: Profile002)
(Path: Profile002)
(Profile002)
(Compensated Tool Path. Diameter: 2.5)
G0 Z3.000
G0 X0.000 Y0.000
G0 X-2.250
G0 X-2.250 Z2.000
G1 X-2.250 Y0.000 Z-3.000 F120.000
G1 X-2.250 Y29.000 Z-3.000 F300.000
G2 X-1.000 Y30.250 Z-3.000 I1.250 J0.000 K0.000 F300.000
G1 X24.000 Y30.250 Z-3.000 F300.000
G2 X25.250 Y29.000 Z-3.000 I0.000 J-1.250 K0.000 F300.000
G1 X25.250 Y-1.000 Z-3.000 F300.000
G2 X24.000 Y-2.250 Z-3.000 I-1.250 J-0.000 K0.000 F300.000
G1 X-1.000 Y-2.250 Z-3.000 F300.000
G2 X-2.250 Y-1.000 Z-3.000 I-0.000 J1.250 K0.000 F300.000
G1 X-2.250 Y0.000 Z-3.000 F300.000
G1 X-2.250 Y0.000 Z-7.000 F120.000
G1 X-2.250 Y29.000 Z-7.000 F300.000
G2 X-1.000 Y30.250 Z-7.000 I1.250 J0.000 K0.000 F300.000
G1 X24.000 Y30.250 Z-7.000 F300.000
G2 X25.250 Y29.000 Z-7.000 I0.000 J-1.250 K0.000 F300.000
G1 X25.250 Y-1.000 Z-7.000 F300.000
G2 X24.000 Y-2.250 Z-7.000 I-1.250 J-0.000 K0.000 F300.000
G1 X-1.000 Y-2.250 Z-7.000 F300.000
G2 X-2.250 Y-1.000 Z-7.000 I-0.000 J1.250 K0.000 F300.000
G1 X-2.250 Y0.000 Z-7.000 F300.000
G1 X-2.250 Y0.000 Z-10.000 F120.000
G1 X-2.250 Y29.000 Z-10.000 F300.000
G2 X-1.000 Y30.250 Z-10.000 I1.250 J0.000 K0.000 F300.000
G1 X24.000 Y30.250 Z-10.000 F300.000
G2 X25.250 Y29.000 Z-10.000 I0.000 J-1.250 K0.000 F300.000
G1 X25.250 Y-1.000 Z-10.000 F300.000
G2 X24.000 Y-2.250 Z-10.000 I-1.250 J-0.000 K0.000 F300.000
G1 X-1.000 Y-2.250 Z-10.000 F300.000
G2 X-2.250 Y-1.000 Z-10.000 I-0.000 J1.250 K0.000 F300.000
G1 X-2.250 Y0.000 Z-10.000 F300.000
G0 Z3.000
G0 Z3.000
(Finish operation: Profile002)
(Begin postamble)
M5
G17 G90
M2
