(Exported by FreeCAD)
(Post Processor: grbl_post)
(Output Time:2021-11-13 06:17:12.611608)
(Begin preamble)
G17 G90
G21
(Begin operation: Fixture)
(Path: Fixture)
G54
(Finish operation: Fixture)
(Begin operation: 2.5mm_Endmill003)
(Path: 2.5mm_Endmill003)
(2.5mm_Endmill003)
(Begin toolchange)
( M6 T1.0 )
M3 S100.0
(Finish operation: 2.5mm_Endmill003)
(Begin operation: holes)
(Path: holes)
(holes)
(Compensated Tool Path. Diameter: 2.5)
G0 Z3.000
G0 X0.000 Y0.000
G0 X9.758 Y-0.000
G0 X9.758 Y-0.000 Z2.000
G1 X9.758 Y-0.000 Z-3.000 F120.000
G2 X10.218 Y0.105 Z-3.000 I0.242 J-0.000 K0.000 F120.000
G2 X9.782 Y-0.105 Z-3.000 I-0.218 J-0.105 K0.000 F120.000
G2 X9.758 Y-0.000 Z-3.000 I0.218 J0.105 K0.000 F120.000
G1 X9.758 Y-0.000 Z-7.000 F120.000
G2 X10.218 Y0.105 Z-7.000 I0.242 J-0.000 K0.000 F120.000
G2 X9.782 Y-0.105 Z-7.000 I-0.218 J-0.105 K0.000 F120.000
G2 X9.758 Y-0.000 Z-7.000 I0.218 J0.105 K0.000 F120.000
G1 X9.758 Y-0.000 Z-10.000 F120.000
G2 X10.218 Y0.105 Z-10.000 I0.242 J-0.000 K0.000 F120.000
G2 X9.782 Y-0.105 Z-10.000 I-0.218 J-0.105 K0.000 F120.000
G2 X9.758 Y-0.000 Z-10.000 I0.218 J0.105 K0.000 F120.000
G0 Z3.000
G0 Z3.000
G0 X9.758 Y-0.000
G0 X10.116 Y-21.758
G0 X10.116 Y-21.758 Z2.000
G1 X10.116 Y-21.758 Z-3.000 F120.000
G2 X10.329 Y-21.878 Z-3.000 I0.004 J-0.242 K0.000 F120.000
G2 X9.912 Y-22.123 Z-3.000 I-0.209 J-0.122 K0.000 F120.000
G2 X10.116 Y-21.758 Z-3.000 I0.208 J0.123 K0.000 F120.000
G1 X10.116 Y-21.758 Z-7.000 F120.000
G2 X10.329 Y-21.878 Z-7.000 I0.004 J-0.242 K0.000 F120.000
G2 X9.912 Y-22.123 Z-7.000 I-0.209 J-0.122 K0.000 F120.000
G2 X10.116 Y-21.758 Z-7.000 I0.208 J0.123 K0.000 F120.000
G1 X10.116 Y-21.758 Z-10.000 F120.000
G2 X10.329 Y-21.878 Z-10.000 I0.004 J-0.242 K0.000 F120.000
G2 X9.912 Y-22.123 Z-10.000 I-0.209 J-0.122 K0.000 F120.000
G2 X10.116 Y-21.758 Z-10.000 I0.208 J0.123 K0.000 F120.000
G0 Z3.000
G0 Z3.000
G0 X10.116 Y-21.758
G0 X51.638 Y-21.998
G0 X51.638 Y-21.998 Z2.000
G1 X51.638 Y-21.998 Z-3.000 F120.000
G2 X51.866 Y-21.758 Z-3.000 I0.242 J-0.001 K0.000 F120.000
G2 X51.906 Y-22.240 Z-3.000 I0.015 J-0.242 K0.000 F120.000
G1 X51.851 Y-22.240 Z-3.000 F120.000
G2 X51.638 Y-21.998 Z-3.000 I0.029 J0.240 K0.000 F120.000
G1 X51.638 Y-21.998 Z-7.000 F120.000
G2 X51.866 Y-21.758 Z-7.000 I0.242 J-0.001 K0.000 F120.000
G2 X51.906 Y-22.240 Z-7.000 I0.015 J-0.242 K0.000 F120.000
G1 X51.851 Y-22.240 Z-7.000 F120.000
G2 X51.638 Y-21.998 Z-7.000 I0.029 J0.240 K0.000 F120.000
G1 X51.638 Y-21.998 Z-10.000 F120.000
G2 X51.866 Y-21.758 Z-10.000 I0.242 J-0.001 K0.000 F120.000
G2 X51.906 Y-22.240 Z-10.000 I0.015 J-0.242 K0.000 F120.000
G1 X51.851 Y-22.240 Z-10.000 F120.000
G2 X51.638 Y-21.998 Z-10.000 I0.029 J0.240 K0.000 F120.000
G0 Z3.000
G0 Z3.000
G0 X51.638 Y-21.998
G0 X49.188 Y-5.525
G0 X49.188 Y-5.525 Z2.000
G1 X49.188 Y-5.525 Z-3.000 F120.000
G2 X48.902 Y-5.544 Z-3.000 I-0.257 J1.727 K0.000 F120.000
G1 X48.631 Y-5.518 Z-3.000 F120.000
G2 X49.199 Y-2.073 Z-3.000 I0.300 J1.720 K0.000 F120.000
G2 X49.188 Y-5.525 Z-3.000 I-0.268 J-1.726 K0.000 F120.000
G1 X49.188 Y-5.525 Z-7.000 F120.000
G2 X48.902 Y-5.544 Z-7.000 I-0.257 J1.727 K0.000 F120.000
G1 X48.631 Y-5.518 Z-7.000 F120.000
G2 X49.199 Y-2.073 Z-7.000 I0.300 J1.720 K0.000 F120.000
G2 X49.188 Y-5.525 Z-7.000 I-0.268 J-1.726 K0.000 F120.000
G1 X49.188 Y-5.525 Z-10.000 F120.000
G2 X48.902 Y-5.544 Z-10.000 I-0.257 J1.727 K0.000 F120.000
G1 X48.631 Y-5.518 Z-10.000 F120.000
G2 X49.199 Y-2.073 Z-10.000 I0.300 J1.720 K0.000 F120.000
G2 X49.188 Y-5.525 Z-10.000 I-0.268 J-1.726 K0.000 F120.000
G0 Z3.000
G0 Z3.000
G0 X49.188 Y-5.525
G0 X40.921 Y13.158
G0 X40.921 Y13.158 Z2.000
G1 X40.921 Y13.158 Z-3.000 F120.000
G2 X39.082 Y12.753 Z-3.000 I-1.921 J4.342 K0.000 F120.000
G1 X38.540 Y12.774 Z-3.000 F120.000
G2 X39.185 Y22.244 Z-3.000 I0.460 J4.726 K0.000 F120.000
G2 X40.921 Y13.158 Z-3.000 I-0.185 J-4.744 K0.000 F120.000
G1 X40.921 Y13.158 Z-7.000 F120.000
G2 X39.082 Y12.753 Z-7.000 I-1.921 J4.342 K0.000 F120.000
G1 X38.540 Y12.774 Z-7.000 F120.000
G2 X39.185 Y22.244 Z-7.000 I0.460 J4.726 K0.000 F120.000
G2 X40.921 Y13.158 Z-7.000 I-0.185 J-4.744 K0.000 F120.000
G1 X40.921 Y13.158 Z-10.000 F120.000
G2 X39.082 Y12.753 Z-10.000 I-1.921 J4.342 K0.000 F120.000
G1 X38.540 Y12.774 Z-10.000 F120.000
G2 X39.185 Y22.244 Z-10.000 I0.460 J4.726 K0.000 F120.000
G2 X40.921 Y13.158 Z-10.000 I-0.185 J-4.744 K0.000 F120.000
G0 Z3.000
G0 Z3.000
G0 X40.921 Y13.158
G0 X29.799 Y37.219
G0 X29.799 Y37.219 Z2.000
G1 X29.799 Y37.219 Z-3.000 F120.000
G2 X27.405 Y38.268 Z-3.000 I-0.733 J1.585 K0.000 F120.000
G2 X28.540 Y40.462 Z-3.000 I1.664 J0.530 K0.000 F120.000
G2 X30.733 Y39.326 Z-3.000 I0.529 J-1.664 K0.000 F120.000
G2 X29.799 Y37.219 Z-3.000 I-1.666 J-0.521 K0.000 F120.000
G1 X29.799 Y37.219 Z-7.000 F120.000
G2 X27.405 Y38.268 Z-7.000 I-0.733 J1.585 K0.000 F120.000
G2 X28.540 Y40.462 Z-7.000 I1.664 J0.530 K0.000 F120.000
G2 X30.733 Y39.326 Z-7.000 I0.529 J-1.664 K0.000 F120.000
G2 X29.799 Y37.219 Z-7.000 I-1.666 J-0.521 K0.000 F120.000
G1 X29.799 Y37.219 Z-10.000 F120.000
G2 X27.405 Y38.268 Z-10.000 I-0.733 J1.585 K0.000 F120.000
G2 X28.540 Y40.462 Z-10.000 I1.664 J0.530 K0.000 F120.000
G2 X30.733 Y39.326 Z-10.000 I0.529 J-1.664 K0.000 F120.000
G2 X29.799 Y37.219 Z-10.000 I-1.666 J-0.521 K0.000 F120.000
G0 Z3.000
G0 Z3.000
G0 X29.799 Y37.219
G0 X10.241 Y35.027
G0 X10.241 Y35.027 Z2.000
G1 X10.241 Y35.027 Z-3.000 F120.000
G2 X9.782 Y34.895 Z-3.000 I-0.241 J-0.027 K0.000 F120.000
G2 X10.218 Y35.105 Z-3.000 I0.218 J0.105 K0.000 F120.000
G2 X10.241 Y35.027 Z-3.000 I-0.218 J-0.105 K0.000 F120.000
G1 X10.241 Y35.027 Z-7.000 F120.000
G2 X9.782 Y34.895 Z-7.000 I-0.241 J-0.027 K0.000 F120.000
G2 X10.218 Y35.105 Z-7.000 I0.218 J0.105 K0.000 F120.000
G2 X10.241 Y35.027 Z-7.000 I-0.218 J-0.105 K0.000 F120.000
G1 X10.241 Y35.027 Z-10.000 F120.000
G2 X9.782 Y34.895 Z-10.000 I-0.241 J-0.027 K0.000 F120.000
G2 X10.218 Y35.105 Z-10.000 I0.218 J0.105 K0.000 F120.000
G2 X10.241 Y35.027 Z-10.000 I-0.218 J-0.105 K0.000 F120.000
G0 Z3.000
G0 Z3.000
(Finish operation: holes)
(Begin operation: outline)
(Path: outline)
(outline)
(Compensated Tool Path. Diameter: 2.5)
G0 Z3.000
G0 X0.000 Y0.000
G0 X-1.250
G0 X-1.250 Z2.000
G1 X-1.250 Y0.000 Z-3.000 F120.000
G1 X-1.250 Y47.000 Z-3.000 F120.000
G2 X0.000 Y48.250 Z-3.000 I1.250 J0.000 K0.000 F120.000
G1 X58.000 Y48.250 Z-3.000 F120.000
G2 X59.250 Y47.000 Z-3.000 I0.000 J-1.250 K0.000 F120.000
G1 X59.250 Y-28.000 Z-3.000 F120.000
G2 X58.000 Y-29.250 Z-3.000 I-1.250 J-0.000 K0.000 F120.000
G1 X47.439 Y-29.250 Z-3.000 F120.000
G2 X46.251 Y-27.611 Z-3.000 I0.000 J1.250 K0.000 F120.000
G3 X46.071 Y-15.925 Z-3.000 I-15.263 J5.609 K0.000 F120.000
G3 X15.748 Y-27.609 Z-3.000 I-15.071 J-6.076 K0.000 F120.000
G2 X14.561 Y-29.250 Z-3.000 I-1.187 J-0.391 K0.000 F120.000
G1 X0.000 Y-29.250 Z-3.000 F120.000
G2 X-1.250 Y-28.000 Z-3.000 I-0.000 J1.250 K0.000 F120.000
G1 X-1.250 Y0.000 Z-3.000 F120.000
G1 X-1.250 Y0.000 Z-7.000 F120.000
G1 X-1.250 Y47.000 Z-7.000 F120.000
G2 X0.000 Y48.250 Z-7.000 I1.250 J0.000 K0.000 F120.000
G1 X58.000 Y48.250 Z-7.000 F120.000
G2 X59.250 Y47.000 Z-7.000 I0.000 J-1.250 K0.000 F120.000
G1 X59.250 Y-28.000 Z-7.000 F120.000
G2 X58.000 Y-29.250 Z-7.000 I-1.250 J-0.000 K0.000 F120.000
G1 X47.439 Y-29.250 Z-7.000 F120.000
G2 X46.251 Y-27.611 Z-7.000 I0.000 J1.250 K0.000 F120.000
G3 X46.071 Y-15.925 Z-7.000 I-15.263 J5.609 K0.000 F120.000
G3 X15.748 Y-27.609 Z-7.000 I-15.071 J-6.076 K0.000 F120.000
G2 X14.561 Y-29.250 Z-7.000 I-1.187 J-0.391 K0.000 F120.000
G1 X0.000 Y-29.250 Z-7.000 F120.000
G2 X-1.250 Y-28.000 Z-7.000 I-0.000 J1.250 K0.000 F120.000
G1 X-1.250 Y0.000 Z-7.000 F120.000
G1 X-1.250 Y0.000 Z-10.000 F120.000
G1 X-1.250 Y47.000 Z-10.000 F120.000
G2 X0.000 Y48.250 Z-10.000 I1.250 J0.000 K0.000 F120.000
G1 X58.000 Y48.250 Z-10.000 F120.000
G2 X59.250 Y47.000 Z-10.000 I0.000 J-1.250 K0.000 F120.000
G1 X59.250 Y-28.000 Z-10.000 F120.000
G2 X58.000 Y-29.250 Z-10.000 I-1.250 J-0.000 K0.000 F120.000
G1 X47.439 Y-29.250 Z-10.000 F120.000
G2 X46.251 Y-27.611 Z-10.000 I0.000 J1.250 K0.000 F120.000
G3 X46.071 Y-15.925 Z-10.000 I-15.263 J5.609 K0.000 F120.000
G3 X15.748 Y-27.609 Z-10.000 I-15.071 J-6.076 K0.000 F120.000
G2 X14.561 Y-29.250 Z-10.000 I-1.187 J-0.391 K0.000 F120.000
G1 X0.000 Y-29.250 Z-10.000 F120.000
G2 X-1.250 Y-28.000 Z-10.000 I-0.000 J1.250 K0.000 F120.000
G1 X-1.250 Y0.000 Z-10.000 F120.000
G0 Z3.000
G0 Z3.000
(Finish operation: outline)
(Begin postamble)
M5
G17 G90
M2
