(Exported by FreeCAD)
(Post Processor: grbl_post)
(Output Time:2021-11-18 04:45:10.186616)
(Begin preamble)
G17 G90
G21
(Begin operation: Fixture)
(Path: Fixture)
G54
(Finish operation: Fixture)
(Begin operation: 2.5mm_Endmill004)
(Path: 2.5mm_Endmill004)
(2.5mm_Endmill004)
(Begin toolchange)
( M6 T1.0 )
M3 S100.0
(Finish operation: 2.5mm_Endmill004)
(Begin operation: Profile005)
(Path: Profile005)
(Profile005)
(Compensated Tool Path. Diameter: 2.5)
G0 Z3.000
G0 X0.000 Y0.000
G0 X6.823 Y-6.335
G0 X6.823 Y-6.335 Z2.000
G1 X6.823 Y-6.335 Z-5.000 F60.000
G2 X6.895 Y-6.282 Z-5.000 I0.177 J-0.165 K0.000 F60.000
G2 X7.105 Y-6.718 Z-5.000 I0.105 J-0.218 K0.000 F60.000
G2 X6.823 Y-6.335 Z-5.000 I-0.105 J0.218 K0.000 F60.000
G1 X6.823 Y-6.335 Z-10.000 F60.000
G2 X6.895 Y-6.282 Z-10.000 I0.177 J-0.165 K0.000 F60.000
G2 X7.105 Y-6.718 Z-10.000 I0.105 J-0.218 K0.000 F60.000
G2 X6.823 Y-6.335 Z-10.000 I-0.105 J0.218 K0.000 F60.000
G0 Z3.000
G0 Z3.000
G0 X6.823 Y-6.335
G0 X28.254 Y-6.488
G0 X28.254 Y-6.488 Z2.000
G1 X28.254 Y-6.488 Z-5.000 F60.000
G2 X29.460 Y-4.839 Z-5.000 I1.746 J-0.012 K0.000 F60.000
G2 X30.540 Y-8.161 Z-5.000 I0.540 J-1.661 K0.000 F60.000
G2 X28.254 Y-6.488 Z-5.000 I-0.540 J1.661 K0.000 F60.000
G1 X28.254 Y-6.488 Z-10.000 F60.000
G2 X29.460 Y-4.839 Z-10.000 I1.746 J-0.012 K0.000 F60.000
G2 X30.540 Y-8.161 Z-10.000 I0.540 J-1.661 K0.000 F60.000
G2 X28.254 Y-6.488 Z-10.000 I-0.540 J1.661 K0.000 F60.000
G0 Z3.000
G0 Z3.000
(Finish operation: Profile005)
(Begin operation: Fixture)
(Path: Fixture)
G54
G0 Z3.000
(Finish operation: Fixture)
(Begin operation: Profile006)
(Path: Profile006)
(Profile006)
(Compensated Tool Path. Diameter: 2.5)
G0 Z3.000
G0 X0.000 Y0.000
G0 X13.750 Y-0.250
G0 X13.750 Y-0.250 Z2.000
G1 X13.750 Y-0.250 Z-3.000 F60.000
G1 X16.250 Y-0.250 Z-3.000 F60.000
G1 X16.250 Y-12.750 Z-3.000 F60.000
G1 X13.750 Y-12.750 Z-3.000 F60.000
G1 X13.750 Y-0.250 Z-3.000 F60.000
G0 Z3.000
G0 Z3.000
(Finish operation: Profile006)
(Begin operation: Fixture)
(Path: Fixture)
G54
G0 Z3.000
(Finish operation: Fixture)
(Begin operation: Profile009)
(Path: Profile009)
(Profile009)
(Compensated Tool Path. Diameter: 2.5)
G0 Z3.000
G0 X0.000 Y0.000
G0 X-1.250
G0 X-1.250 Z2.000
G1 X-1.250 Y0.000 Z-5.000 F60.000
G1 X-1.250 Y1.000 Z-5.000 F60.000
G2 X0.000 Y2.250 Z-5.000 I1.250 J0.000 K0.000 F60.000
G1 X38.000 Y2.250 Z-5.000 F60.000
G2 X39.250 Y1.000 Z-5.000 I0.000 J-1.250 K0.000 F60.000
G1 X39.250 Y-14.000 Z-5.000 F60.000
G2 X38.000 Y-15.250 Z-5.000 I-1.250 J-0.000 K0.000 F60.000
G1 X0.000 Y-15.250 Z-5.000 F60.000
G2 X-1.250 Y-14.000 Z-5.000 I-0.000 J1.250 K0.000 F60.000
G1 X-1.250 Y0.000 Z-5.000 F60.000
G1 X-1.250 Y0.000 Z-10.000 F60.000
G1 X-1.250 Y1.000 Z-10.000 F60.000
G2 X0.000 Y2.250 Z-10.000 I1.250 J0.000 K0.000 F60.000
G1 X38.000 Y2.250 Z-10.000 F60.000
G2 X39.250 Y1.000 Z-10.000 I0.000 J-1.250 K0.000 F60.000
G1 X39.250 Y-14.000 Z-10.000 F60.000
G2 X38.000 Y-15.250 Z-10.000 I-1.250 J-0.000 K0.000 F60.000
G1 X0.000 Y-15.250 Z-10.000 F60.000
G2 X-1.250 Y-14.000 Z-10.000 I-0.000 J1.250 K0.000 F60.000
G1 X-1.250 Y0.000 Z-10.000 F60.000
G0 Z3.000
G0 Z3.000
(Finish operation: Profile009)
(Begin postamble)
M5
G17 G90
M2
