(Exported by FreeCAD)
(Post Processor: grbl_post)
(Output Time:2021-11-18 05:15:33.289072)
(Begin preamble)
G17 G90
G21
(Begin operation: Fixture)
(Path: Fixture)
G54
(Finish operation: Fixture)
(Begin operation: 2.5mm_Endmill008)
(Path: 2.5mm_Endmill008)
(2.5mm_Endmill008)
(Begin toolchange)
( M6 T1.0 )
M3 S100.0
(Finish operation: 2.5mm_Endmill008)
(Begin operation: Profile014)
(Path: Profile014)
(Profile014)
(Compensated Tool Path. Diameter: 2.5)
G0 Z3.000
G0 X0.000 Y0.000
G0 X16.770 Y-5.425
G0 X16.770 Y-5.425 Z2.000
G1 X16.770 Y-5.425 Z-5.000 F60.000
G2 X16.895 Y-5.282 Z-5.000 I0.230 J-0.075 K0.000 F60.000
G2 X17.105 Y-5.718 Z-5.000 I0.105 J-0.218 K0.000 F60.000
G2 X16.770 Y-5.425 Z-5.000 I-0.105 J0.218 K0.000 F60.000
G1 X16.770 Y-5.425 Z-10.000 F60.000
G2 X16.895 Y-5.282 Z-10.000 I0.230 J-0.075 K0.000 F60.000
G2 X17.105 Y-5.718 Z-10.000 I0.105 J-0.218 K0.000 F60.000
G2 X16.770 Y-5.425 Z-10.000 I-0.105 J0.218 K0.000 F60.000
G0 Z3.000
G0 Z3.000
G0 X16.770 Y-5.425
G0 X10.108 Y-18.783
G0 X10.108 Y-18.783 Z2.000
G1 X10.108 Y-18.783 Z-5.000 F60.000
G2 X10.105 Y-19.218 Z-5.000 I-0.108 J-0.217 K0.000 F60.000
G2 X9.895 Y-18.782 Z-5.000 I-0.105 J0.218 K0.000 F60.000
G2 X10.108 Y-18.783 Z-5.000 I0.105 J-0.218 K0.000 F60.000
G1 X10.108 Y-18.783 Z-10.000 F60.000
G2 X10.105 Y-19.218 Z-10.000 I-0.108 J-0.217 K0.000 F60.000
G2 X9.895 Y-18.782 Z-10.000 I-0.105 J0.218 K0.000 F60.000
G2 X10.108 Y-18.783 Z-10.000 I0.105 J-0.218 K0.000 F60.000
G0 Z3.000
G0 Z3.000
G0 X10.108 Y-18.783
G0 X10.050 Y-24.252
G0 X10.050 Y-24.252 Z2.000
G1 X10.050 Y-24.252 Z-5.000 F60.000
G2 X11.057 Y-33.629 Z-5.000 I-0.050 J-4.748 K0.000 F60.000
G2 X8.943 Y-24.371 Z-5.000 I-1.057 J4.629 K0.000 F60.000
G2 X10.050 Y-24.252 Z-5.000 I1.057 J-4.629 K0.000 F60.000
G1 X10.050 Y-24.252 Z-10.000 F60.000
G2 X11.057 Y-33.629 Z-10.000 I-0.050 J-4.748 K0.000 F60.000
G2 X8.943 Y-24.371 Z-10.000 I-1.057 J4.629 K0.000 F60.000
G2 X10.050 Y-24.252 Z-10.000 I1.057 J-4.629 K0.000 F60.000
G0 Z3.000
G0 Z3.000
G0 X10.050 Y-24.252
G0 X10.001 Y-38.758
G0 X10.001 Y-38.758 Z2.000
G1 X10.001 Y-38.758 Z-5.000 F60.000
G2 X10.105 Y-39.218 Z-5.000 I-0.001 J-0.242 K0.000 F60.000
G2 X9.895 Y-38.782 Z-5.000 I-0.105 J0.218 K0.000 F60.000
G2 X10.001 Y-38.758 Z-5.000 I0.105 J-0.218 K0.000 F60.000
G1 X10.001 Y-38.758 Z-10.000 F60.000
G2 X10.105 Y-39.218 Z-10.000 I-0.001 J-0.242 K0.000 F60.000
G2 X9.895 Y-38.782 Z-10.000 I-0.105 J0.218 K0.000 F60.000
G2 X10.001 Y-38.758 Z-10.000 I0.105 J-0.218 K0.000 F60.000
G0 Z3.000
G0 Z3.000
G0 X10.001 Y-38.758
G0 X38.412 Y-51.773
G0 X38.412 Y-51.773 Z2.000
G1 X38.412 Y-51.773 Z-5.000 F60.000
G2 X41.661 Y-51.960 Z-5.000 I1.588 J-0.727 K0.000 F60.000
G2 X38.339 Y-53.040 Z-5.000 I-1.661 J-0.540 K0.000 F60.000
G2 X38.412 Y-51.773 Z-5.000 I1.661 J0.540 K0.000 F60.000
G1 X38.412 Y-51.773 Z-10.000 F60.000
G2 X41.661 Y-51.960 Z-10.000 I1.588 J-0.727 K0.000 F60.000
G2 X38.339 Y-53.040 Z-10.000 I-1.661 J-0.540 K0.000 F60.000
G2 X38.412 Y-51.773 Z-10.000 I1.661 J0.540 K0.000 F60.000
G0 Z3.000
G0 Z3.000
G0 X38.412 Y-51.773
G0 X39.670 Y-33.737
G0 X39.670 Y-33.737 Z2.000
G1 X39.670 Y-33.737 Z-5.000 F60.000
G2 X38.943 Y-24.371 Z-5.000 I0.330 J4.737 K0.000 F60.000
G2 X41.057 Y-33.629 Z-5.000 I1.057 J-4.629 K0.000 F60.000
G2 X39.670 Y-33.737 Z-5.000 I-1.057 J4.629 K0.000 F60.000
G1 X39.670 Y-33.737 Z-10.000 F60.000
G2 X38.943 Y-24.371 Z-10.000 I0.330 J4.737 K0.000 F60.000
G2 X41.057 Y-33.629 Z-10.000 I1.057 J-4.629 K0.000 F60.000
G2 X39.670 Y-33.737 Z-10.000 I-1.057 J4.629 K0.000 F60.000
G0 Z3.000
G0 Z3.000
G0 X39.670 Y-33.737
G0 X60.780 Y-24.101
G0 X60.780 Y-24.101 Z2.000
G1 X60.780 Y-24.101 Z-5.000 F60.000
G2 X60.895 Y-23.782 Z-5.000 I0.220 J0.101 K0.000 F60.000
G2 X61.105 Y-24.218 Z-5.000 I0.105 J-0.218 K0.000 F60.000
G2 X60.780 Y-24.101 Z-5.000 I-0.105 J0.218 K0.000 F60.000
G1 X60.780 Y-24.101 Z-10.000 F60.000
G2 X60.895 Y-23.782 Z-10.000 I0.220 J0.101 K0.000 F60.000
G2 X61.105 Y-24.218 Z-10.000 I0.105 J-0.218 K0.000 F60.000
G2 X60.780 Y-24.101 Z-10.000 I-0.105 J0.218 K0.000 F60.000
G0 Z3.000
G0 Z3.000
G0 X60.780 Y-24.101
G0 X74.758 Y-24.002
G0 X74.758 Y-24.002 Z2.000
G1 X74.758 Y-24.002 Z-5.000 F60.000
G2 X74.895 Y-23.782 Z-5.000 I0.242 J0.002 K0.000 F60.000
G2 X75.105 Y-24.218 Z-5.000 I0.105 J-0.218 K0.000 F60.000
G2 X74.758 Y-24.002 Z-5.000 I-0.105 J0.218 K0.000 F60.000
G1 X74.758 Y-24.002 Z-10.000 F60.000
G2 X74.895 Y-23.782 Z-10.000 I0.242 J0.002 K0.000 F60.000
G2 X75.105 Y-24.218 Z-10.000 I0.105 J-0.218 K0.000 F60.000
G2 X74.758 Y-24.002 Z-10.000 I-0.105 J0.218 K0.000 F60.000
G0 Z3.000
G0 Z3.000
G0 X74.758 Y-24.002
G0 X92.758 Y-24.000
G0 X92.758 Y-24.000 Z2.000
G1 X92.758 Y-24.000 Z-5.000 F60.000
G2 X92.895 Y-23.782 Z-5.000 I0.242 J0.000 K0.000 F60.000
G2 X93.105 Y-24.218 Z-5.000 I0.105 J-0.218 K0.000 F60.000
G2 X92.758 Y-24.000 Z-5.000 I-0.105 J0.218 K0.000 F60.000
G1 X92.758 Y-24.000 Z-10.000 F60.000
G2 X92.895 Y-23.782 Z-10.000 I0.242 J0.000 K0.000 F60.000
G2 X93.105 Y-24.218 Z-10.000 I0.105 J-0.218 K0.000 F60.000
G2 X92.758 Y-24.000 Z-10.000 I-0.105 J0.218 K0.000 F60.000
G0 Z3.000
G0 Z3.000
G0 X92.758 Y-24.000
G0 X41.648 Y-6.078
G0 X41.648 Y-6.078 Z2.000
G1 X41.648 Y-6.078 Z-5.000 F60.000
G2 X40.540 Y-7.161 Z-5.000 I-1.648 J0.578 K0.000 F60.000
G2 X39.460 Y-3.839 Z-5.000 I-0.540 J1.661 K0.000 F60.000
G2 X41.648 Y-6.078 Z-5.000 I0.540 J-1.661 K0.000 F60.000
G1 X41.648 Y-6.078 Z-10.000 F60.000
G2 X40.540 Y-7.161 Z-10.000 I-1.648 J0.578 K0.000 F60.000
G2 X39.460 Y-3.839 Z-10.000 I-0.540 J1.661 K0.000 F60.000
G2 X41.648 Y-6.078 Z-10.000 I0.540 J-1.661 K0.000 F60.000
G0 Z3.000
G0 Z3.000
(Finish operation: Profile014)
(Begin operation: Fixture)
(Path: Fixture)
G54
G0 Z3.000
(Finish operation: Fixture)
(Begin operation: Profile015)
(Path: Profile015)
(Profile015)
(Compensated Tool Path. Diameter: 2.5)
G0 Z3.000
G0 X0.000 Y0.000
G0 X61.250 Y-7.750
G0 X61.250 Y-7.750 Z2.000
G1 X61.250 Y-7.750 Z-5.000 F60.000
G1 X78.750 Y-7.750 Z-5.000 F60.000
G1 X78.750 Y-8.250 Z-5.000 F60.000
G1 X61.250 Y-8.250 Z-5.000 F60.000
G1 X61.250 Y-7.750 Z-5.000 F60.000
G0 Z3.000
G0 X61.250 Y-49.750 Z3.000
G0 X61.250 Y-49.750 Z2.000
G1 X61.250 Y-49.750 Z-5.000 F60.000
G1 X78.750 Y-49.750 Z-5.000 F60.000
G1 X78.750 Y-50.250 Z-5.000 F60.000
G1 X61.250 Y-50.250 Z-5.000 F60.000
G1 X61.250 Y-49.750 Z-5.000 F60.000
G1 X61.250 Y-49.750 Z-10.000 F60.000
G1 X78.750 Y-49.750 Z-10.000 F60.000
G1 X78.750 Y-50.250 Z-10.000 F60.000
G1 X61.250 Y-50.250 Z-10.000 F60.000
G1 X61.250 Y-49.750 Z-10.000 F60.000
G0 Z3.000
G0 X61.250 Y-8.250 Z3.000
G0 X61.250 Y-8.250 Z2.000
G1 X61.250 Y-8.250 Z-10.000 F60.000
G1 X61.250 Y-7.750 Z-10.000 F60.000
G1 X78.750 Y-7.750 Z-10.000 F60.000
G1 X78.750 Y-8.250 Z-10.000 F60.000
G1 X61.250 Y-8.250 Z-10.000 F60.000
G0 Z3.000
G0 Z3.000
(Finish operation: Profile015)
(Begin operation: Fixture)
(Path: Fixture)
G54
G0 Z3.000
(Finish operation: Fixture)
(Begin operation: Profile016)
(Path: Profile016)
(Profile016)
(Compensated Tool Path. Diameter: 2.5)
G0 Z3.000
G0 X0.000 Y0.000
G0 X-1.250
G0 X-1.250 Z2.000
G1 X-1.250 Y0.000 Z-5.000 F60.000
G1 X-1.250 Y1.000 Z-5.000 F60.000
G2 X-0.000 Y2.250 Z-5.000 I1.250 J0.000 K0.000 F60.000
G1 X100.000 Y2.250 Z-5.000 F60.000
G2 X101.250 Y1.000 Z-5.000 I0.000 J-1.250 K0.000 F60.000
G1 X101.250 Y-59.000 Z-5.000 F60.000
G2 X100.000 Y-60.250 Z-5.000 I-1.250 J-0.000 K0.000 F60.000
G1 X-0.000 Y-60.250 Z-5.000 F60.000
G2 X-1.250 Y-59.000 Z-5.000 I-0.000 J1.250 K0.000 F60.000
G1 X-1.250 Y0.000 Z-5.000 F60.000
G1 X-1.250 Y0.000 Z-10.000 F60.000
G1 X-1.250 Y1.000 Z-10.000 F60.000
G2 X-0.000 Y2.250 Z-10.000 I1.250 J0.000 K0.000 F60.000
G1 X100.000 Y2.250 Z-10.000 F60.000
G2 X101.250 Y1.000 Z-10.000 I0.000 J-1.250 K0.000 F60.000
G1 X101.250 Y-59.000 Z-10.000 F60.000
G2 X100.000 Y-60.250 Z-10.000 I-1.250 J-0.000 K0.000 F60.000
G1 X-0.000 Y-60.250 Z-10.000 F60.000
G2 X-1.250 Y-59.000 Z-10.000 I-0.000 J1.250 K0.000 F60.000
G1 X-1.250 Y0.000 Z-10.000 F60.000
G0 Z3.000
G0 Z3.000
(Finish operation: Profile016)
(Begin postamble)
M5
G17 G90
M2
