(Exported by FreeCAD)
(Post Processor: grbl_post)
(Output Time:2022-01-08 22:29:40.914225)
(Begin preamble)
G17 G90
G21
(Begin operation: Fixture)
(Path: Fixture)
G54
(Finish operation: Fixture)
(Begin operation: 2mm Endmill003)
(Path: 2mm Endmill003)
(2mm Endmill003)
(Begin toolchange)
( M6 T1.0 )
M3 S100.0
(Finish operation: 2mm Endmill003)
(Begin operation: Profile003)
(Path: Profile003)
(Profile003)
(Compensated Tool Path. Diameter: 2.0)
G0 Z2.000
G0 X0.000 Y0.000
G0 X-18.214 Y9.107
G0 X-18.214 Y9.107
G1 X-18.214 Y9.107 Z-5.000 F30.000
G2 X-19.383 Y8.101 Z-5.000 I-1.786 J0.893 K0.000 F30.000
G2 X-20.617 Y11.899 Z-5.000 I-0.617 J1.899 K0.000 F30.000
G2 X-18.214 Y9.107 Z-5.000 I0.617 J-1.899 K0.000 F30.000
G1 X-18.214 Y9.107 Z-10.000 F30.000
G2 X-19.383 Y8.101 Z-10.000 I-1.786 J0.893 K0.000 F30.000
G2 X-20.617 Y11.899 Z-10.000 I-0.617 J1.899 K0.000 F30.000
G2 X-18.214 Y9.107 Z-10.000 I0.617 J-1.899 K0.000 F30.000
G0 Z2.000
G0 Z2.000
G0 X-18.214 Y9.107
G0 X-10.364 Y29.074
G0 X-10.364 Y29.074
G1 X-10.364 Y29.074 Z-5.000 F30.000
G2 X-10.381 Y30.919 Z-5.000 I0.364 J0.926 K0.000 F30.000
G2 X-9.081 Y30.381 Z-5.000 I0.381 J-0.919 K0.000 F30.000
G2 X-9.619 Y29.081 Z-5.000 I-0.919 J-0.381 K0.000 F30.000
G2 X-10.364 Y29.074 Z-5.000 I-0.381 J0.919 K0.000 F30.000
G1 X-10.364 Y29.074 Z-10.000 F30.000
G2 X-10.381 Y30.919 Z-10.000 I0.364 J0.926 K0.000 F30.000
G2 X-9.081 Y30.381 Z-10.000 I0.381 J-0.919 K0.000 F30.000
G2 X-9.619 Y29.081 Z-10.000 I-0.919 J-0.381 K0.000 F30.000
G2 X-10.364 Y29.074 Z-10.000 I-0.381 J0.919 K0.000 F30.000
G0 Z2.000
G0 Z2.000
G0 X-10.364 Y29.074
G0 X-19.406 Y58.093
G0 X-19.406 Y58.093
G1 X-19.406 Y58.093 Z-5.000 F30.000
G2 X-21.899 Y59.383 Z-5.000 I-0.594 J1.907 K0.000 F30.000
G2 X-18.101 Y60.617 Z-5.000 I1.899 J0.617 K0.000 F30.000
G2 X-19.406 Y58.093 Z-5.000 I-1.899 J-0.617 K0.000 F30.000
G1 X-19.406 Y58.093 Z-10.000 F30.000
G2 X-21.899 Y59.383 Z-10.000 I-0.594 J1.907 K0.000 F30.000
G2 X-18.101 Y60.617 Z-10.000 I1.899 J0.617 K0.000 F30.000
G2 X-19.406 Y58.093 Z-10.000 I-1.899 J-0.617 K0.000 F30.000
G0 Z2.000
G0 Z2.000
G0 X-19.406 Y58.093
G0 X-10.281 Y89.045
G0 X-10.281 Y89.045
G1 X-10.281 Y89.045 Z-5.000 F30.000
G2 X-10.381 Y90.919 Z-5.000 I0.281 J0.955 K0.000 F30.000
G2 X-9.619 Y89.081 Z-5.000 I0.381 J-0.919 K0.000 F30.000
G2 X-10.281 Y89.045 Z-5.000 I-0.381 J0.919 K0.000 F30.000
G1 X-10.281 Y89.045 Z-10.000 F30.000
G2 X-10.381 Y90.919 Z-10.000 I0.281 J0.955 K0.000 F30.000
G2 X-9.619 Y89.081 Z-10.000 I0.381 J-0.919 K0.000 F30.000
G2 X-10.281 Y89.045 Z-10.000 I-0.381 J0.919 K0.000 F30.000
G0 Z2.000
G0 Z2.000
G0 X-10.281 Y89.045
G0 X-19.160 Y108.188
G0 X-19.160 Y108.188
G1 X-19.160 Y108.188 Z-5.000 F30.000
G2 X-21.899 Y109.383 Z-5.000 I-0.840 J1.812 K0.000 F30.000
G2 X-18.101 Y110.617 Z-5.000 I1.899 J0.617 K0.000 F30.000
G2 X-19.160 Y108.188 Z-5.000 I-1.899 J-0.617 K0.000 F30.000
G1 X-19.160 Y108.188 Z-10.000 F30.000
G2 X-21.899 Y109.383 Z-10.000 I-0.840 J1.812 K0.000 F30.000
G2 X-18.101 Y110.617 Z-10.000 I1.899 J0.617 K0.000 F30.000
G2 X-19.160 Y108.188 Z-10.000 I-1.899 J-0.617 K0.000 F30.000
G0 Z2.000
G0 Z2.000
(Finish operation: Profile003)
(Begin operation: Fixture)
(Path: Fixture)
G54
G0 Z2.000
(Finish operation: Fixture)
(Begin operation: outline001)
(Path: outline001)
(outline001)
(Compensated Tool Path. Diameter: 2.0)
G0 Z1.000
G0 X0.000 Y0.000
G0 X1.000
G0 X1.000
G1 X1.000 Y0.000 Z-5.000 F30.000
G2 X-0.000 Y-1.000 Z-5.000 I-1.000 J0.000 K0.000 F30.000
G1 X-30.000 Y-1.000 Z-5.000 F30.000
G2 X-31.000 Y0.000 Z-5.000 I0.000 J1.000 K0.000 F30.000
G1 X-31.000 Y120.000 Z-5.000 F30.000
G2 X-30.000 Y121.000 Z-5.000 I1.000 J-0.000 K0.000 F30.000
G1 X-0.000 Y121.000 Z-5.000 F30.000
G2 X1.000 Y120.000 Z-5.000 I-0.000 J-1.000 K0.000 F30.000
G1 X1.000 Y0.000 Z-5.000 F30.000
G1 X1.000 Y0.000 Z-10.000 F30.000
G2 X-0.000 Y-1.000 Z-10.000 I-1.000 J0.000 K0.000 F30.000
G1 X-30.000 Y-1.000 Z-10.000 F30.000
G2 X-31.000 Y0.000 Z-10.000 I0.000 J1.000 K0.000 F30.000
G1 X-31.000 Y120.000 Z-10.000 F30.000
G2 X-30.000 Y121.000 Z-10.000 I1.000 J-0.000 K0.000 F30.000
G1 X-0.000 Y121.000 Z-10.000 F30.000
G2 X1.000 Y120.000 Z-10.000 I-0.000 J-1.000 K0.000 F30.000
G1 X1.000 Y0.000 Z-10.000 F30.000
G0 Z1.000
G0 Z1.000
(Finish operation: outline001)
(Begin postamble)
M5
G17 G90
M2
