(Exported by FreeCAD)
(Post Processor: grbl_post)
(Output Time:2022-01-08 22:07:49.932231)
(Begin preamble)
G17 G90
G21
(Begin operation: Fixture)
(Path: Fixture)
G54
(Finish operation: Fixture)
(Begin operation: 2mm Endmill001)
(Path: 2mm Endmill001)
(2mm Endmill001)
(Begin toolchange)
( M6 T1.0 )
M3 S100.0
(Finish operation: 2mm Endmill001)
(Begin operation: Profile001)
(Path: Profile001)
(Profile001)
(Compensated Tool Path. Diameter: 2.0)
G0 Z2.000
G0 X0.000 Y0.000
G0 X-9.651 Y9.651
G0 X-9.651 Y9.651
G1 X-9.651 Y9.651 Z-5.000 F30.000
G2 X-10.445 Y9.786 Z-5.000 I-0.349 J0.349 K0.000 F30.000
G2 X-9.555 Y10.214 Z-5.000 I0.445 J0.214 K0.000 F30.000
G2 X-9.651 Y9.651 Z-5.000 I-0.445 J-0.214 K0.000 F30.000
G1 X-9.651 Y9.651 Z-10.000 F30.000
G2 X-10.445 Y9.786 Z-10.000 I-0.349 J0.349 K0.000 F30.000
G2 X-9.555 Y10.214 Z-10.000 I0.445 J0.214 K0.000 F30.000
G2 X-9.651 Y9.651 Z-10.000 I-0.445 J-0.214 K0.000 F30.000
G0 Z2.000
G0 Z2.000
G0 X-9.651 Y9.651
G0 X-9.831 Y15.004
G0 X-9.831 Y15.004
G1 X-9.831 Y15.004 Z-5.000 F30.000
G2 X-11.112 Y24.873 Z-5.000 I-0.169 J4.996 K0.000 F30.000
G2 X-8.888 Y15.127 Z-5.000 I1.112 J-4.873 K0.000 F30.000
G2 X-9.831 Y15.004 Z-5.000 I-1.112 J4.873 K0.000 F30.000
G1 X-9.831 Y15.004 Z-10.000 F30.000
G2 X-11.112 Y24.873 Z-10.000 I-0.169 J4.996 K0.000 F30.000
G2 X-8.888 Y15.127 Z-10.000 I1.112 J-4.873 K0.000 F30.000
G2 X-9.831 Y15.004 Z-10.000 I-1.112 J4.873 K0.000 F30.000
G0 Z2.000
G0 Z2.000
G0 X-9.831 Y15.004
G0 X-9.994 Y29.506
G0 X-9.994 Y29.506
G1 X-9.994 Y29.506 Z-5.000 F30.000
G2 X-10.445 Y29.786 Z-5.000 I-0.006 J0.494 K0.000 F30.000
G2 X-9.555 Y30.214 Z-5.000 I0.445 J0.214 K0.000 F30.000
G2 X-9.994 Y29.506 Z-5.000 I-0.445 J-0.214 K0.000 F30.000
G1 X-9.994 Y29.506 Z-10.000 F30.000
G2 X-10.445 Y29.786 Z-10.000 I-0.006 J0.494 K0.000 F30.000
G2 X-9.555 Y30.214 Z-10.000 I0.445 J0.214 K0.000 F30.000
G2 X-9.994 Y29.506 Z-10.000 I-0.445 J-0.214 K0.000 F30.000
G0 Z2.000
G0 Z2.000
G0 X-9.994 Y29.506
G0 X-33.133 Y20.710
G0 X-33.133 Y20.710
G1 X-33.133 Y20.710 Z-5.000 F30.000
G2 X-34.383 Y18.101 Z-5.000 I-1.867 J-0.710 K0.000 F30.000
G2 X-35.617 Y21.899 Z-5.000 I-0.617 J1.899 K0.000 F30.000
G2 X-33.133 Y20.710 Z-5.000 I0.617 J-1.899 K0.000 F30.000
G1 X-33.133 Y20.710 Z-10.000 F30.000
G2 X-34.383 Y18.101 Z-10.000 I-1.867 J-0.710 K0.000 F30.000
G2 X-35.617 Y21.899 Z-10.000 I-0.617 J1.899 K0.000 F30.000
G2 X-33.133 Y20.710 Z-10.000 I0.617 J-1.899 K0.000 F30.000
G0 Z2.000
G0 Z2.000
G0 X-33.133 Y20.710
G0 X-10.124 Y109.522
G0 X-10.124 Y109.522
G1 X-10.124 Y109.522 Z-5.000 F30.000
G2 X-10.214 Y110.445 Z-5.000 I0.124 J0.478 K0.000 F30.000
G2 X-9.786 Y109.555 Z-5.000 I0.214 J-0.445 K0.000 F30.000
G2 X-10.124 Y109.522 Z-5.000 I-0.214 J0.445 K0.000 F30.000
G1 X-10.124 Y109.522 Z-10.000 F30.000
G2 X-10.214 Y110.445 Z-10.000 I0.124 J0.478 K0.000 F30.000
G2 X-9.786 Y109.555 Z-10.000 I0.214 J-0.445 K0.000 F30.000
G2 X-10.124 Y109.522 Z-10.000 I-0.214 J0.445 K0.000 F30.000
G0 Z2.000
G0 Z2.000
G0 X-10.124 Y109.522
G0 X-10.059 Y115.002
G0 X-10.059 Y115.002
G1 X-10.059 Y115.002 Z-5.000 F30.000
G2 X-11.112 Y124.873 Z-5.000 I0.059 J4.998 K0.000 F30.000
G2 X-8.888 Y115.127 Z-5.000 I1.112 J-4.873 K0.000 F30.000
G2 X-10.059 Y115.002 Z-5.000 I-1.112 J4.873 K0.000 F30.000
G1 X-10.059 Y115.002 Z-10.000 F30.000
G2 X-11.112 Y124.873 Z-10.000 I0.059 J4.998 K0.000 F30.000
G2 X-8.888 Y115.127 Z-10.000 I1.112 J-4.873 K0.000 F30.000
G2 X-10.059 Y115.002 Z-10.000 I-1.112 J4.873 K0.000 F30.000
G0 Z2.000
G0 Z2.000
G0 X-10.059 Y115.002
G0 X-10.002 Y129.506
G0 X-10.002 Y129.506
G1 X-10.002 Y129.506 Z-5.000 F30.000
G2 X-10.214 Y130.445 Z-5.000 I0.002 J0.494 K0.000 F30.000
G2 X-9.786 Y129.555 Z-5.000 I0.214 J-0.445 K0.000 F30.000
G2 X-10.002 Y129.506 Z-5.000 I-0.214 J0.445 K0.000 F30.000
G1 X-10.002 Y129.506 Z-10.000 F30.000
G2 X-10.214 Y130.445 Z-10.000 I0.002 J0.494 K0.000 F30.000
G2 X-9.786 Y129.555 Z-10.000 I0.214 J-0.445 K0.000 F30.000
G2 X-10.002 Y129.506 Z-10.000 I-0.214 J0.445 K0.000 F30.000
G0 Z2.000
G0 Z2.000
G0 X-10.002 Y129.506
G0 X-33.133 Y120.710
G0 X-33.133 Y120.710
G1 X-33.133 Y120.710 Z-5.000 F30.000
G2 X-34.383 Y118.101 Z-5.000 I-1.867 J-0.710 K0.000 F30.000
G2 X-36.899 Y119.383 Z-5.000 I-0.617 J1.899 K0.000 F30.000
G2 X-35.617 Y121.899 Z-5.000 I1.899 J0.617 K0.000 F30.000
G2 X-33.133 Y120.710 Z-5.000 I0.617 J-1.899 K0.000 F30.000
G1 X-33.133 Y120.710 Z-10.000 F30.000
G2 X-34.383 Y118.101 Z-10.000 I-1.867 J-0.710 K0.000 F30.000
G2 X-36.899 Y119.383 Z-10.000 I-0.617 J1.899 K0.000 F30.000
G2 X-35.617 Y121.899 Z-10.000 I1.899 J0.617 K0.000 F30.000
G2 X-33.133 Y120.710 Z-10.000 I0.617 J-1.899 K0.000 F30.000
G0 Z2.000
G0 Z2.000
(Finish operation: Profile001)
(Begin operation: Fixture)
(Path: Fixture)
G54
G0 Z2.000
(Finish operation: Fixture)
(Begin operation: outline)
(Path: outline)
(Profile)
(Compensated Tool Path. Diameter: 2.0)
G0 Z1.000
G0 X0.000 Y0.000
G0 Y-1.000
G0 Y-1.000
G1 X-0.000 Y-1.000 Z-5.000 F30.000
G1 X-50.000 Y-1.000 Z-5.000 F30.000
G2 X-51.000 Y0.000 Z-5.000 I0.000 J1.000 K0.000 F30.000
G1 X-51.000 Y140.000 Z-5.000 F30.000
G2 X-50.000 Y141.000 Z-5.000 I1.000 J-0.000 K0.000 F30.000
G1 X-0.000 Y141.000 Z-5.000 F30.000
G2 X1.000 Y140.000 Z-5.000 I-0.000 J-1.000 K0.000 F30.000
G1 X1.000 Y100.000 Z-5.000 F30.000
G2 X-0.000 Y99.000 Z-5.000 I-1.000 J0.000 K0.000 F30.000
G1 X-24.000 Y99.000 Z-5.000 F30.000
G1 X-24.000 Y41.000 Z-5.000 F30.000
G1 X-0.000 Y41.000 Z-5.000 F30.000
G2 X1.000 Y40.000 Z-5.000 I-0.000 J-1.000 K0.000 F30.000
G1 X1.000 Y0.000 Z-5.000 F30.000
G2 X-0.000 Y-1.000 Z-5.000 I-1.000 J0.000 K0.000 F30.000
G1 X-0.000 Y-1.000 Z-10.000 F30.000
G1 X-50.000 Y-1.000 Z-10.000 F30.000
G2 X-51.000 Y0.000 Z-10.000 I0.000 J1.000 K0.000 F30.000
G1 X-51.000 Y140.000 Z-10.000 F30.000
G2 X-50.000 Y141.000 Z-10.000 I1.000 J-0.000 K0.000 F30.000
G1 X-0.000 Y141.000 Z-10.000 F30.000
G2 X1.000 Y140.000 Z-10.000 I-0.000 J-1.000 K0.000 F30.000
G1 X1.000 Y100.000 Z-10.000 F30.000
G2 X-0.000 Y99.000 Z-10.000 I-1.000 J0.000 K0.000 F30.000
G1 X-24.000 Y99.000 Z-10.000 F30.000
G1 X-24.000 Y41.000 Z-10.000 F30.000
G1 X-0.000 Y41.000 Z-10.000 F30.000
G2 X1.000 Y40.000 Z-10.000 I-0.000 J-1.000 K0.000 F30.000
G1 X1.000 Y0.000 Z-10.000 F30.000
G2 X-0.000 Y-1.000 Z-10.000 I-1.000 J0.000 K0.000 F30.000
G0 Z1.000
G0 Z1.000
(Finish operation: outline)
(Begin postamble)
M5
G17 G90
M2
