(Exported by FreeCAD)
(Post Processor: grbl_post)
(Output Time:2021-11-16 13:54:57.687668)
(Begin preamble)
G17 G90
G21
(Begin operation: Fixture)
(Path: Fixture)
G54
(Finish operation: Fixture)
(Begin operation: 2.5mm_Endmill001)
(Path: 2.5mm_Endmill001)
(2.5mm_Endmill001)
(Begin toolchange)
( M6 T1.0 )
M3 S100.0
(Finish operation: 2.5mm_Endmill001)
(Begin operation: hex)
(Path: hex)
(hex)
(Compensated Tool Path. Diameter: 2.5)
G0 Z2.000
G0 X0.000 Y0.000
G0 X1.865 Y3.230
G0 X1.865 Y3.230
G1 X1.865 Y3.230 Z-3.500 F60.000
G1 X3.730 Y2.153 Z-3.500 F60.000
G1 X3.730 Y-2.153 Z-3.500 F60.000
G1 X-0.000 Y-4.307 Z-3.500 F60.000
G1 X-3.730 Y-2.153 Z-3.500 F60.000
G1 X-3.730 Y2.153 Z-3.500 F60.000
G1 X-0.000 Y4.307 Z-3.500 F60.000
G1 X1.865 Y3.230 Z-3.500 F60.000
G1 X1.865 Y3.230 Z-7.000 F60.000
G1 X3.730 Y2.153 Z-7.000 F60.000
G1 X3.730 Y-2.153 Z-7.000 F60.000
G1 X-0.000 Y-4.307 Z-7.000 F60.000
G1 X-3.730 Y-2.153 Z-7.000 F60.000
G1 X-3.730 Y2.153 Z-7.000 F60.000
G1 X-0.000 Y4.307 Z-7.000 F60.000
G1 X1.865 Y3.230 Z-7.000 F60.000
G1 X1.865 Y3.230 Z-10.000 F60.000
G1 X3.730 Y2.153 Z-10.000 F60.000
G1 X3.730 Y-2.153 Z-10.000 F60.000
G1 X-0.000 Y-4.307 Z-10.000 F60.000
G1 X-3.730 Y-2.153 Z-10.000 F60.000
G1 X-3.730 Y2.153 Z-10.000 F60.000
G1 X-0.000 Y4.307 Z-10.000 F60.000
G1 X1.865 Y3.230 Z-10.000 F60.000
G0 Z2.000
G0 Z2.000
(Finish operation: hex)
(Begin operation: Profile002)
(Path: Profile002)
(Profile002)
(Compensated Tool Path. Diameter: 2.5)
G0 Z2.000
G0 X5.125 Y5.125
G1 X5.125 Y5.125 Z-3.500 F60.000
G2 X7.051 Y1.681 Z-3.500 I-5.125 J-5.125 K0.000 F60.000
G2 X-7.051 Y-1.681 Z-3.500 I-7.051 J-1.681 K0.000 F60.000
G2 X5.125 Y5.125 Z-3.500 I7.051 J1.681 K0.000 F60.000
G1 X5.125 Y5.125 Z-7.000 F60.000
G2 X7.051 Y1.681 Z-7.000 I-5.125 J-5.125 K0.000 F60.000
G2 X-7.051 Y-1.681 Z-7.000 I-7.051 J-1.681 K0.000 F60.000
G2 X5.125 Y5.125 Z-7.000 I7.051 J1.681 K0.000 F60.000
G0 Z2.000
G0 Z2.000
(Finish operation: Profile002)
(Begin operation: Profile003)
(Path: Profile003)
(Profile003)
(Compensated Tool Path. Diameter: 2.5)
G0 Z2.000
G0 X0.000 Y0.000
G0 X-1.216 Y9.166
G0 X-1.216 Y9.166
G1 X-1.216 Y9.166 Z-3.500 F60.000
G2 X1.216 Y-9.166 Z-3.500 I1.216 J-9.166 K0.000 F60.000
G2 X-9.166 Y-1.216 Z-3.500 I-1.216 J9.166 K0.000 F60.000
G2 X-1.216 Y9.166 Z-3.500 I9.166 J1.216 K0.000 F60.000
G1 X-1.216 Y9.166 Z-7.000 F60.000
G2 X1.216 Y-9.166 Z-7.000 I1.216 J-9.166 K0.000 F60.000
G2 X-9.166 Y-1.216 Z-7.000 I-1.216 J9.166 K0.000 F60.000
G2 X-1.216 Y9.166 Z-7.000 I9.166 J1.216 K0.000 F60.000
G1 X-1.216 Y9.166 Z-10.000 F60.000
G2 X1.216 Y-9.166 Z-10.000 I1.216 J-9.166 K0.000 F60.000
G2 X-9.166 Y-1.216 Z-10.000 I-1.216 J9.166 K0.000 F60.000
G2 X-1.216 Y9.166 Z-10.000 I9.166 J1.216 K0.000 F60.000
G0 Z2.000
G0 Z2.000
(Finish operation: Profile003)
(Begin postamble)
M5
G17 G90
M2
