(Exported by FreeCAD)
(Post Processor: grbl_post)
(Output Time:2021-11-16 08:28:00.846799)
(Begin preamble)
G17 G90
G21
(Begin operation: Fixture)
(Path: Fixture)
G54
(Finish operation: Fixture)
(Begin operation: 2.5mm_Endmill003)
(Path: 2.5mm_Endmill003)
(2.5mm_Endmill003)
(Begin toolchange)
( M6 T1.0 )
M3 S100.0
(Finish operation: 2.5mm_Endmill003)
(Begin operation: Profile)
(Path: Profile)
(Profile)
(Compensated Tool Path. Diameter: 2.5)
G0 Z3.000
G0 X0.000 Y0.000
G0 X8.056 Y12.531
G0 X8.056 Y12.531 Z2.000
G1 X8.056 Y12.531 Z-3.000 F60.000
G2 X7.339 Y13.460 Z-3.000 I0.944 J1.469 K0.000 F60.000
G2 X10.661 Y14.540 Z-3.000 I1.661 J0.540 K0.000 F60.000
G2 X8.056 Y12.531 Z-3.000 I-1.661 J-0.540 K0.000 F60.000
G1 X8.056 Y12.531 Z-7.000 F60.000
G2 X7.339 Y13.460 Z-7.000 I0.944 J1.469 K0.000 F60.000
G2 X10.661 Y14.540 Z-7.000 I1.661 J0.540 K0.000 F60.000
G2 X8.056 Y12.531 Z-7.000 I-1.661 J-0.540 K0.000 F60.000
G1 X8.056 Y12.531 Z-10.000 F60.000
G2 X7.339 Y13.460 Z-10.000 I0.944 J1.469 K0.000 F60.000
G2 X10.661 Y14.540 Z-10.000 I1.661 J0.540 K0.000 F60.000
G2 X8.056 Y12.531 Z-10.000 I-1.661 J-0.540 K0.000 F60.000
G0 Z3.000
G0 Z3.000
G0 X8.056 Y12.531
G0 X23.326 Y19.684
G0 X23.326 Y19.684 Z2.000
G1 X23.326 Y19.684 Z-3.000 F60.000
G2 X23.715 Y20.687 Z-3.000 I0.674 J0.316 K0.000 F60.000
G2 X24.285 Y19.313 Z-3.000 I0.285 J-0.687 K0.000 F60.000
G2 X23.326 Y19.684 Z-3.000 I-0.285 J0.687 K0.000 F60.000
G1 X23.326 Y19.684 Z-7.000 F60.000
G2 X23.715 Y20.687 Z-7.000 I0.674 J0.316 K0.000 F60.000
G2 X24.285 Y19.313 Z-7.000 I0.285 J-0.687 K0.000 F60.000
G2 X23.326 Y19.684 Z-7.000 I-0.285 J0.687 K0.000 F60.000
G1 X23.326 Y19.684 Z-10.000 F60.000
G2 X23.715 Y20.687 Z-10.000 I0.674 J0.316 K0.000 F60.000
G2 X24.285 Y19.313 Z-10.000 I0.285 J-0.687 K0.000 F60.000
G2 X23.326 Y19.684 Z-10.000 I-0.285 J0.687 K0.000 F60.000
G0 Z3.000
G0 Z3.000
G0 X23.326 Y19.684
G0 X43.279 Y24.815
G0 X43.279 Y24.815 Z2.000
G1 X43.279 Y24.815 Z-3.000 F60.000
G2 X43.715 Y25.687 Z-3.000 I0.721 J0.185 K0.000 F60.000
G2 X44.285 Y24.313 Z-3.000 I0.285 J-0.687 K0.000 F60.000
G2 X43.279 Y24.815 Z-3.000 I-0.285 J0.687 K0.000 F60.000
G1 X43.279 Y24.815 Z-7.000 F60.000
G2 X43.715 Y25.687 Z-7.000 I0.721 J0.185 K0.000 F60.000
G2 X44.285 Y24.313 Z-7.000 I0.285 J-0.687 K0.000 F60.000
G2 X43.279 Y24.815 Z-7.000 I-0.285 J0.687 K0.000 F60.000
G1 X43.279 Y24.815 Z-10.000 F60.000
G2 X43.715 Y25.687 Z-10.000 I0.721 J0.185 K0.000 F60.000
G2 X44.285 Y24.313 Z-10.000 I0.285 J-0.687 K0.000 F60.000
G2 X43.279 Y24.815 Z-10.000 I-0.285 J0.687 K0.000 F60.000
G0 Z3.000
G0 Z3.000
G0 X43.279 Y24.815
G0 X54.461 Y18.825
G0 X54.461 Y18.825 Z2.000
G1 X54.461 Y18.825 Z-3.000 F60.000
G2 X55.460 Y19.661 Z-3.000 I1.539 J-0.825 K0.000 F60.000
G2 X56.540 Y16.339 Z-3.000 I0.540 J-1.661 K0.000 F60.000
G2 X54.461 Y18.825 Z-3.000 I-0.540 J1.661 K0.000 F60.000
G1 X54.461 Y18.825 Z-7.000 F60.000
G2 X55.460 Y19.661 Z-7.000 I1.539 J-0.825 K0.000 F60.000
G2 X56.540 Y16.339 Z-7.000 I0.540 J-1.661 K0.000 F60.000
G2 X54.461 Y18.825 Z-7.000 I-0.540 J1.661 K0.000 F60.000
G1 X54.461 Y18.825 Z-10.000 F60.000
G2 X55.460 Y19.661 Z-10.000 I1.539 J-0.825 K0.000 F60.000
G2 X56.540 Y16.339 Z-10.000 I0.540 J-1.661 K0.000 F60.000
G2 X54.461 Y18.825 Z-10.000 I-0.540 J1.661 K0.000 F60.000
G0 Z3.000
G0 Z3.000
G0 X54.461 Y18.825
G0 X44.569 Y10.480
G0 X44.569 Y10.480 Z2.000
G1 X44.569 Y10.480 Z-3.000 F60.000
G2 X44.285 Y9.313 Z-3.000 I-0.569 J-0.480 K0.000 F60.000
G2 X43.313 Y9.715 Z-3.000 I-0.285 J0.687 K0.000 F60.000
G2 X43.715 Y10.687 Z-3.000 I0.687 J0.285 K0.000 F60.000
G2 X44.569 Y10.480 Z-3.000 I0.285 J-0.687 K0.000 F60.000
G1 X44.569 Y10.480 Z-7.000 F60.000
G2 X44.285 Y9.313 Z-7.000 I-0.569 J-0.480 K0.000 F60.000
G2 X43.313 Y9.715 Z-7.000 I-0.285 J0.687 K0.000 F60.000
G2 X43.715 Y10.687 Z-7.000 I0.687 J0.285 K0.000 F60.000
G2 X44.569 Y10.480 Z-7.000 I0.285 J-0.687 K0.000 F60.000
G1 X44.569 Y10.480 Z-10.000 F60.000
G2 X44.285 Y9.313 Z-10.000 I-0.569 J-0.480 K0.000 F60.000
G2 X43.313 Y9.715 Z-10.000 I-0.285 J0.687 K0.000 F60.000
G2 X43.715 Y10.687 Z-10.000 I0.687 J0.285 K0.000 F60.000
G2 X44.569 Y10.480 Z-10.000 I0.285 J-0.687 K0.000 F60.000
G0 Z3.000
G0 Z3.000
G0 X44.569 Y10.480
G0 X63.284 Y5.202
G0 X63.284 Y5.202 Z2.000
G1 X63.284 Y5.202 Z-3.000 F60.000
G2 X63.715 Y5.687 Z-3.000 I0.716 J-0.202 K0.000 F60.000
G2 X64.285 Y4.313 Z-3.000 I0.285 J-0.687 K0.000 F60.000
G2 X63.284 Y5.202 Z-3.000 I-0.285 J0.687 K0.000 F60.000
G1 X63.284 Y5.202 Z-7.000 F60.000
G2 X63.715 Y5.687 Z-7.000 I0.716 J-0.202 K0.000 F60.000
G2 X64.285 Y4.313 Z-7.000 I0.285 J-0.687 K0.000 F60.000
G2 X63.284 Y5.202 Z-7.000 I-0.285 J0.687 K0.000 F60.000
G1 X63.284 Y5.202 Z-10.000 F60.000
G2 X63.715 Y5.687 Z-10.000 I0.716 J-0.202 K0.000 F60.000
G2 X64.285 Y4.313 Z-10.000 I0.285 J-0.687 K0.000 F60.000
G2 X63.284 Y5.202 Z-10.000 I-0.285 J0.687 K0.000 F60.000
G0 Z3.000
G0 Z3.000
G0 X63.284 Y5.202
G0 X83.295 Y9.623
G0 X83.295 Y9.623 Z2.000
G1 X83.295 Y9.623 Z-3.000 F60.000
G2 X86.661 Y10.540 Z-3.000 I1.705 J0.377 K0.000 F60.000
G2 X83.339 Y9.460 Z-3.000 I-1.661 J-0.540 K0.000 F60.000
G2 X83.295 Y9.623 Z-3.000 I1.661 J0.540 K0.000 F60.000
G1 X83.295 Y9.623 Z-7.000 F60.000
G2 X86.661 Y10.540 Z-7.000 I1.705 J0.377 K0.000 F60.000
G2 X83.339 Y9.460 Z-7.000 I-1.661 J-0.540 K0.000 F60.000
G2 X83.295 Y9.623 Z-7.000 I1.661 J0.540 K0.000 F60.000
G1 X83.295 Y9.623 Z-10.000 F60.000
G2 X86.661 Y10.540 Z-10.000 I1.705 J0.377 K0.000 F60.000
G2 X83.339 Y9.460 Z-10.000 I-1.661 J-0.540 K0.000 F60.000
G2 X83.295 Y9.623 Z-10.000 I1.661 J0.540 K0.000 F60.000
G0 Z3.000
G0 Z3.000
(Finish operation: Profile)
(Begin operation: Profile001)
(Path: Profile001)
(Profile001)
(Compensated Tool Path. Diameter: 2.5)
G0 Z3.000
G0 X0.000 Y0.000
G0 X-1.250
G0 X-1.250 Z2.000
G1 X-1.250 Y0.000 Z-3.000 F60.000
G1 X-1.250 Y30.000 Z-3.000 F60.000
G2 X0.000 Y31.250 Z-3.000 I1.250 J0.000 K0.000 F60.000
G1 X96.000 Y31.250 Z-3.000 F60.000
G2 X97.250 Y30.000 Z-3.000 I0.000 J-1.250 K0.000 F60.000
G1 X97.250 Y0.000 Z-3.000 F60.000
G2 X96.000 Y-1.250 Z-3.000 I-1.250 J-0.000 K0.000 F60.000
G1 X0.000 Y-1.250 Z-3.000 F60.000
G2 X-1.250 Y0.000 Z-3.000 I-0.000 J1.250 K0.000 F60.000
G1 X-1.250 Y0.000 Z-7.000 F60.000
G1 X-1.250 Y30.000 Z-7.000 F60.000
G2 X0.000 Y31.250 Z-7.000 I1.250 J0.000 K0.000 F60.000
G1 X96.000 Y31.250 Z-7.000 F60.000
G2 X97.250 Y30.000 Z-7.000 I0.000 J-1.250 K0.000 F60.000
G1 X97.250 Y0.000 Z-7.000 F60.000
G2 X96.000 Y-1.250 Z-7.000 I-1.250 J-0.000 K0.000 F60.000
G1 X0.000 Y-1.250 Z-7.000 F60.000
G2 X-1.250 Y0.000 Z-7.000 I-0.000 J1.250 K0.000 F60.000
G1 X-1.250 Y0.000 Z-10.000 F60.000
G1 X-1.250 Y30.000 Z-10.000 F60.000
G2 X0.000 Y31.250 Z-10.000 I1.250 J0.000 K0.000 F60.000
G1 X96.000 Y31.250 Z-10.000 F60.000
G2 X97.250 Y30.000 Z-10.000 I0.000 J-1.250 K0.000 F60.000
G1 X97.250 Y0.000 Z-10.000 F60.000
G2 X96.000 Y-1.250 Z-10.000 I-1.250 J-0.000 K0.000 F60.000
G1 X0.000 Y-1.250 Z-10.000 F60.000
G2 X-1.250 Y0.000 Z-10.000 I-0.000 J1.250 K0.000 F60.000
G0 Z3.000
G0 Z3.000
(Finish operation: Profile001)
(Begin postamble)
M5
G17 G90
M2
