(Exported by FreeCAD)
(Post Processor: grbl_post)
(Output Time:2021-11-17 09:58:47.568640)
(Begin preamble)
G17 G90
G21
(Begin operation: Fixture)
(Path: Fixture)
G54
(Finish operation: Fixture)
(Begin operation: 2.5mm_Endmill003)
(Path: 2.5mm_Endmill003)
(2.5mm_Endmill003)
(Begin toolchange)
( M6 T1.0 )
M3 S100.0
(Finish operation: 2.5mm_Endmill003)
(Begin operation: Profile)
(Path: Profile)
(Profile)
(Compensated Tool Path. Diameter: 2.5)
G0 Z3.000
G0 X0.000 Y0.000
G0 X5.436 Y4.287
G0 X5.436 Y4.287 Z2.000
G1 X5.436 Y4.287 Z-3.000 F60.000
G2 X5.532 Y4.660 Z-3.000 I0.190 J0.150 K0.000 F60.000
G2 X5.720 Y4.214 Z-3.000 I0.094 J-0.223 K0.000 F60.000
G2 X5.436 Y4.287 Z-3.000 I-0.094 J0.223 K0.000 F60.000
G1 X5.436 Y4.287 Z-7.000 F60.000
G2 X5.532 Y4.660 Z-7.000 I0.190 J0.150 K0.000 F60.000
G2 X5.720 Y4.214 Z-7.000 I0.094 J-0.223 K0.000 F60.000
G2 X5.436 Y4.287 Z-7.000 I-0.094 J0.223 K0.000 F60.000
G1 X5.436 Y4.287 Z-10.000 F60.000
G2 X5.532 Y4.660 Z-10.000 I0.190 J0.150 K0.000 F60.000
G2 X5.720 Y4.214 Z-10.000 I0.094 J-0.223 K0.000 F60.000
G2 X5.436 Y4.287 Z-10.000 I-0.094 J0.223 K0.000 F60.000
G0 Z3.000
G0 Z3.000
G0 X5.436 Y4.287
G0 X26.766 Y9.938
G0 X26.766 Y9.938 Z2.000
G1 X26.766 Y9.938 Z-3.000 F60.000
G2 X26.895 Y10.218 Z-3.000 I0.234 J0.062 K0.000 F60.000
G2 X27.105 Y9.782 Z-3.000 I0.105 J-0.218 K0.000 F60.000
G2 X26.766 Y9.938 Z-3.000 I-0.105 J0.218 K0.000 F60.000
G1 X26.766 Y9.938 Z-7.000 F60.000
G2 X26.895 Y10.218 Z-7.000 I0.234 J0.062 K0.000 F60.000
G2 X27.105 Y9.782 Z-7.000 I0.105 J-0.218 K0.000 F60.000
G2 X26.766 Y9.938 Z-7.000 I-0.105 J0.218 K0.000 F60.000
G1 X26.766 Y9.938 Z-10.000 F60.000
G2 X26.895 Y10.218 Z-10.000 I0.234 J0.062 K0.000 F60.000
G2 X27.105 Y9.782 Z-10.000 I0.105 J-0.218 K0.000 F60.000
G2 X26.766 Y9.938 Z-10.000 I-0.105 J0.218 K0.000 F60.000
G0 Z3.000
G0 Z3.000
G0 X26.766 Y9.938
G0 X32.252 Y9.971
G0 X32.252 Y9.971 Z2.000
G1 X32.252 Y9.971 Z-3.000 F60.000
G2 X35.943 Y14.629 Z-3.000 I4.748 J0.029 K0.000 F60.000
G2 X38.057 Y5.371 Z-3.000 I1.057 J-4.629 K0.000 F60.000
G2 X32.252 Y9.971 Z-3.000 I-1.057 J4.629 K0.000 F60.000
G1 X32.252 Y9.971 Z-7.000 F60.000
G2 X35.943 Y14.629 Z-7.000 I4.748 J0.029 K0.000 F60.000
G2 X38.057 Y5.371 Z-7.000 I1.057 J-4.629 K0.000 F60.000
G2 X32.252 Y9.971 Z-7.000 I-1.057 J4.629 K0.000 F60.000
G1 X32.252 Y9.971 Z-10.000 F60.000
G2 X35.943 Y14.629 Z-10.000 I4.748 J0.029 K0.000 F60.000
G2 X38.057 Y5.371 Z-10.000 I1.057 J-4.629 K0.000 F60.000
G2 X32.252 Y9.971 Z-10.000 I-1.057 J4.629 K0.000 F60.000
G0 Z3.000
G0 Z3.000
G0 X32.252 Y9.971
G0 X46.758 Y10.000
G0 X46.758 Y10.000 Z2.000
G1 X46.758 Y10.000 Z-3.000 F60.000
G2 X46.895 Y10.218 Z-3.000 I0.242 J0.000 K0.000 F60.000
G2 X47.105 Y9.782 Z-3.000 I0.105 J-0.218 K0.000 F60.000
G2 X46.758 Y10.000 Z-3.000 I-0.105 J0.218 K0.000 F60.000
G1 X46.758 Y10.000 Z-7.000 F60.000
G2 X46.895 Y10.218 Z-7.000 I0.242 J0.000 K0.000 F60.000
G2 X47.105 Y9.782 Z-7.000 I0.105 J-0.218 K0.000 F60.000
G2 X46.758 Y10.000 Z-7.000 I-0.105 J0.218 K0.000 F60.000
G1 X46.758 Y10.000 Z-10.000 F60.000
G2 X46.895 Y10.218 Z-10.000 I0.242 J0.000 K0.000 F60.000
G2 X47.105 Y9.782 Z-10.000 I0.105 J-0.218 K0.000 F60.000
G2 X46.758 Y10.000 Z-10.000 I-0.105 J0.218 K0.000 F60.000
G0 Z3.000
G0 Z3.000
G0 X46.758 Y10.000
G0 X58.357 Y35.374
G0 X58.357 Y35.374 Z2.000
G1 X58.357 Y35.374 Z-3.000 F60.000
G2 X58.601 Y38.641 Z-3.000 I0.726 J1.588 K0.000 F60.000
G2 X59.564 Y35.284 Z-3.000 I0.481 J-1.678 K0.000 F60.000
G2 X58.357 Y35.374 Z-3.000 I-0.481 J1.678 K0.000 F60.000
G1 X58.357 Y35.374 Z-7.000 F60.000
G2 X58.601 Y38.641 Z-7.000 I0.726 J1.588 K0.000 F60.000
G2 X59.564 Y35.284 Z-7.000 I0.481 J-1.678 K0.000 F60.000
G2 X58.357 Y35.374 Z-7.000 I-0.481 J1.678 K0.000 F60.000
G1 X58.357 Y35.374 Z-10.000 F60.000
G2 X58.601 Y38.641 Z-10.000 I0.726 J1.588 K0.000 F60.000
G2 X59.564 Y35.284 Z-10.000 I0.481 J-1.678 K0.000 F60.000
G2 X58.357 Y35.374 Z-10.000 I-0.481 J1.678 K0.000 F60.000
G0 Z3.000
G0 Z3.000
G0 X58.357 Y35.374
G0 X41.329 Y43.049
G0 X41.329 Y43.049 Z2.000
G1 X41.329 Y43.049 Z-3.000 F60.000
G2 X37.999 Y40.358 Z-3.000 I-4.329 J1.951 K0.000 F60.000
G2 X36.001 Y49.642 Z-3.000 I-0.999 J4.642 K0.000 F60.000
G2 X41.329 Y43.049 Z-3.000 I0.999 J-4.642 K0.000 F60.000
G1 X41.329 Y43.049 Z-7.000 F60.000
G2 X37.999 Y40.358 Z-7.000 I-4.329 J1.951 K0.000 F60.000
G2 X36.001 Y49.642 Z-7.000 I-0.999 J4.642 K0.000 F60.000
G2 X41.329 Y43.049 Z-7.000 I0.999 J-4.642 K0.000 F60.000
G1 X41.329 Y43.049 Z-10.000 F60.000
G2 X37.999 Y40.358 Z-10.000 I-4.329 J1.951 K0.000 F60.000
G2 X36.001 Y49.642 Z-10.000 I-0.999 J4.642 K0.000 F60.000
G2 X41.329 Y43.049 Z-10.000 I0.999 J-4.642 K0.000 F60.000
G0 Z3.000
G0 Z3.000
G0 X41.329 Y43.049
G0 X16.550 Y52.420
G0 X16.550 Y52.420 Z2.000
G1 X16.550 Y52.420 Z-3.000 F60.000
G2 X15.399 Y51.359 Z-3.000 I-1.633 J0.618 K0.000 F60.000
G2 X14.436 Y54.716 Z-3.000 I-0.481 J1.678 K0.000 F60.000
G2 X16.550 Y52.420 Z-3.000 I0.481 J-1.678 K0.000 F60.000
G1 X16.550 Y52.420 Z-7.000 F60.000
G2 X15.399 Y51.359 Z-7.000 I-1.633 J0.618 K0.000 F60.000
G2 X14.436 Y54.716 Z-7.000 I-0.481 J1.678 K0.000 F60.000
G2 X16.550 Y52.420 Z-7.000 I0.481 J-1.678 K0.000 F60.000
G1 X16.550 Y52.420 Z-10.000 F60.000
G2 X15.399 Y51.359 Z-10.000 I-1.633 J0.618 K0.000 F60.000
G2 X14.436 Y54.716 Z-10.000 I-0.481 J1.678 K0.000 F60.000
G2 X16.550 Y52.420 Z-10.000 I0.481 J-1.678 K0.000 F60.000
G0 Z3.000
G0 Z3.000
G0 X16.550 Y52.420
G0 X-1.399 Y45.648
G0 X-1.399 Y45.648 Z2.000
G1 X-1.399 Y45.648 Z-3.000 F60.000
G2 X-1.532 Y45.340 Z-3.000 I-0.227 J-0.085 K0.000 F60.000
G2 X-1.720 Y45.786 Z-3.000 I-0.094 J0.223 K0.000 F60.000
G2 X-1.399 Y45.648 Z-3.000 I0.094 J-0.223 K0.000 F60.000
G1 X-1.399 Y45.648 Z-7.000 F60.000
G2 X-1.532 Y45.340 Z-7.000 I-0.227 J-0.085 K0.000 F60.000
G2 X-1.720 Y45.786 Z-7.000 I-0.094 J0.223 K0.000 F60.000
G2 X-1.399 Y45.648 Z-7.000 I0.094 J-0.223 K0.000 F60.000
G1 X-1.399 Y45.648 Z-10.000 F60.000
G2 X-1.532 Y45.340 Z-10.000 I-0.227 J-0.085 K0.000 F60.000
G2 X-1.720 Y45.786 Z-10.000 I-0.094 J0.223 K0.000 F60.000
G2 X-1.399 Y45.648 Z-10.000 I0.094 J-0.223 K0.000 F60.000
G0 Z3.000
G0 Z3.000
(Finish operation: Profile)
(Begin operation: Profile001)
(Path: Profile001)
(Profile001)
(Compensated Tool Path. Diameter: 2.5)
G0 Z3.000
G0 X0.000 Y0.000
G0 X0.116 Y0.116
G0 X0.116 Y0.116 Z2.000
G1 X0.116 Y0.116 Z-3.000 F60.000
G1 X-8.884 Y9.116 Z-3.000 F60.000
G2 X-9.211 Y9.689 Z-3.000 I0.884 J0.884 K0.000 F60.000
G2 X-9.250 Y10.639 Z-3.000 I3.738 J0.630 K0.000 F60.000
G2 X-7.321 Y11.688 Z-3.000 I1.250 J0.000 K0.000 F60.000
G3 X11.257 Y11.646 Z-3.000 I9.319 J13.316 K0.000 F60.000
G3 X15.332 Y34.289 Z-3.000 I-9.258 J13.355 K0.000 F60.000
G3 X-7.320 Y38.313 Z-3.000 I-13.333 J-9.289 K0.000 F60.000
G2 X-9.250 Y39.361 Z-3.000 I-0.680 J1.049 K0.000 F60.000
G1 X-9.250 Y45.000 Z-3.000 F60.000
G2 X-8.884 Y45.884 Z-3.000 I1.250 J-0.000 K0.000 F60.000
G1 X6.116 Y60.884 Z-3.000 F60.000
G2 X7.000 Y61.250 Z-3.000 I0.884 J-0.884 K0.000 F60.000
G1 X57.000 Y61.250 Z-3.000 F60.000
G2 X57.884 Y60.884 Z-3.000 I-0.000 J-1.250 K0.000 F60.000
G1 X67.884 Y50.884 Z-3.000 F60.000
G2 X68.250 Y50.000 Z-3.000 I-0.884 J-0.884 K0.000 F60.000
G1 X68.250 Y0.000 Z-3.000 F60.000
G2 X67.000 Y-1.250 Z-3.000 I-1.250 J-0.000 K0.000 F60.000
G1 X2.000 Y-1.250 Z-3.000 F60.000
G2 X1.116 Y-0.884 Z-3.000 I0.000 J1.250 K0.000 F60.000
G1 X0.116 Y0.116 Z-3.000 F60.000
G1 X0.116 Y0.116 Z-7.000 F60.000
G1 X-8.884 Y9.116 Z-7.000 F60.000
G2 X-9.211 Y9.689 Z-7.000 I0.884 J0.884 K0.000 F60.000
G2 X-9.250 Y10.639 Z-7.000 I3.738 J0.630 K0.000 F60.000
G2 X-7.321 Y11.688 Z-7.000 I1.250 J0.000 K0.000 F60.000
G3 X11.257 Y11.646 Z-7.000 I9.319 J13.316 K0.000 F60.000
G3 X15.332 Y34.289 Z-7.000 I-9.258 J13.355 K0.000 F60.000
G3 X-7.320 Y38.313 Z-7.000 I-13.333 J-9.289 K0.000 F60.000
G2 X-9.250 Y39.361 Z-7.000 I-0.680 J1.049 K0.000 F60.000
G1 X-9.250 Y45.000 Z-7.000 F60.000
G2 X-8.884 Y45.884 Z-7.000 I1.250 J-0.000 K0.000 F60.000
G1 X6.116 Y60.884 Z-7.000 F60.000
G2 X7.000 Y61.250 Z-7.000 I0.884 J-0.884 K0.000 F60.000
G1 X57.000 Y61.250 Z-7.000 F60.000
G2 X57.884 Y60.884 Z-7.000 I-0.000 J-1.250 K0.000 F60.000
G1 X67.884 Y50.884 Z-7.000 F60.000
G2 X68.250 Y50.000 Z-7.000 I-0.884 J-0.884 K0.000 F60.000
G1 X68.250 Y0.000 Z-7.000 F60.000
G2 X67.000 Y-1.250 Z-7.000 I-1.250 J-0.000 K0.000 F60.000
G1 X2.000 Y-1.250 Z-7.000 F60.000
G2 X1.116 Y-0.884 Z-7.000 I0.000 J1.250 K0.000 F60.000
G1 X0.116 Y0.116 Z-7.000 F60.000
G1 X0.116 Y0.116 Z-10.000 F60.000
G1 X-8.884 Y9.116 Z-10.000 F60.000
G2 X-9.211 Y9.689 Z-10.000 I0.884 J0.884 K0.000 F60.000
G2 X-9.250 Y10.639 Z-10.000 I3.738 J0.630 K0.000 F60.000
G2 X-7.321 Y11.688 Z-10.000 I1.250 J0.000 K0.000 F60.000
G3 X11.257 Y11.646 Z-10.000 I9.319 J13.316 K0.000 F60.000
G3 X15.332 Y34.289 Z-10.000 I-9.258 J13.355 K0.000 F60.000
G3 X-7.320 Y38.313 Z-10.000 I-13.333 J-9.289 K0.000 F60.000
G2 X-9.250 Y39.361 Z-10.000 I-0.680 J1.049 K0.000 F60.000
G1 X-9.250 Y45.000 Z-10.000 F60.000
G2 X-8.884 Y45.884 Z-10.000 I1.250 J-0.000 K0.000 F60.000
G1 X6.116 Y60.884 Z-10.000 F60.000
G2 X7.000 Y61.250 Z-10.000 I0.884 J-0.884 K0.000 F60.000
G1 X57.000 Y61.250 Z-10.000 F60.000
G2 X57.884 Y60.884 Z-10.000 I-0.000 J-1.250 K0.000 F60.000
G1 X67.884 Y50.884 Z-10.000 F60.000
G2 X68.250 Y50.000 Z-10.000 I-0.884 J-0.884 K0.000 F60.000
G1 X68.250 Y0.000 Z-10.000 F60.000
G2 X67.000 Y-1.250 Z-10.000 I-1.250 J-0.000 K0.000 F60.000
G1 X2.000 Y-1.250 Z-10.000 F60.000
G2 X1.116 Y-0.884 Z-10.000 I0.000 J1.250 K0.000 F60.000
G1 X0.116 Y0.116 Z-10.000 F60.000
G0 Z3.000
G0 Z3.000
(Finish operation: Profile001)
(Begin postamble)
M5
G17 G90
M2
