(Exported by FreeCAD)
(Post Processor: grbl_post)
(Output Time:2021-11-17 10:02:22.950314)
(Begin preamble)
G17 G90
G21
(Begin operation: Fixture)
(Path: Fixture)
G54
(Finish operation: Fixture)
(Begin operation: 2.5mm_Endmill003)
(Path: 2.5mm_Endmill003)
(2.5mm_Endmill003)
(Begin toolchange)
( M6 T1.0 )
M3 S100.0
(Finish operation: 2.5mm_Endmill003)
(Begin operation: Profile)
(Path: Profile)
(Profile)
(Compensated Tool Path. Diameter: 2.5)
G0 Z3.000
G0 X0.000 Y0.000
G0 X13.547 Y9.031
G0 X13.547 Y9.031 Z2.000
G1 X13.547 Y9.031 Z-3.000 F60.000
G2 X14.460 Y11.661 Z-3.000 I1.453 J0.969 K0.000 F60.000
G2 X15.540 Y8.339 Z-3.000 I0.540 J-1.661 K0.000 F60.000
G2 X13.547 Y9.031 Z-3.000 I-0.540 J1.661 K0.000 F60.000
G1 X13.547 Y9.031 Z-7.000 F60.000
G2 X14.460 Y11.661 Z-7.000 I1.453 J0.969 K0.000 F60.000
G2 X15.540 Y8.339 Z-7.000 I0.540 J-1.661 K0.000 F60.000
G2 X13.547 Y9.031 Z-7.000 I-0.540 J1.661 K0.000 F60.000
G1 X13.547 Y9.031 Z-10.000 F60.000
G2 X14.460 Y11.661 Z-10.000 I1.453 J0.969 K0.000 F60.000
G2 X15.540 Y8.339 Z-10.000 I0.540 J-1.661 K0.000 F60.000
G2 X13.547 Y9.031 Z-10.000 I-0.540 J1.661 K0.000 F60.000
G0 Z3.000
G0 Z3.000
G0 X13.547 Y9.031
G0 X48.254 Y9.954
G0 X48.254 Y9.954 Z2.000
G1 X48.254 Y9.954 Z-3.000 F60.000
G2 X49.460 Y11.661 Z-3.000 I1.746 J0.046 K0.000 F60.000
G2 X51.661 Y10.540 Z-3.000 I0.540 J-1.661 K0.000 F60.000
G2 X50.540 Y8.339 Z-3.000 I-1.661 J-0.540 K0.000 F60.000
G2 X48.254 Y9.954 Z-3.000 I-0.540 J1.661 K0.000 F60.000
G1 X48.254 Y9.954 Z-7.000 F60.000
G2 X49.460 Y11.661 Z-7.000 I1.746 J0.046 K0.000 F60.000
G2 X51.661 Y10.540 Z-7.000 I0.540 J-1.661 K0.000 F60.000
G2 X50.540 Y8.339 Z-7.000 I-1.661 J-0.540 K0.000 F60.000
G2 X48.254 Y9.954 Z-7.000 I-0.540 J1.661 K0.000 F60.000
G1 X48.254 Y9.954 Z-10.000 F60.000
G2 X49.460 Y11.661 Z-10.000 I1.746 J0.046 K0.000 F60.000
G2 X51.661 Y10.540 Z-10.000 I0.540 J-1.661 K0.000 F60.000
G2 X50.540 Y8.339 Z-10.000 I-1.661 J-0.540 K0.000 F60.000
G2 X48.254 Y9.954 Z-10.000 I-0.540 J1.661 K0.000 F60.000
G0 Z3.000
G0 Z3.000
(Finish operation: Profile)
(Begin operation: Profile001)
(Path: Profile001)
(Profile001)
(Compensated Tool Path. Diameter: 2.5)
G0 Z3.000
G0 X0.000 Y0.000
G0 Y-1.250
G0 Y-1.250 Z2.000
G1 X0.000 Y-1.250 Z-3.000 F60.000
G2 X-1.250 Y0.000 Z-3.000 I-0.000 J1.250 K0.000 F60.000
G1 X-1.250 Y20.000 Z-3.000 F60.000
G2 X-0.000 Y21.250 Z-3.000 I1.250 J0.000 K0.000 F60.000
G1 X60.000 Y21.250 Z-3.000 F60.000
G2 X61.250 Y20.000 Z-3.000 I0.000 J-1.250 K0.000 F60.000
G1 X61.250 Y0.000 Z-3.000 F60.000
G2 X60.000 Y-1.250 Z-3.000 I-1.250 J-0.000 K0.000 F60.000
G1 X0.000 Y-1.250 Z-3.000 F60.000
G1 X0.000 Y-1.250 Z-7.000 F60.000
G2 X-1.250 Y0.000 Z-7.000 I-0.000 J1.250 K0.000 F60.000
G1 X-1.250 Y20.000 Z-7.000 F60.000
G2 X-0.000 Y21.250 Z-7.000 I1.250 J0.000 K0.000 F60.000
G1 X60.000 Y21.250 Z-7.000 F60.000
G2 X61.250 Y20.000 Z-7.000 I0.000 J-1.250 K0.000 F60.000
G1 X61.250 Y0.000 Z-7.000 F60.000
G2 X60.000 Y-1.250 Z-7.000 I-1.250 J-0.000 K0.000 F60.000
G1 X0.000 Y-1.250 Z-7.000 F60.000
G1 X0.000 Y-1.250 Z-10.000 F60.000
G2 X-1.250 Y0.000 Z-10.000 I-0.000 J1.250 K0.000 F60.000
G1 X-1.250 Y20.000 Z-10.000 F60.000
G2 X-0.000 Y21.250 Z-10.000 I1.250 J0.000 K0.000 F60.000
G1 X60.000 Y21.250 Z-10.000 F60.000
G2 X61.250 Y20.000 Z-10.000 I0.000 J-1.250 K0.000 F60.000
G1 X61.250 Y0.000 Z-10.000 F60.000
G2 X60.000 Y-1.250 Z-10.000 I-1.250 J-0.000 K0.000 F60.000
G1 X0.000 Y-1.250 Z-10.000 F60.000
G0 Z3.000
G0 Z3.000
(Finish operation: Profile001)
(Begin postamble)
M5
G17 G90
M2
