(Exported by FreeCAD)
(Post Processor: grbl_post)
(Output Time:2021-11-18 04:55:57.733572)
(Begin preamble)
G17 G90
G21
(Begin operation: Fixture)
(Path: Fixture)
G54
(Finish operation: Fixture)
(Begin operation: 2.5mm_Endmill006)
(Path: 2.5mm_Endmill006)
(2.5mm_Endmill006)
(Begin toolchange)
( M6 T1.0 )
M3 S100.0
(Finish operation: 2.5mm_Endmill006)
(Begin operation: Profile010)
(Path: Profile010)
(Profile010)
(Compensated Tool Path. Diameter: 2.5)
G0 Z3.000
G0 X0.000 Y0.000
G0 X15.789 Y-8.881
G0 X15.789 Y-8.881 Z2.000
G1 X15.789 Y-8.881 Z-5.000 F60.000
G2 X15.895 Y-8.782 Z-5.000 I0.211 J-0.119 K0.000 F60.000
G2 X16.105 Y-9.218 Z-5.000 I0.105 J-0.218 K0.000 F60.000
G2 X15.789 Y-8.881 Z-5.000 I-0.105 J0.218 K0.000 F60.000
G1 X15.789 Y-8.881 Z-10.000 F60.000
G2 X15.895 Y-8.782 Z-10.000 I0.211 J-0.119 K0.000 F60.000
G2 X16.105 Y-9.218 Z-10.000 I0.105 J-0.218 K0.000 F60.000
G2 X15.789 Y-8.881 Z-10.000 I-0.105 J0.218 K0.000 F60.000
G0 Z3.000
G0 Z3.000
G0 X15.789 Y-8.881
G0 X29.758 Y-8.998
G0 X29.758 Y-8.998 Z2.000
G1 X29.758 Y-8.998 Z-5.000 F60.000
G2 X29.895 Y-8.782 Z-5.000 I0.242 J-0.002 K0.000 F60.000
G2 X30.105 Y-9.218 Z-5.000 I0.105 J-0.218 K0.000 F60.000
G2 X29.758 Y-8.998 Z-5.000 I-0.105 J0.218 K0.000 F60.000
G1 X29.758 Y-8.998 Z-10.000 F60.000
G2 X29.895 Y-8.782 Z-10.000 I0.242 J-0.002 K0.000 F60.000
G2 X30.105 Y-9.218 Z-10.000 I0.105 J-0.218 K0.000 F60.000
G2 X29.758 Y-8.998 Z-10.000 I-0.105 J0.218 K0.000 F60.000
G0 Z3.000
G0 Z3.000
G0 X29.758 Y-8.998
G0 X47.758 Y-9.000
G0 X47.758 Y-9.000 Z2.000
G1 X47.758 Y-9.000 Z-5.000 F60.000
G2 X47.895 Y-8.782 Z-5.000 I0.242 J-0.000 K0.000 F60.000
G2 X48.105 Y-9.218 Z-5.000 I0.105 J-0.218 K0.000 F60.000
G2 X47.758 Y-9.000 Z-5.000 I-0.105 J0.218 K0.000 F60.000
G1 X47.758 Y-9.000 Z-10.000 F60.000
G2 X47.895 Y-8.782 Z-10.000 I0.242 J-0.000 K0.000 F60.000
G2 X48.105 Y-9.218 Z-10.000 I0.105 J-0.218 K0.000 F60.000
G2 X47.758 Y-9.000 Z-10.000 I-0.105 J0.218 K0.000 F60.000
G0 Z3.000
G0 Z3.000
(Finish operation: Profile010)
(Begin operation: Fixture)
(Path: Fixture)
G54
G0 Z3.000
(Finish operation: Fixture)
(Begin operation: Profile011)
(Path: Profile011)
(Profile011)
(Compensated Tool Path. Diameter: 2.5)
G0 Z3.000
G0 X0.000 Y0.000
G0 X8.500
G0 X8.500 Z2.000
G1 X8.500 Y0.000 Z-3.000 F60.000
G1 X11.500 Y0.000 Z-3.000 F60.000
G1 X11.500 Y-18.000 Z-3.000 F60.000
G1 X8.500 Y-18.000 Z-3.000 F60.000
G1 X8.500 Y0.000 Z-3.000 F60.000
G0 Z3.000
G0 Z3.000
G0 X8.500
G0 X38.500
G0 X38.500 Z2.000
G1 X38.500 Y0.000 Z-3.000 F60.000
G1 X41.500 Y0.000 Z-3.000 F60.000
G1 X41.500 Y-18.000 Z-3.000 F60.000
G1 X38.500 Y-18.000 Z-3.000 F60.000
G1 X38.500 Y0.000 Z-3.000 F60.000
G0 Z3.000
G0 Z3.000
(Finish operation: Profile011)
(Begin operation: Fixture)
(Path: Fixture)
G54
G0 Z3.000
(Finish operation: Fixture)
(Begin operation: Profile013)
(Path: Profile013)
(Profile013)
(Compensated Tool Path. Diameter: 2.5)
G0 Z3.000
G0 X0.000 Y0.000
G0 X-1.250
G0 X-1.250 Z2.000
G1 X-1.250 Y0.000 Z-5.000 F60.000
G1 X-1.250 Y1.000 Z-5.000 F60.000
G2 X0.000 Y2.250 Z-5.000 I1.250 J0.000 K0.000 F60.000
G1 X52.000 Y2.250 Z-5.000 F60.000
G2 X53.250 Y1.000 Z-5.000 I0.000 J-1.250 K0.000 F60.000
G1 X53.250 Y-19.000 Z-5.000 F60.000
G2 X52.000 Y-20.250 Z-5.000 I-1.250 J-0.000 K0.000 F60.000
G1 X0.000 Y-20.250 Z-5.000 F60.000
G2 X-1.250 Y-19.000 Z-5.000 I-0.000 J1.250 K0.000 F60.000
G1 X-1.250 Y0.000 Z-5.000 F60.000
G1 X-1.250 Y0.000 Z-10.000 F60.000
G1 X-1.250 Y1.000 Z-10.000 F60.000
G2 X0.000 Y2.250 Z-10.000 I1.250 J0.000 K0.000 F60.000
G1 X52.000 Y2.250 Z-10.000 F60.000
G2 X53.250 Y1.000 Z-10.000 I0.000 J-1.250 K0.000 F60.000
G1 X53.250 Y-19.000 Z-10.000 F60.000
G2 X52.000 Y-20.250 Z-10.000 I-1.250 J-0.000 K0.000 F60.000
G1 X0.000 Y-20.250 Z-10.000 F60.000
G2 X-1.250 Y-19.000 Z-10.000 I-0.000 J1.250 K0.000 F60.000
G1 X-1.250 Y0.000 Z-10.000 F60.000
G0 Z3.000
G0 Z3.000
(Finish operation: Profile013)
(Begin postamble)
M5
G17 G90
M2
