(Exported by FreeCAD)
(Post Processor: grbl_post)
(Output Time:2021-11-18 08:24:46.443818)
(Begin preamble)
G17 G90
G21
(Begin operation: Fixture)
(Path: Fixture)
G54
(Finish operation: Fixture)
(Begin operation: 2.5mm_Endmill012)
(Path: 2.5mm_Endmill012)
(2.5mm_Endmill012)
(Begin toolchange)
( M6 T1.0 )
M3 S100.0
(Finish operation: 2.5mm_Endmill012)
(Begin operation: Profile019)
(Path: Profile019)
(Profile019)
(Compensated Tool Path. Diameter: 2.5)
G0 Z3.000
G0 X0.000 Y0.000
G0 X9.556 Y6.689
G0 X9.556 Y6.689 Z2.000
G1 X9.556 Y6.689 Z-5.000 F60.000
G2 X18.100 Y26.607 Z-5.000 I10.444 J7.311 K0.000 F60.000
G2 X21.900 Y1.393 Z-5.000 I1.900 J-12.607 K0.000 F60.000
G2 X9.556 Y6.689 Z-5.000 I-1.900 J12.607 K0.000 F60.000
G1 X9.556 Y6.689 Z-10.000 F60.000
G2 X18.100 Y26.607 Z-10.000 I10.444 J7.311 K0.000 F60.000
G2 X21.900 Y1.393 Z-10.000 I1.900 J-12.607 K0.000 F60.000
G2 X9.556 Y6.689 Z-10.000 I-1.900 J12.607 K0.000 F60.000
G0 Z3.000
G0 Z3.000
G0 X9.556 Y6.689
G0 X49.796 Y-18.870
G0 X49.796 Y-18.870 Z2.000
G1 X49.796 Y-18.870 Z-5.000 F60.000
G2 X49.895 Y-18.782 Z-5.000 I0.204 J-0.130 K0.000 F60.000
G2 X50.105 Y-19.218 Z-5.000 I0.105 J-0.218 K0.000 F60.000
G2 X49.796 Y-18.870 Z-5.000 I-0.105 J0.218 K0.000 F60.000
G1 X49.796 Y-18.870 Z-10.000 F60.000
G2 X49.895 Y-18.782 Z-10.000 I0.204 J-0.130 K0.000 F60.000
G2 X50.105 Y-19.218 Z-10.000 I0.105 J-0.218 K0.000 F60.000
G2 X49.796 Y-18.870 Z-10.000 I-0.105 J0.218 K0.000 F60.000
G0 Z3.000
G0 Z3.000
G0 X49.796 Y-18.870
G0 X49.904 Y-24.253
G0 X49.904 Y-24.253 Z2.000
G1 X49.904 Y-24.253 Z-5.000 F60.000
G2 X51.057 Y-33.629 Z-5.000 I0.096 J-4.747 K0.000 F60.000
G2 X48.943 Y-24.371 Z-5.000 I-1.057 J4.629 K0.000 F60.000
G2 X49.904 Y-24.253 Z-5.000 I1.057 J-4.629 K0.000 F60.000
G1 X49.904 Y-24.253 Z-10.000 F60.000
G2 X51.057 Y-33.629 Z-10.000 I0.096 J-4.747 K0.000 F60.000
G2 X48.943 Y-24.371 Z-10.000 I-1.057 J4.629 K0.000 F60.000
G2 X49.904 Y-24.253 Z-10.000 I1.057 J-4.629 K0.000 F60.000
G0 Z3.000
G0 Z3.000
G0 X49.904 Y-24.253
G0 X49.998 Y-38.758
G0 X49.998 Y-38.758 Z2.000
G1 X49.998 Y-38.758 Z-5.000 F60.000
G2 X50.105 Y-39.218 Z-5.000 I0.002 J-0.242 K0.000 F60.000
G2 X49.895 Y-38.782 Z-5.000 I-0.105 J0.218 K0.000 F60.000
G2 X49.998 Y-38.758 Z-5.000 I0.105 J-0.218 K0.000 F60.000
G1 X49.998 Y-38.758 Z-10.000 F60.000
G2 X50.105 Y-39.218 Z-10.000 I0.002 J-0.242 K0.000 F60.000
G2 X49.895 Y-38.782 Z-10.000 I-0.105 J0.218 K0.000 F60.000
G2 X49.998 Y-38.758 Z-10.000 I0.105 J-0.218 K0.000 F60.000
G0 Z3.000
G0 Z3.000
G0 X49.998 Y-38.758
G0 X63.367 Y-46.157
G0 X63.367 Y-46.157 Z2.000
G1 X63.367 Y-46.157 Z-5.000 F60.000
G2 X64.252 Y-45.378 Z-5.000 I1.528 J-0.846 K0.000 F60.000
G2 X65.539 Y-48.625 Z-5.000 I0.642 J-1.624 K0.000 F60.000
G2 X63.367 Y-46.157 Z-5.000 I-0.644 J1.623 K0.000 F60.000
G1 X63.367 Y-46.157 Z-10.000 F60.000
G2 X64.252 Y-45.378 Z-10.000 I1.528 J-0.846 K0.000 F60.000
G2 X65.539 Y-48.625 Z-10.000 I0.642 J-1.624 K0.000 F60.000
G2 X63.367 Y-46.157 Z-10.000 I-0.644 J1.623 K0.000 F60.000
G0 Z3.000
G0 Z3.000
G0 X63.367 Y-46.157
G0 X76.695 Y-32.409
G0 X76.695 Y-32.409 Z2.000
G1 X76.695 Y-32.409 Z-5.000 F60.000
G2 X80.390 Y-24.268 Z-5.000 I3.305 J3.409 K0.000 F60.000
G2 X79.895 Y-33.747 Z-5.000 I-0.390 J-4.732 K0.000 F60.000
G1 X79.355 Y-33.704 Z-5.000 F60.000
G2 X76.695 Y-32.409 Z-5.000 I0.645 J4.704 K0.000 F60.000
G1 X76.695 Y-32.409 Z-10.000 F60.000
G2 X80.390 Y-24.268 Z-10.000 I3.305 J3.409 K0.000 F60.000
G2 X79.895 Y-33.747 Z-10.000 I-0.390 J-4.732 K0.000 F60.000
G1 X79.355 Y-33.704 Z-10.000 F60.000
G2 X76.695 Y-32.409 Z-10.000 I0.645 J4.704 K0.000 F60.000
G0 Z3.000
G0 Z3.000
G0 X76.695 Y-32.409
G0 X93.967 Y-12.322
G0 X93.967 Y-12.322 Z2.000
G1 X93.967 Y-12.322 Z-5.000 F60.000
G2 X95.038 Y-9.253 Z-5.000 I1.138 J1.324 K0.000 F60.000
G2 X95.212 Y-12.741 Z-5.000 I0.068 J-1.745 K0.000 F60.000
G1 X94.935 Y-12.736 Z-5.000 F60.000
G2 X93.967 Y-12.322 Z-5.000 I0.171 J1.738 K0.000 F60.000
G1 X93.967 Y-12.322 Z-10.000 F60.000
G2 X95.038 Y-9.253 Z-10.000 I1.138 J1.324 K0.000 F60.000
G2 X95.212 Y-12.741 Z-10.000 I0.068 J-1.745 K0.000 F60.000
G1 X94.935 Y-12.736 Z-10.000 F60.000
G2 X93.967 Y-12.322 Z-10.000 I0.171 J1.738 K0.000 F60.000
G0 Z3.000
G0 Z3.000
G0 X93.967 Y-12.322
G0 X109.777 Y-18.907
G0 X109.777 Y-18.907 Z2.000
G1 X109.777 Y-18.907 Z-5.000 F60.000
G2 X109.895 Y-18.782 Z-5.000 I0.223 J-0.093 K0.000 F60.000
G2 X110.105 Y-19.218 Z-5.000 I0.105 J-0.218 K0.000 F60.000
G2 X109.777 Y-18.907 Z-5.000 I-0.105 J0.218 K0.000 F60.000
G1 X109.777 Y-18.907 Z-10.000 F60.000
G2 X109.895 Y-18.782 Z-10.000 I0.223 J-0.093 K0.000 F60.000
G2 X110.105 Y-19.218 Z-10.000 I0.105 J-0.218 K0.000 F60.000
G2 X109.777 Y-18.907 Z-10.000 I-0.105 J0.218 K0.000 F60.000
G0 Z3.000
G0 Z3.000
G0 X109.777 Y-18.907
G0 X109.895 Y-24.253
G0 X109.895 Y-24.253 Z2.000
G1 X109.895 Y-24.253 Z-5.000 F60.000
G2 X111.057 Y-33.629 Z-5.000 I0.105 J-4.747 K0.000 F60.000
G2 X108.943 Y-24.371 Z-5.000 I-1.057 J4.629 K0.000 F60.000
G2 X109.895 Y-24.253 Z-5.000 I1.057 J-4.629 K0.000 F60.000
G1 X109.895 Y-24.253 Z-10.000 F60.000
G2 X111.057 Y-33.629 Z-10.000 I0.105 J-4.747 K0.000 F60.000
G2 X108.943 Y-24.371 Z-10.000 I-1.057 J4.629 K0.000 F60.000
G2 X109.895 Y-24.253 Z-10.000 I1.057 J-4.629 K0.000 F60.000
G0 Z3.000
G0 Z3.000
G0 X109.895 Y-24.253
G0 X109.998 Y-38.758
G0 X109.998 Y-38.758 Z2.000
G1 X109.998 Y-38.758 Z-5.000 F60.000
G2 X110.105 Y-39.218 Z-5.000 I0.002 J-0.242 K0.000 F60.000
G2 X109.895 Y-38.782 Z-5.000 I-0.105 J0.218 K0.000 F60.000
G2 X109.998 Y-38.758 Z-5.000 I0.105 J-0.218 K0.000 F60.000
G1 X109.998 Y-38.758 Z-10.000 F60.000
G2 X110.105 Y-39.218 Z-10.000 I0.002 J-0.242 K0.000 F60.000
G2 X109.895 Y-38.782 Z-10.000 I-0.105 J0.218 K0.000 F60.000
G2 X109.998 Y-38.758 Z-10.000 I0.105 J-0.218 K0.000 F60.000
G0 Z3.000
G0 Z3.000
(Finish operation: Profile019)
(Begin operation: Fixture)
(Path: Fixture)
G54
G0 Z3.000
(Finish operation: Fixture)
(Begin operation: Profile020)
(Path: Profile020)
(Profile020)
(Compensated Tool Path. Diameter: 2.5)
G0 Z3.000
G0 X0.000 Y0.000
G0 X7.765 Y1.941
G0 X7.765 Y1.941 Z2.000
G1 X7.765 Y1.941 Z-5.000 F60.000
G2 X7.887 Y2.215 Z-5.000 I0.235 J0.059 K0.000 F60.000
G2 X8.113 Y1.785 Z-5.000 I0.113 J-0.215 K0.000 F60.000
G2 X7.765 Y1.941 Z-5.000 I-0.113 J0.215 K0.000 F60.000
G1 X7.765 Y1.941 Z-10.000 F60.000
G2 X7.887 Y2.215 Z-10.000 I0.235 J0.059 K0.000 F60.000
G2 X8.113 Y1.785 Z-10.000 I0.113 J-0.215 K0.000 F60.000
G2 X7.765 Y1.941 Z-10.000 I-0.113 J0.215 K0.000 F60.000
G0 Z3.000
G0 Z3.000
G0 X7.765 Y1.941
G0 X7.998 Y25.757
G0 X7.998 Y25.757 Z2.000
G1 X7.998 Y25.757 Z-5.000 F60.000
G2 X7.887 Y26.215 Z-5.000 I0.002 J0.243 K0.000 F60.000
G2 X8.113 Y25.785 Z-5.000 I0.113 J-0.215 K0.000 F60.000
G2 X7.998 Y25.757 Z-5.000 I-0.113 J0.215 K0.000 F60.000
G1 X7.998 Y25.757 Z-10.000 F60.000
G2 X7.887 Y26.215 Z-10.000 I0.002 J0.243 K0.000 F60.000
G2 X8.113 Y25.785 Z-10.000 I0.113 J-0.215 K0.000 F60.000
G2 X7.998 Y25.757 Z-10.000 I-0.113 J0.215 K0.000 F60.000
G0 Z3.000
G0 Z3.000
G0 X7.998 Y25.757
G0 X31.757 Y25.998
G0 X31.757 Y25.998 Z2.000
G1 X31.757 Y25.998 Z-5.000 F60.000
G2 X31.887 Y26.215 Z-5.000 I0.243 J0.002 K0.000 F60.000
G2 X32.113 Y25.785 Z-5.000 I0.113 J-0.215 K0.000 F60.000
G2 X31.757 Y25.998 Z-5.000 I-0.113 J0.215 K0.000 F60.000
G1 X31.757 Y25.998 Z-10.000 F60.000
G2 X31.887 Y26.215 Z-10.000 I0.243 J0.002 K0.000 F60.000
G2 X32.113 Y25.785 Z-10.000 I0.113 J-0.215 K0.000 F60.000
G2 X31.757 Y25.998 Z-10.000 I-0.113 J0.215 K0.000 F60.000
G0 Z3.000
G0 Z3.000
G0 X31.757 Y25.998
G0 X31.998 Y2.243
G0 X31.998 Y2.243 Z2.000
G1 X31.998 Y2.243 Z-5.000 F60.000
G2 X32.113 Y1.785 Z-5.000 I0.002 J-0.243 K0.000 F60.000
G2 X31.887 Y2.215 Z-5.000 I-0.113 J0.215 K0.000 F60.000
G2 X31.998 Y2.243 Z-5.000 I0.113 J-0.215 K0.000 F60.000
G1 X31.998 Y2.243 Z-10.000 F60.000
G2 X32.113 Y1.785 Z-10.000 I0.002 J-0.243 K0.000 F60.000
G2 X31.887 Y2.215 Z-10.000 I-0.113 J0.215 K0.000 F60.000
G2 X31.998 Y2.243 Z-10.000 I0.113 J-0.215 K0.000 F60.000
G0 Z3.000
G0 Z3.000
(Finish operation: Profile020)
(Begin operation: Fixture)
(Path: Fixture)
G54
G0 Z3.000
(Finish operation: Fixture)
(Begin operation: Profile021)
(Path: Profile021)
(Profile021)
(Compensated Tool Path. Diameter: 2.5)
G0 Z3.000
G0 X0.000 Y0.000
G0 X12.338 Y-10.352
G0 X12.338 Y-10.352 Z2.000
G1 X12.338 Y-10.352 Z-10.000 F60.000
G1 X17.868 Y-3.761 Z-10.000 F60.000
G1 X18.251 Y-4.082 Z-10.000 F60.000
G1 X7.003 Y-17.488 Z-10.000 F60.000
G3 X6.620 Y-17.167 Z-10.000 I-81982.640 J-97702.316 K0.000 F60.000
G1 X12.338 Y-10.352 Z-10.000 F60.000
G0 Z3.000
G0 X19.250 Y-19.750 Z3.000
G0 X19.250 Y-19.750 Z2.000
G1 X19.250 Y-19.750 Z-10.000 F60.000
G1 X36.750 Y-19.750 Z-10.000 F60.000
G1 X36.750 Y-20.250 Z-10.000 F60.000
G1 X19.250 Y-20.250 Z-10.000 F60.000
G1 X19.250 Y-19.750 Z-10.000 F60.000
G0 Z3.000
G0 X55.928 Y-9.923 Z3.000
G0 X55.928 Y-9.923 Z2.000
G1 X55.928 Y-9.923 Z-10.000 F60.000
G1 X52.205 Y3.970 Z-10.000 F60.000
G2 X52.688 Y4.100 Z-10.000 I5.019 J-17.766 K0.000 F60.000
G1 X57.224 Y-12.831 Z-10.000 F60.000
G2 X56.741 Y-12.960 Z-10.000 I-10.346 J37.647 K0.000 F60.000
G1 X55.928 Y-9.923 Z-10.000 F60.000
G0 Z3.000
G0 X51.200 Y16.887 Z3.000
G0 X51.200 Y16.887 Z2.000
G1 X51.200 Y16.887 Z-10.000 F60.000
G1 X37.369 Y14.448 Z-10.000 F60.000
G3 X37.282 Y14.940 Z-10.000 I-122055.545 J-21521.365 K0.000 F60.000
G1 X54.517 Y17.979 Z-10.000 F60.000
G1 X54.603 Y17.487 Z-10.000 F60.000
G1 X51.200 Y16.887 Z-10.000 F60.000
G0 Z3.000
G0 X92.781 Y14.814 Z3.000
G0 X92.781 Y14.814 Z2.000
G1 X92.781 Y14.814 Z-10.000 F60.000
G3 X93.264 Y14.944 Z-10.000 I-10.263 J39.268 K0.000 F60.000
G1 X97.793 Y-1.961 Z-10.000 F60.000
G2 X97.310 Y-2.090 Z-10.000 I-10.150 J36.916 K0.000 F60.000
G1 X92.781 Y14.814 Z-10.000 F60.000
G0 Z3.000
G0 X36.750 Y-61.750 Z3.000
G0 X36.750 Y-61.750 Z2.000
G1 X36.750 Y-61.750 Z-10.000 F60.000
G1 X36.750 Y-62.250 Z-10.000 F60.000
G1 X19.250 Y-62.250 Z-10.000 F60.000
G1 X19.250 Y-61.750 Z-10.000 F60.000
G1 X36.750 Y-61.750 Z-10.000 F60.000
G0 Z3.000
G0 Z3.000
(Finish operation: Profile021)
(Begin operation: Fixture)
(Path: Fixture)
G54
G0 Z3.000
(Finish operation: Fixture)
(Begin operation: Profile022)
(Path: Profile022)
(Profile022)
(Compensated Tool Path. Diameter: 2.5)
G0 Z3.000
G0 X0.000 Y0.000
G0 X-1.250
G0 X-1.250 Z2.000
G1 X-1.250 Y0.000 Z-5.000 F60.000
G1 X-1.250 Y31.000 Z-5.000 F60.000
G2 X-0.000 Y32.250 Z-5.000 I1.250 J0.000 K0.000 F60.000
G1 X90.000 Y32.250 Z-5.000 F60.000
G2 X90.884 Y31.884 Z-5.000 I-0.000 J-1.250 K0.000 F60.000
G1 X120.884 Y1.884 Z-5.000 F60.000
G2 X121.250 Y1.000 Z-5.000 I-0.884 J-0.884 K0.000 F60.000
G1 X121.250 Y-39.000 Z-5.000 F60.000
G2 X120.884 Y-39.884 Z-5.000 I-1.250 J0.000 K0.000 F60.000
G1 X90.884 Y-69.884 Z-5.000 F60.000
G2 X90.000 Y-70.250 Z-5.000 I-0.884 J0.884 K0.000 F60.000
G1 X-0.000 Y-70.250 Z-5.000 F60.000
G2 X-1.250 Y-69.000 Z-5.000 I-0.000 J1.250 K0.000 F60.000
G1 X-1.250 Y0.000 Z-5.000 F60.000
G1 X-1.250 Y0.000 Z-10.000 F60.000
G1 X-1.250 Y31.000 Z-10.000 F60.000
G2 X-0.000 Y32.250 Z-10.000 I1.250 J0.000 K0.000 F60.000
G1 X90.000 Y32.250 Z-10.000 F60.000
G2 X90.884 Y31.884 Z-10.000 I-0.000 J-1.250 K0.000 F60.000
G1 X120.884 Y1.884 Z-10.000 F60.000
G2 X121.250 Y1.000 Z-10.000 I-0.884 J-0.884 K0.000 F60.000
G1 X121.250 Y-39.000 Z-10.000 F60.000
G2 X120.884 Y-39.884 Z-10.000 I-1.250 J0.000 K0.000 F60.000
G1 X90.884 Y-69.884 Z-10.000 F60.000
G2 X90.000 Y-70.250 Z-10.000 I-0.884 J0.884 K0.000 F60.000
G1 X-0.000 Y-70.250 Z-10.000 F60.000
G2 X-1.250 Y-69.000 Z-10.000 I-0.000 J1.250 K0.000 F60.000
G1 X-1.250 Y0.000 Z-10.000 F60.000
G0 Z3.000
G0 Z3.000
(Finish operation: Profile022)
(Begin postamble)
M5
G17 G90
M2
