(Exported by FreeCAD)
(Post Processor: grbl_post)
(Output Time:2021-11-18 04:38:07.818805)
(Begin preamble)
G17 G90
G21
(Begin operation: Fixture)
(Path: Fixture)
G54
(Finish operation: Fixture)
(Begin operation: 2.5mm_Endmill003)
(Path: 2.5mm_Endmill003)
(2.5mm_Endmill003)
(Begin toolchange)
( M6 T1.0 )
M3 S100.0
(Finish operation: 2.5mm_Endmill003)
(Begin operation: holes)
(Path: holes)
(holes)
(Compensated Tool Path. Diameter: 2.5)
G0 Z3.000
G0 X29.015 Y-6.985
G0 Z2.000
G1 X29.015 Y-6.985 Z-5.000 F30.000
G2 X21.900 Y-28.607 Z-5.000 I-9.015 J-9.015 K0.000 F30.000
G2 X18.100 Y-3.393 Z-5.000 I-1.900 J12.607 K0.000 F30.000
G2 X29.015 Y-6.985 Z-5.000 I1.900 J-12.607 K0.000 F30.000
G1 X29.015 Y-6.985 Z-10.000 F30.000
G2 X21.900 Y-28.607 Z-10.000 I-9.015 J-9.015 K0.000 F30.000
G2 X18.100 Y-3.393 Z-10.000 I-1.900 J12.607 K0.000 F30.000
G2 X29.015 Y-6.985 Z-10.000 I1.900 J-12.607 K0.000 F30.000
G0 Z3.000
G0 Z3.000
G0 X29.015 Y-6.985
G0 X49.790 Y-18.880
G0 X49.790 Y-18.880 Z2.000
G1 X49.790 Y-18.880 Z-5.000 F30.000
G2 X49.895 Y-18.782 Z-5.000 I0.210 J-0.120 K0.000 F30.000
G2 X50.105 Y-19.218 Z-5.000 I0.105 J-0.218 K0.000 F30.000
G2 X49.790 Y-18.880 Z-5.000 I-0.105 J0.218 K0.000 F30.000
G1 X49.790 Y-18.880 Z-10.000 F30.000
G2 X49.895 Y-18.782 Z-10.000 I0.210 J-0.120 K0.000 F30.000
G2 X50.105 Y-19.218 Z-10.000 I0.105 J-0.218 K0.000 F30.000
G2 X49.790 Y-18.880 Z-10.000 I-0.105 J0.218 K0.000 F30.000
G0 Z3.000
G0 Z3.000
G0 X49.790 Y-18.880
G0 X49.901 Y-24.253
G0 X49.901 Y-24.253 Z2.000
G1 X49.901 Y-24.253 Z-5.000 F30.000
G2 X51.057 Y-33.629 Z-5.000 I0.099 J-4.747 K0.000 F30.000
G2 X48.943 Y-24.371 Z-5.000 I-1.057 J4.629 K0.000 F30.000
G2 X49.901 Y-24.253 Z-5.000 I1.057 J-4.629 K0.000 F30.000
G1 X49.901 Y-24.253 Z-10.000 F30.000
G2 X51.057 Y-33.629 Z-10.000 I0.099 J-4.747 K0.000 F30.000
G2 X48.943 Y-24.371 Z-10.000 I-1.057 J4.629 K0.000 F30.000
G2 X49.901 Y-24.253 Z-10.000 I1.057 J-4.629 K0.000 F30.000
G0 Z3.000
G0 Z3.000
G0 X49.901 Y-24.253
G0 X49.998 Y-38.758
G0 X49.998 Y-38.758 Z2.000
G1 X49.998 Y-38.758 Z-5.000 F30.000
G2 X50.218 Y-38.895 Z-5.000 I0.002 J-0.242 K0.000 F30.000
G2 X50.105 Y-39.218 Z-5.000 I-0.218 J-0.105 K0.000 F30.000
G2 X49.782 Y-39.105 Z-5.000 I-0.105 J0.218 K0.000 F30.000
G2 X49.998 Y-38.758 Z-5.000 I0.218 J0.105 K0.000 F30.000
G1 X49.998 Y-38.758 Z-10.000 F30.000
G2 X50.218 Y-38.895 Z-10.000 I0.002 J-0.242 K0.000 F30.000
G2 X50.105 Y-39.218 Z-10.000 I-0.218 J-0.105 K0.000 F30.000
G2 X49.782 Y-39.105 Z-10.000 I-0.105 J0.218 K0.000 F30.000
G2 X49.998 Y-38.758 Z-10.000 I0.218 J0.105 K0.000 F30.000
G0 Z3.000
G0 Z3.000
G0 X49.998 Y-38.758
G0 X65.657 Y-11.267
G0 X65.657 Y-11.267 Z2.000
G1 X65.657 Y-11.267 Z-5.000 F30.000
G2 X66.614 Y-8.006 Z-5.000 I0.864 J1.517 K0.000 F30.000
G2 X66.466 Y-11.495 Z-5.000 I-0.093 J-1.744 K0.000 F30.000
G1 X66.191 Y-11.464 Z-5.000 F30.000
G2 X65.657 Y-11.267 Z-5.000 I0.330 J1.715 K0.000 F30.000
G1 X65.657 Y-11.267 Z-10.000 F30.000
G2 X66.614 Y-8.006 Z-10.000 I0.864 J1.517 K0.000 F30.000
G2 X66.466 Y-11.495 Z-10.000 I-0.093 J-1.744 K0.000 F30.000
G1 X66.191 Y-11.464 Z-10.000 F30.000
G2 X65.657 Y-11.267 Z-10.000 I0.330 J1.715 K0.000 F30.000
G0 Z3.000
G0 Z3.000
G0 X65.657 Y-11.267
G0 X77.014 Y-25.308
G0 X77.014 Y-25.308 Z2.000
G1 X77.014 Y-25.308 Z-5.000 F30.000
G2 X80.191 Y-24.256 Z-5.000 I2.986 J-3.692 K0.000 F30.000
G2 X80.105 Y-33.747 Z-5.000 I-0.191 J-4.744 K0.000 F30.000
G1 X79.563 Y-33.728 Z-5.000 F30.000
G2 X77.014 Y-25.308 Z-5.000 I0.437 J4.728 K0.000 F30.000
G1 X77.014 Y-25.308 Z-10.000 F30.000
G2 X80.191 Y-24.256 Z-10.000 I2.986 J-3.692 K0.000 F30.000
G2 X80.105 Y-33.747 Z-10.000 I-0.191 J-4.744 K0.000 F30.000
G1 X79.563 Y-33.728 Z-10.000 F30.000
G2 X77.014 Y-25.308 Z-10.000 I0.437 J4.728 K0.000 F30.000
G0 Z3.000
G0 Z3.000
G0 X77.014 Y-25.308
G0 X92.461 Y-46.831
G0 X92.461 Y-46.831 Z2.000
G1 X92.461 Y-46.831 Z-5.000 F30.000
G2 X93.572 Y-46.506 Z-5.000 I1.018 J-1.419 K0.000 F30.000
G2 X93.424 Y-49.995 Z-5.000 I-0.093 J-1.744 K0.000 F30.000
G1 X93.149 Y-49.965 Z-5.000 F30.000
G2 X92.461 Y-46.831 Z-5.000 I0.330 J1.715 K0.000 F30.000
G1 X92.461 Y-46.831 Z-10.000 F30.000
G2 X93.572 Y-46.506 Z-10.000 I1.018 J-1.419 K0.000 F30.000
G2 X93.424 Y-49.995 Z-10.000 I-0.093 J-1.744 K0.000 F30.000
G1 X93.149 Y-49.965 Z-10.000 F30.000
G2 X92.461 Y-46.831 Z-10.000 I0.330 J1.715 K0.000 F30.000
G0 Z3.000
G0 Z3.000
G0 X92.461 Y-46.831
G0 X109.779 Y-39.099
G0 X109.779 Y-39.099 Z2.000
G1 X109.779 Y-39.099 Z-5.000 F30.000
G2 X109.895 Y-38.782 Z-5.000 I0.221 J0.099 K0.000 F30.000
G2 X110.105 Y-39.218 Z-5.000 I0.105 J-0.218 K0.000 F30.000
G2 X109.779 Y-39.099 Z-5.000 I-0.105 J0.218 K0.000 F30.000
G1 X109.779 Y-39.099 Z-10.000 F30.000
G2 X109.895 Y-38.782 Z-10.000 I0.221 J0.099 K0.000 F30.000
G2 X110.105 Y-39.218 Z-10.000 I0.105 J-0.218 K0.000 F30.000
G2 X109.779 Y-39.099 Z-10.000 I-0.105 J0.218 K0.000 F30.000
G0 Z3.000
G0 Z3.000
G0 X109.779 Y-39.099
G0 X109.896 Y-33.747
G0 X109.896 Y-33.747 Z2.000
G1 X109.896 Y-33.747 Z-5.000 F30.000
G2 X108.943 Y-24.371 Z-5.000 I0.104 J4.747 K0.000 F30.000
G2 X114.629 Y-27.943 Z-5.000 I1.057 J-4.629 K0.000 F30.000
G2 X111.057 Y-33.629 Z-5.000 I-4.629 J-1.057 K0.000 F30.000
G2 X109.896 Y-33.747 Z-5.000 I-1.057 J4.629 K0.000 F30.000
G1 X109.896 Y-33.747 Z-10.000 F30.000
G2 X108.943 Y-24.371 Z-10.000 I0.104 J4.747 K0.000 F30.000
G2 X114.629 Y-27.943 Z-10.000 I1.057 J-4.629 K0.000 F30.000
G2 X111.057 Y-33.629 Z-10.000 I-4.629 J-1.057 K0.000 F30.000
G2 X109.896 Y-33.747 Z-10.000 I-1.057 J4.629 K0.000 F30.000
G0 Z3.000
G0 Z3.000
G0 X109.896 Y-33.747
G0 X109.998 Y-19.242
G0 X109.998 Y-19.242 Z2.000
G1 X109.998 Y-19.242 Z-5.000 F30.000
G2 X109.895 Y-18.782 Z-5.000 I0.002 J0.242 K0.000 F30.000
G2 X110.105 Y-19.218 Z-5.000 I0.105 J-0.218 K0.000 F30.000
G2 X109.998 Y-19.242 Z-5.000 I-0.105 J0.218 K0.000 F30.000
G1 X109.998 Y-19.242 Z-10.000 F30.000
G2 X109.895 Y-18.782 Z-10.000 I0.002 J0.242 K0.000 F30.000
G2 X110.105 Y-19.218 Z-10.000 I0.105 J-0.218 K0.000 F30.000
G2 X109.998 Y-19.242 Z-10.000 I-0.105 J0.218 K0.000 F30.000
G0 Z3.000
G0 Z3.000
(Finish operation: holes)
(Begin operation: Fixture)
(Path: Fixture)
G54
G0 Z3.000
(Finish operation: Fixture)
(Begin operation: hotend h)
(Path: hotend h)
(hotend h)
(Compensated Tool Path. Diameter: 2.5)
G0 Z3.000
G0 X8.350 Y-3.650
G0 Z2.000
G1 X8.350 Y-3.650 Z-5.000 F30.000
G2 X8.230 Y-4.438 Z-5.000 I-0.350 J-0.350 K0.000 F30.000
G2 X7.562 Y-4.230 Z-5.000 I-0.230 J0.438 K0.000 F30.000
G2 X7.770 Y-3.562 Z-5.000 I0.438 J0.230 K0.000 F30.000
G2 X8.350 Y-3.650 Z-5.000 I0.230 J-0.438 K0.000 F30.000
G1 X8.350 Y-3.650 Z-10.000 F30.000
G2 X8.230 Y-4.438 Z-10.000 I-0.350 J-0.350 K0.000 F30.000
G2 X7.562 Y-4.230 Z-10.000 I-0.230 J0.438 K0.000 F30.000
G2 X7.770 Y-3.562 Z-10.000 I0.438 J0.230 K0.000 F30.000
G2 X8.350 Y-3.650 Z-10.000 I0.230 J-0.438 K0.000 F30.000
G0 Z3.000
G0 Z3.000
G0 X8.350 Y-3.650
G0 X8.007 Y-27.505
G0 X8.007 Y-27.505 Z2.000
G1 X8.007 Y-27.505 Z-5.000 F30.000
G2 X8.168 Y-28.466 Z-5.000 I-0.007 J-0.495 K0.000 F30.000
G2 X7.832 Y-27.534 Z-5.000 I-0.168 J0.466 K0.000 F30.000
G2 X8.007 Y-27.505 Z-5.000 I0.168 J-0.466 K0.000 F30.000
G1 X8.007 Y-27.505 Z-10.000 F30.000
G2 X8.168 Y-28.466 Z-10.000 I-0.007 J-0.495 K0.000 F30.000
G2 X7.832 Y-27.534 Z-10.000 I-0.168 J0.466 K0.000 F30.000
G2 X8.007 Y-27.505 Z-10.000 I0.168 J-0.466 K0.000 F30.000
G0 Z3.000
G0 Z3.000
G0 X8.007 Y-27.505
G0 X31.505 Y-27.990
G0 X31.505 Y-27.990 Z2.000
G1 X31.505 Y-27.990 Z-5.000 F30.000
G2 X31.832 Y-27.534 Z-5.000 I0.495 J-0.010 K0.000 F30.000
G2 X32.168 Y-28.466 Z-5.000 I0.168 J-0.466 K0.000 F30.000
G2 X31.505 Y-27.990 Z-5.000 I-0.168 J0.466 K0.000 F30.000
G1 X31.505 Y-27.990 Z-10.000 F30.000
G2 X31.832 Y-27.534 Z-10.000 I0.495 J-0.010 K0.000 F30.000
G2 X32.168 Y-28.466 Z-10.000 I0.168 J-0.466 K0.000 F30.000
G2 X31.505 Y-27.990 Z-10.000 I-0.168 J0.466 K0.000 F30.000
G0 Z3.000
G0 Z3.000
G0 X31.505 Y-27.990
G0 X31.990 Y-4.494
G0 X31.990 Y-4.494 Z2.000
G1 X31.990 Y-4.494 Z-5.000 F30.000
G2 X31.770 Y-3.562 Z-5.000 I0.010 J0.494 K0.000 F30.000
G2 X32.438 Y-3.770 Z-5.000 I0.230 J-0.438 K0.000 F30.000
G2 X32.230 Y-4.438 Z-5.000 I-0.438 J-0.230 K0.000 F30.000
G2 X31.990 Y-4.494 Z-5.000 I-0.230 J0.438 K0.000 F30.000
G1 X31.990 Y-4.494 Z-10.000 F30.000
G2 X31.770 Y-3.562 Z-10.000 I0.010 J0.494 K0.000 F30.000
G2 X32.438 Y-3.770 Z-10.000 I0.230 J-0.438 K0.000 F30.000
G2 X32.230 Y-4.438 Z-10.000 I-0.438 J-0.230 K0.000 F30.000
G2 X31.990 Y-4.494 Z-10.000 I-0.230 J0.438 K0.000 F30.000
G0 Z3.000
G0 Z3.000
(Finish operation: hotend h)
(Begin operation: Fixture)
(Path: Fixture)
G54
G0 Z3.000
(Finish operation: Fixture)
(Begin operation: slots)
(Path: slots)
(slots)
(Compensated Tool Path. Diameter: 2.5)
G0 Z3.000
G0 X54.603 Y-7.830
G0 Z2.000
G1 X54.603 Y-7.830 Z-4.500 F30.000
G1 X37.369 Y-10.869 Z-4.500 F30.000
G1 X37.282 Y-10.376 Z-4.500 F30.000
G1 X54.517 Y-7.337 Z-4.500 F30.000
G1 X54.603 Y-7.830 Z-4.500 F30.000
G0 Z3.000
G0 X60.258 Y-40.297 Z3.000
G0 X60.258 Y-40.297 Z2.000
G1 X60.258 Y-40.297 Z-4.500 F30.000
G1 X60.691 Y-40.547 Z-4.500 F30.000
G3 X51.941 Y-55.703 Z-4.500 I7956593.425 J-4593800.301 K0.000 F30.000
G1 X51.508 Y-55.453 Z-4.500 F30.000
G1 X60.258 Y-40.297 Z-4.500 F30.000
G0 Z3.000
G0 X38.750 Y-49.080 Z3.000
G0 X38.750 Y-49.080 Z2.000
G1 X38.750 Y-49.080 Z-4.500 F30.000
G1 X38.750 Y-49.580 Z-4.500 F30.000
G1 X21.250 Y-49.580 Z-4.500 F30.000
G1 X21.250 Y-49.080 Z-4.500 F30.000
G3 X38.750 Y-49.080 Z-4.500 I-24.387 J8225589.342 K0.000 F30.000
G0 Z3.000
G0 X18.252 Y-33.615 Z3.000
G0 X18.252 Y-33.615 Z2.000
G1 X18.252 Y-33.615 Z-4.500 F30.000
G1 X7.003 Y-47.020 Z-4.500 F30.000
G1 X6.620 Y-46.699 Z-4.500 F30.000
G1 X17.868 Y-33.293 Z-4.500 F30.000
G1 X18.252 Y-33.615 Z-4.500 F30.000
G0 Z3.000
G0 X21.250 Y-91.080 Z3.000
G0 X21.250 Y-91.080 Z2.000
G1 X21.250 Y-91.080 Z-4.500 F30.000
G1 X38.750 Y-91.080 Z-4.500 F30.000
G1 X38.750 Y-91.580 Z-4.500 F30.000
G1 X21.250 Y-91.580 Z-4.500 F30.000
G1 X21.250 Y-91.080 Z-4.500 F30.000
G0 Z3.000
G0 X87.881 Y-76.453 Z3.000
G0 X87.881 Y-76.453 Z2.000
G1 X87.881 Y-76.453 Z-4.500 F30.000
G1 X96.631 Y-61.297 Z-4.500 F30.000
G1 X97.064 Y-61.547 Z-4.500 F30.000
G1 X88.314 Y-76.703 Z-4.500 F30.000
G1 X87.881 Y-76.453 Z-4.500 F30.000
G1 X87.881 Y-76.453 Z-10.000 F30.000
G1 X96.631 Y-61.297 Z-10.000 F30.000
G1 X97.064 Y-61.547 Z-10.000 F30.000
G1 X88.314 Y-76.703 Z-10.000 F30.000
G1 X87.881 Y-76.453 Z-10.000 F30.000
G0 Z3.000
G0 X51.941 Y-55.703 Z3.000
G0 X51.941 Y-55.703 Z2.000
G1 X51.941 Y-55.703 Z-10.000 F30.000
G1 X51.508 Y-55.453 Z-10.000 F30.000
G1 X60.258 Y-40.297 Z-10.000 F30.000
G1 X60.691 Y-40.547 Z-10.000 F30.000
G3 X51.941 Y-55.703 Z-10.000 I7956593.425 J-4593800.301 K0.000 F30.000
G0 Z3.000
G0 X38.750 Y-49.580 Z3.000
G0 X38.750 Y-49.580 Z2.000
G1 X38.750 Y-49.580 Z-10.000 F30.000
G1 X21.250 Y-49.580 Z-10.000 F30.000
G1 X21.250 Y-49.080 Z-10.000 F30.000
G3 X38.750 Y-49.080 Z-10.000 I-24.387 J8225589.342 K0.000 F30.000
G1 X38.750 Y-49.580 Z-10.000 F30.000
G0 Z3.000
G0 X18.252 Y-33.615 Z3.000
G0 X18.252 Y-33.615 Z2.000
G1 X18.252 Y-33.615 Z-10.000 F30.000
G1 X7.003 Y-47.020 Z-10.000 F30.000
G1 X6.620 Y-46.699 Z-10.000 F30.000
G1 X17.868 Y-33.293 Z-10.000 F30.000
G1 X18.252 Y-33.615 Z-10.000 F30.000
G0 Z3.000
G0 X37.369 Y-10.869 Z3.000
G0 X37.369 Y-10.869 Z2.000
G1 X37.369 Y-10.869 Z-10.000 F30.000
G1 X37.282 Y-10.376 Z-10.000 F30.000
G1 X54.517 Y-7.337 Z-10.000 F30.000
G1 X54.603 Y-7.830 Z-10.000 F30.000
G1 X37.369 Y-10.869 Z-10.000 F30.000
G0 Z3.000
G0 X37.370 Y-91.080 Z3.000
G0 X37.370 Y-91.080 Z2.000
G1 X37.370 Y-91.080 Z-10.000 F30.000
G1 X38.750 Y-91.080 Z-10.000 F30.000
G1 X38.750 Y-91.580 Z-10.000 F30.000
G1 X21.250 Y-91.580 Z-10.000 F30.000
G1 X21.250 Y-91.080 Z-10.000 F30.000
G1 X37.370 Y-91.080 Z-10.000 F30.000
G0 Z3.000
G0 Z3.000
(Finish operation: slots)
(Begin operation: Fixture)
(Path: Fixture)
G54
G0 Z3.000
(Finish operation: Fixture)
(Begin operation: outline)
(Path: outline)
(outline)
(Compensated Tool Path. Diameter: 2.5)
G0 Z3.000
G0 X110.884 Y-8.116
G0 Z2.000
G1 X110.884 Y-8.116 Z-5.000 F30.000
G1 X120.884 Y-18.116 Z-5.000 F30.000
G2 X121.250 Y-19.000 Z-5.000 I-0.884 J-0.884 K0.000 F30.000
G1 X121.250 Y-59.000 Z-5.000 F30.000
G2 X120.884 Y-59.884 Z-5.000 I-1.250 J0.000 K0.000 F30.000
G1 X80.884 Y-99.884 Z-5.000 F30.000
G2 X80.000 Y-100.250 Z-5.000 I-0.884 J0.884 K0.000 F30.000
G1 X0.000 Y-100.250 Z-5.000 F30.000
G2 X-1.250 Y-99.000 Z-5.000 I-0.000 J1.250 K0.000 F30.000
G1 X-1.250 Y1.000 Z-5.000 F30.000
G2 X0.000 Y2.250 Z-5.000 I1.250 J0.000 K0.000 F30.000
G1 X100.000 Y2.250 Z-5.000 F30.000
G2 X100.884 Y1.884 Z-5.000 I-0.000 J-1.250 K0.000 F30.000
G1 X110.884 Y-8.116 Z-5.000 F30.000
G1 X110.884 Y-8.116 Z-10.000 F30.000
G1 X120.884 Y-18.116 Z-10.000 F30.000
G2 X121.250 Y-19.000 Z-10.000 I-0.884 J-0.884 K0.000 F30.000
G1 X121.250 Y-59.000 Z-10.000 F30.000
G2 X120.884 Y-59.884 Z-10.000 I-1.250 J0.000 K0.000 F30.000
G1 X80.884 Y-99.884 Z-10.000 F30.000
G2 X80.000 Y-100.250 Z-10.000 I-0.884 J0.884 K0.000 F30.000
G1 X0.000 Y-100.250 Z-10.000 F30.000
G2 X-1.250 Y-99.000 Z-10.000 I-0.000 J1.250 K0.000 F30.000
G1 X-1.250 Y1.000 Z-10.000 F30.000
G2 X0.000 Y2.250 Z-10.000 I1.250 J0.000 K0.000 F30.000
G1 X100.000 Y2.250 Z-10.000 F30.000
G2 X100.884 Y1.884 Z-10.000 I-0.000 J-1.250 K0.000 F30.000
G1 X110.884 Y-8.116 Z-10.000 F30.000
G0 Z3.000
G0 Z3.000
(Finish operation: outline)
(Begin postamble)
M5
G17 G90
M2
