(Exported by FreeCAD)
(Post Processor: grbl_post)
(Output Time:2021-12-04 13:30:43.072208)
(Begin preamble)
G17 G90
G21
(Begin operation: Fixture)
(Path: Fixture)
G54
(Finish operation: Fixture)
(Begin operation: 2.5mm_Endmill004)
(Path: 2.5mm_Endmill004)
(2.5mm_Endmill004)
(Begin toolchange)
( M6 T1.0 )
M3 S100.0
(Finish operation: 2.5mm_Endmill004)
(Begin operation: Profile005)
(Path: Profile005)
(Profile005)
(Compensated Tool Path. Diameter: 2.5)
G0 Z3.000
G0 X0.000 Y0.000
G0 X5.814 Y-4.845
G0 X5.814 Y-4.845 Z2.000
G1 X5.814 Y-4.845 Z-5.000 F30.000
G2 X5.895 Y-4.782 Z-5.000 I0.186 J-0.155 K0.000 F30.000
G2 X6.105 Y-5.218 Z-5.000 I0.105 J-0.218 K0.000 F30.000
G2 X5.814 Y-4.845 Z-5.000 I-0.105 J0.218 K0.000 F30.000
G1 X5.814 Y-4.845 Z-10.000 F30.000
G2 X5.895 Y-4.782 Z-10.000 I0.186 J-0.155 K0.000 F30.000
G2 X6.105 Y-5.218 Z-10.000 I0.105 J-0.218 K0.000 F30.000
G2 X5.814 Y-4.845 Z-10.000 I-0.105 J0.218 K0.000 F30.000
G0 Z3.000
G0 Z3.000
G0 X5.814 Y-4.845
G0 X5.999 Y-34.758
G0 X5.999 Y-34.758 Z2.000
G1 X5.999 Y-34.758 Z-5.000 F30.000
G2 X6.105 Y-35.218 Z-5.000 I0.001 J-0.242 K0.000 F30.000
G2 X5.895 Y-34.782 Z-5.000 I-0.105 J0.218 K0.000 F30.000
G2 X5.999 Y-34.758 Z-5.000 I0.105 J-0.218 K0.000 F30.000
G1 X5.999 Y-34.758 Z-10.000 F30.000
G2 X6.105 Y-35.218 Z-10.000 I0.001 J-0.242 K0.000 F30.000
G2 X5.895 Y-34.782 Z-10.000 I-0.105 J0.218 K0.000 F30.000
G2 X5.999 Y-34.758 Z-10.000 I0.105 J-0.218 K0.000 F30.000
G0 Z3.000
G0 Z3.000
G0 X5.999 Y-34.758
G0 X35.758 Y-34.998
G0 X35.758 Y-34.998 Z2.000
G1 X35.758 Y-34.998 Z-5.000 F30.000
G2 X35.895 Y-34.782 Z-5.000 I0.242 J-0.002 K0.000 F30.000
G2 X36.218 Y-34.895 Z-5.000 I0.105 J-0.218 K0.000 F30.000
G2 X36.105 Y-35.218 Z-5.000 I-0.218 J-0.105 K0.000 F30.000
G2 X35.758 Y-34.998 Z-5.000 I-0.105 J0.218 K0.000 F30.000
G1 X35.758 Y-34.998 Z-10.000 F30.000
G2 X35.895 Y-34.782 Z-10.000 I0.242 J-0.002 K0.000 F30.000
G2 X36.218 Y-34.895 Z-10.000 I0.105 J-0.218 K0.000 F30.000
G2 X36.105 Y-35.218 Z-10.000 I-0.218 J-0.105 K0.000 F30.000
G2 X35.758 Y-34.998 Z-10.000 I-0.105 J0.218 K0.000 F30.000
G0 Z3.000
G0 Z3.000
G0 X35.758 Y-34.998
G0 X35.998 Y-5.242
G0 X35.998 Y-5.242 Z2.000
G1 X35.998 Y-5.242 Z-5.000 F30.000
G2 X35.895 Y-4.782 Z-5.000 I0.002 J0.242 K0.000 F30.000
G2 X36.105 Y-5.218 Z-5.000 I0.105 J-0.218 K0.000 F30.000
G2 X35.998 Y-5.242 Z-5.000 I-0.105 J0.218 K0.000 F30.000
G1 X35.998 Y-5.242 Z-10.000 F30.000
G2 X35.895 Y-4.782 Z-10.000 I0.002 J0.242 K0.000 F30.000
G2 X36.105 Y-5.218 Z-10.000 I0.105 J-0.218 K0.000 F30.000
G2 X35.998 Y-5.242 Z-10.000 I-0.105 J0.218 K0.000 F30.000
G0 Z3.000
G0 Z3.000
(Finish operation: Profile005)
(Begin operation: Fixture)
(Path: Fixture)
G54
G0 Z3.000
(Finish operation: Fixture)
(Begin operation: Profile006)
(Path: Profile006)
(Profile006)
(Compensated Tool Path. Diameter: 2.5)
G0 Z3.000
G0 X0.000 Y0.000
G0 X11.768 Y-11.207
G0 X11.768 Y-11.207 Z2.000
G1 X11.768 Y-11.207 Z-5.000 F30.000
G2 X19.100 Y-7.393 Z-5.000 I9.232 J-8.793 K0.000 F30.000
G2 X22.900 Y-32.607 Z-5.000 I1.900 J-12.607 K0.000 F30.000
G2 X11.768 Y-11.207 Z-5.000 I-1.900 J12.607 K0.000 F30.000
G0 Z3.000
G0 Z3.000
(Finish operation: Profile006)
(Begin operation: Fixture)
(Path: Fixture)
G54
G0 Z3.000
(Finish operation: Fixture)
(Begin operation: Profile009)
(Path: Profile009)
(Profile009)
(Compensated Tool Path. Diameter: 2.5)
G0 Z3.000
G0 X0.000 Y0.000
G0 X13.217 Y-12.588
G0 X13.217 Y-12.588 Z2.000
G1 X13.217 Y-12.588 Z-5.000 F30.000
G2 X19.812 Y-9.318 Z-5.000 I7.783 J-7.412 K0.000 F30.000
G2 X22.188 Y-30.682 Z-5.000 I1.188 J-10.682 K0.000 F30.000
G2 X13.217 Y-12.588 Z-5.000 I-1.188 J10.682 K0.000 F30.000
G1 X13.217 Y-12.588 Z-10.000 F30.000
G2 X19.812 Y-9.318 Z-10.000 I7.783 J-7.412 K0.000 F30.000
G2 X22.188 Y-30.682 Z-10.000 I1.188 J-10.682 K0.000 F30.000
G2 X13.217 Y-12.588 Z-10.000 I-1.188 J10.682 K0.000 F30.000
G0 Z3.000
G0 Z3.000
(Finish operation: Profile009)
(Begin operation: Fixture)
(Path: Fixture)
G54
G0 Z3.000
(Finish operation: Fixture)
(Begin operation: Profile008)
(Path: Profile008)
(Profile008)
(Compensated Tool Path. Diameter: 2.5)
G0 Z3.000
G0 X0.000 Y0.000
G0 X-0.250
G0 X-0.250 Z2.000
G1 X-0.250 Y0.000 Z-5.000 F30.000
G2 X1.000 Y1.250 Z-5.000 I1.250 J0.000 K0.000 F30.000
G1 X41.000 Y1.250 Z-5.000 F30.000
G2 X42.250 Y0.000 Z-5.000 I0.000 J-1.250 K0.000 F30.000
G1 X42.250 Y-40.000 Z-5.000 F30.000
G2 X41.000 Y-41.250 Z-5.000 I-1.250 J-0.000 K0.000 F30.000
G1 X1.000 Y-41.250 Z-5.000 F30.000
G2 X-0.250 Y-40.000 Z-5.000 I-0.000 J1.250 K0.000 F30.000
G1 X-0.250 Y0.000 Z-5.000 F30.000
G1 X-0.250 Y0.000 Z-10.000 F30.000
G2 X1.000 Y1.250 Z-10.000 I1.250 J0.000 K0.000 F30.000
G1 X41.000 Y1.250 Z-10.000 F30.000
G2 X42.250 Y0.000 Z-10.000 I0.000 J-1.250 K0.000 F30.000
G1 X42.250 Y-40.000 Z-10.000 F30.000
G2 X41.000 Y-41.250 Z-10.000 I-1.250 J-0.000 K0.000 F30.000
G1 X1.000 Y-41.250 Z-10.000 F30.000
G2 X-0.250 Y-40.000 Z-10.000 I-0.000 J1.250 K0.000 F30.000
G1 X-0.250 Y0.000 Z-10.000 F30.000
G0 Z3.000
G0 Z3.000
(Finish operation: Profile008)
(Begin postamble)
M5
G17 G90
M2
