
;Exported by FreeCAD
;Post Processor: centroid_post
;CAM file: C:/Users/barioidl/Documents/inner bearing.FCStd
;Output Time: 2021-12-24 11:36:00.576616
G90 G80 G40 G49
;T1=__5mm_Endmill002
;begin preamble
G53 G00 G17
G21
;begin operation
G54
;end operation: Fixture
;begin operation
;2.5mm_Endmill003
M6 T1
M3 S100
;end operation: 2.5mm_Endmill003
;begin operation
;Drilling
;Begin Drilling
G0 Z2.0000
G90
G99
G81 X-6.2500 Y0.0000 Z-10.0000 F30.0 R2.0000
G80
G0 Z2.0000
G81 X6.2500 Y0.0000 Z-10.0000 F30.0 R2.0000
G80
G0 Z2.0000
G81 X6.2500 Y0.0000 Z-10.0000 F30.0 R2.0000
G80
G0 Z2.0000
G0 Z2.0000
;end operation: Drilling
;begin operation
;Profile
;Compensated Tool Path. Diameter: 2.5
G0 Z2.0000
G0 X0.0000 Y0.0000
G0 X1.8648 Y3.2300
G0 X1.8648 Y3.2300
G1 X1.8648 Y3.2300 Z-5.0000 F30.0
G1 X3.7296 Y2.1533 Z-5.0000 F30.0
G1 X3.7296 Y-2.1533 Z-5.0000 F30.0
G1 X-0.0000 Y-4.3066 Z-5.0000 F30.0
G1 X-3.7296 Y-2.1533 Z-5.0000 F30.0
G1 X-3.7296 Y2.1533 Z-5.0000 F30.0
G1 X-0.0000 Y4.3066 Z-5.0000 F30.0
G1 X1.8648 Y3.2300 Z-5.0000 F30.0
G0 Z2.0000
G0 Z2.0000
;end operation: Profile
;begin operation
;Profile001
;Compensated Tool Path. Diameter: 2.5
G0 Z2.0000
G0 X0.0000 Y0.0000
G0 X0.7171 Y-2.6460
G0 X0.7171 Y-2.6460
G1 X0.7171 Y-2.6460 Z-5.0000 F30.0
G1 X0.5436 Y-2.6930 Z-5.0000 F30.0
G2 X-0.5589 Y2.6896 Z-5.0000 I-0.5435 J2.6929 F30.0
G2 X0.8905 Y-2.5990 Z-5.0000 I0.5591 J-2.6897 F30.0
G1 X0.7171 Y-2.6460 Z-5.0000 F30.0
G1 X0.7171 Y-2.6460 Z-10.0000 F30.0
G1 X0.5436 Y-2.6930 Z-10.0000 F30.0
G2 X-0.5589 Y2.6896 Z-10.0000 I-0.5435 J2.6929 F30.0
G2 X0.8905 Y-2.5990 Z-10.0000 I0.5591 J-2.6897 F30.0
G1 X0.7171 Y-2.6460 Z-10.0000 F30.0
G0 Z2.0000
G0 Z2.0000
;end operation: Profile001
;begin operation
;Profile002
;Compensated Tool Path. Diameter: 2.5
G0 Z2.0000
G0 X0.0000 Y0.0000
G0 X7.2221 Y-4.9375
G0 X7.2221 Y-4.9375
G1 X7.2221 Y-4.9375 Z-5.0000 F30.0
G2 X1.3873 Y-8.6379 Z-5.0000 I-7.2222 J4.9375 F30.0
G2 X-8.6404 Y-1.3726 Z-5.0000 I-1.3874 J8.6380 F30.0
G2 X-1.3580 Y8.6427 Z-5.0000 I8.6403 J1.3727 F30.0
G2 X7.2221 Y-4.9375 Z-5.0000 I1.3580 J-8.6426 F30.0
G0 Z2.0000
G0 Z2.0000
;end operation: Profile002
;begin operation
;Profile003
;Compensated Tool Path. Diameter: 2.5
G0 Z2.0000
G0 X0.0000 Y0.0000
G0 X-1.9399 Y10.0636
G0 X-1.9399 Y10.0636
G1 X-1.9399 Y10.0636 Z-5.0000 F30.0
G2 X10.0636 Y1.9399 Z-5.0000 I1.9399 J-10.0636 F30.0
G2 X1.9399 Y-10.0636 Z-5.0000 I-10.0636 J-1.9399 F30.0
G2 X-1.9399 Y10.0636 Z-5.0000 I-1.9399 J10.0636 F30.0
G1 X-1.9399 Y10.0636 Z-10.0000 F30.0
G2 X10.0636 Y1.9399 Z-10.0000 I1.9399 J-10.0636 F30.0
G2 X1.9399 Y-10.0636 Z-10.0000 I-10.0636 J-1.9399 F30.0
G2 X-1.9399 Y10.0636 Z-10.0000 I-1.9399 J10.0636 F30.0
G0 Z2.0000
G0 Z2.0000
;end operation: Profile003
;begin postamble
M5
M25
G49 H0
G90 G80 G40 G49
M99
