(Exported by FreeCAD)
(Post Processor: grbl_post)
(Output Time:2021-12-04 13:31:06.514222)
(Begin preamble)
G17 G90
G21
(Begin operation: Fixture)
(Path: Fixture)
G54
(Finish operation: Fixture)
(Begin operation: 2.5mm_Endmill008)
(Path: 2.5mm_Endmill008)
(2.5mm_Endmill008)
(Begin toolchange)
( M6 T1.0 )
M3 S100.0
(Finish operation: 2.5mm_Endmill008)
(Begin operation: Profile014)
(Path: Profile014)
(Profile014)
(Compensated Tool Path. Diameter: 2.5)
G0 Z3.000
G0 X0.000 Y0.000
G0 X4.829 Y-4.829
G0 X4.829 Y-4.829 Z2.000
G1 X4.829 Y-4.829 Z-5.000 F30.000
G2 X4.895 Y-4.782 Z-5.000 I0.171 J-0.171 K0.000 F30.000
G2 X5.105 Y-5.218 Z-5.000 I0.105 J-0.218 K0.000 F30.000
G2 X4.829 Y-4.829 Z-5.000 I-0.105 J0.218 K0.000 F30.000
G1 X4.829 Y-4.829 Z-10.000 F30.000
G2 X4.895 Y-4.782 Z-10.000 I0.171 J-0.171 K0.000 F30.000
G2 X5.105 Y-5.218 Z-10.000 I0.105 J-0.218 K0.000 F30.000
G2 X4.829 Y-4.829 Z-10.000 I-0.105 J0.218 K0.000 F30.000
G0 Z3.000
G0 Z3.000
G0 X4.829 Y-4.829
G0 X34.758 Y-4.999
G0 X34.758 Y-4.999 Z2.000
G1 X34.758 Y-4.999 Z-5.000 F30.000
G2 X34.895 Y-4.782 Z-5.000 I0.242 J-0.001 K0.000 F30.000
G2 X35.105 Y-5.218 Z-5.000 I0.105 J-0.218 K0.000 F30.000
G2 X34.758 Y-4.999 Z-5.000 I-0.105 J0.218 K0.000 F30.000
G1 X34.758 Y-4.999 Z-10.000 F30.000
G2 X34.895 Y-4.782 Z-10.000 I0.242 J-0.001 K0.000 F30.000
G2 X35.105 Y-5.218 Z-10.000 I0.105 J-0.218 K0.000 F30.000
G2 X34.758 Y-4.999 Z-10.000 I-0.105 J0.218 K0.000 F30.000
G0 Z3.000
G0 Z3.000
G0 X34.758 Y-4.999
G0 X59.763 Y-9.953
G0 X59.763 Y-9.953 Z2.000
G1 X59.763 Y-9.953 Z-5.000 F30.000
G2 X59.895 Y-9.782 Z-5.000 I0.237 J-0.047 K0.000 F30.000
G2 X60.105 Y-10.218 Z-5.000 I0.105 J-0.218 K0.000 F30.000
G2 X59.763 Y-9.953 Z-5.000 I-0.105 J0.218 K0.000 F30.000
G1 X59.763 Y-9.953 Z-10.000 F30.000
G2 X59.895 Y-9.782 Z-10.000 I0.237 J-0.047 K0.000 F30.000
G2 X60.105 Y-10.218 Z-10.000 I0.105 J-0.218 K0.000 F30.000
G2 X59.763 Y-9.953 Z-10.000 I-0.105 J0.218 K0.000 F30.000
G0 Z3.000
G0 Z3.000
(Finish operation: Profile014)
(Begin operation: Fixture)
(Path: Fixture)
G54
G0 Z3.000
(Finish operation: Fixture)
(Begin operation: Profile015)
(Path: Profile015)
(Profile015)
(Compensated Tool Path. Diameter: 2.5)
G0 Z3.000
G0 X0.000 Y0.000
G0 X9.250 Y-1.250
G0 X9.250 Y-1.250 Z2.000
G1 X9.250 Y-1.250 Z-3.000 F30.000
G1 X12.750 Y-1.250 Z-3.000 F30.000
G1 X12.750 Y-13.750 Z-3.000 F30.000
G1 X9.250 Y-13.750 Z-3.000 F30.000
G1 X9.250 Y-1.250 Z-3.000 F30.000
G0 Z3.000
G0 Z3.000
G0 X9.250 Y-1.250
G0 X39.250
G0 X39.250 Z2.000
G1 X39.250 Y-1.250 Z-3.000 F30.000
G1 X42.750 Y-1.250 Z-3.000 F30.000
G1 X42.750 Y-13.750 Z-3.000 F30.000
G1 X39.250 Y-13.750 Z-3.000 F30.000
G1 X39.250 Y-1.250 Z-3.000 F30.000
G0 Z3.000
G0 Z3.000
G0 X39.250 Y-1.250
G0 X69.250
G0 X69.250 Z2.000
G1 X69.250 Y-1.250 Z-3.000 F30.000
G1 X72.750 Y-1.250 Z-3.000 F30.000
G1 X72.750 Y-13.750 Z-3.000 F30.000
G1 X69.250 Y-13.750 Z-3.000 F30.000
G1 X69.250 Y-1.250 Z-3.000 F30.000
G0 Z3.000
G0 Z3.000
(Finish operation: Profile015)
(Begin operation: Fixture)
(Path: Fixture)
G54
G0 Z3.000
(Finish operation: Fixture)
(Begin operation: Profile016)
(Path: Profile016)
(Profile016)
(Compensated Tool Path. Diameter: 2.5)
G0 Z3.000
G0 X0.000 Y0.000
G0 Y1.250
G0 Y1.250 Z2.000
G1 X0.000 Y1.250 Z-5.000 F30.000
G1 X80.000 Y1.250 Z-5.000 F30.000
G2 X81.250 Y-0.000 Z-5.000 I0.000 J-1.250 K0.000 F30.000
G1 X81.250 Y-15.000 Z-5.000 F30.000
G2 X80.000 Y-16.250 Z-5.000 I-1.250 J-0.000 K0.000 F30.000
G1 X0.000 Y-16.250 Z-5.000 F30.000
G2 X-1.250 Y-15.000 Z-5.000 I-0.000 J1.250 K0.000 F30.000
G1 X-1.250 Y-0.000 Z-5.000 F30.000
G2 X0.000 Y1.250 Z-5.000 I1.250 J0.000 K0.000 F30.000
G1 X0.000 Y1.250 Z-10.000 F30.000
G1 X80.000 Y1.250 Z-10.000 F30.000
G2 X81.250 Y-0.000 Z-10.000 I0.000 J-1.250 K0.000 F30.000
G1 X81.250 Y-15.000 Z-10.000 F30.000
G2 X80.000 Y-16.250 Z-10.000 I-1.250 J-0.000 K0.000 F30.000
G1 X0.000 Y-16.250 Z-10.000 F30.000
G2 X-1.250 Y-15.000 Z-10.000 I-0.000 J1.250 K0.000 F30.000
G1 X-1.250 Y-0.000 Z-10.000 F30.000
G2 X0.000 Y1.250 Z-10.000 I1.250 J0.000 K0.000 F30.000
G1 X0.000 Y1.250 Z-11.000 F30.000
G1 X80.000 Y1.250 Z-11.000 F30.000
G2 X81.250 Y-0.000 Z-11.000 I0.000 J-1.250 K0.000 F30.000
G1 X81.250 Y-15.000 Z-11.000 F30.000
G2 X80.000 Y-16.250 Z-11.000 I-1.250 J-0.000 K0.000 F30.000
G1 X0.000 Y-16.250 Z-11.000 F30.000
G2 X-1.250 Y-15.000 Z-11.000 I-0.000 J1.250 K0.000 F30.000
G1 X-1.250 Y-0.000 Z-11.000 F30.000
G2 X0.000 Y1.250 Z-11.000 I1.250 J0.000 K0.000 F30.000
G0 Z3.000
G0 Z3.000
(Finish operation: Profile016)
(Begin postamble)
M5
G17 G90
M2
