(Exported by FreeCAD)
(Post Processor: grbl_post)
(Output Time:2022-01-09 11:59:23.811463)
(Begin preamble)
G17 G90
G21
(Begin operation: Fixture)
(Path: Fixture)
G54
(Finish operation: Fixture)
(Begin operation: 2mm Endmill001)
(Path: 2mm Endmill001)
(2mm Endmill001)
(Begin toolchange)
( M6 T1.0 )
M3 S100.0
(Finish operation: 2mm Endmill001)
(Begin operation: Profile)
(Path: Profile)
(Profile)
(Compensated Tool Path. Diameter: 2.4)
G0 Z3.000
G0 X0.000 Y0.000
G0 X-3.167 Y1.703
G0 X-3.167 Y1.703 Z2.000
G1 X-3.167 Y1.703 Z-5.000 F30.000
G2 X3.463 Y0.998 Z-5.000 I3.171 J-1.705 K0.000 F30.000
G3 X4.770 Y0.100 Z-5.000 I1.307 J0.502 K0.000 F30.000
G1 X6.100 Y0.100 Z-5.000 F30.000
G1 X6.100 Y-0.100 Z-5.000 F30.000
G1 X4.770 Y-0.100 Z-5.000 F30.000
G3 X3.463 Y-0.998 Z-5.000 I0.000 J-1.400 K0.000 F30.000
G2 X0.992 Y-3.458 Z-5.000 I-3.476 J1.021 K0.000 F30.000
G2 X-3.488 Y-0.878 Z-5.000 I-0.992 J3.458 K0.000 F30.000
G2 X-3.167 Y1.703 Z-5.000 I3.492 J0.876 K0.000 F30.000
G1 X-3.167 Y1.703 Z-10.000 F30.000
G2 X3.463 Y0.998 Z-10.000 I3.171 J-1.705 K0.000 F30.000
G3 X4.770 Y0.100 Z-10.000 I1.307 J0.502 K0.000 F30.000
G1 X6.100 Y0.100 Z-10.000 F30.000
G1 X6.100 Y-0.100 Z-10.000 F30.000
G1 X4.770 Y-0.100 Z-10.000 F30.000
G3 X3.463 Y-0.998 Z-10.000 I0.000 J-1.400 K0.000 F30.000
G2 X0.992 Y-3.458 Z-10.000 I-3.476 J1.021 K0.000 F30.000
G2 X-3.488 Y-0.878 Z-10.000 I-0.992 J3.458 K0.000 F30.000
G2 X-3.167 Y1.703 Z-10.000 I3.492 J0.876 K0.000 F30.000
G0 Z3.000
G0 Z3.000
(Finish operation: Profile)
(Begin operation: Profile001)
(Path: Profile001)
(Profile001)
(Compensated Tool Path. Diameter: 2.4)
G0 Z3.000
G0 X0.000 Y0.000
G0 X5.457 Y7.507
G0 X5.457 Y7.507 Z2.000
G1 X5.457 Y7.507 Z-5.000 F30.000
G3 X6.450 Y8.106 Z-5.000 I-1.199 J3.112 K0.000 F30.000
G2 X9.784 Y8.478 Z-5.000 I2.116 J-3.831 K0.000 F30.000
G2 X10.489 Y8.013 Z-5.000 I-0.266 J-1.170 K0.000 F30.000
G2 X11.075 Y6.991 Z-5.000 I-1.872 J-1.753 K0.000 F30.000
G2 X9.747 Y3.668 Z-5.000 I-4.312 J-0.203 K0.000 F30.000
G3 X8.827 Y2.865 Z-5.000 I2.199 J-3.450 K0.000 F30.000
G3 X9.983 Y2.766 Z-5.000 I0.859 J3.223 K0.000 F30.000
G2 X12.899 Y1.108 Z-5.000 I-0.540 J-4.343 K0.000 F30.000
G2 X13.196 Y0.318 Z-5.000 I-0.903 J-0.790 K0.000 F30.000
G2 X13.069 Y-0.854 Z-5.000 I-2.545 J-0.318 K0.000 F30.000
G2 X10.041 Y-2.762 Z-5.000 I-3.608 J2.370 K0.000 F30.000
G3 X8.825 Y-2.870 Z-5.000 I-0.249 J-4.084 K0.000 F30.000
G3 X9.702 Y-3.630 Z-5.000 I2.589 J2.102 K0.000 F30.000
G2 X11.087 Y-6.686 Z-5.000 I-2.990 J-3.196 K0.000 F30.000
G2 X10.862 Y-7.499 Z-5.000 I-1.195 J-0.108 K0.000 F30.000
G2 X10.071 Y-8.373 Z-5.000 I-2.246 J1.239 K0.000 F30.000
G2 X6.500 Y-8.137 Z-5.000 I-1.526 J4.038 K0.000 F30.000
G3 X5.453 Y-7.509 Z-5.000 I-2.602 J-3.157 K0.000 F30.000
G3 X5.716 Y-8.639 Z-5.000 I3.330 J0.179 K0.000 F30.000
G2 X5.040 Y-11.925 Z-5.000 I-4.297 J-0.828 K0.000 F30.000
G2 X4.380 Y-12.452 Z-5.000 I-1.031 J0.615 K0.000 F30.000
G2 X3.226 Y-12.693 Z-5.000 I-1.088 J2.322 K0.000 F30.000
G2 X0.476 Y-10.403 Z-5.000 I1.139 J4.164 K0.000 F30.000
G3 X-0.002 Y-9.280 Z-5.000 I-3.961 J-1.025 K0.000 F30.000
G3 X-0.454 Y-10.349 Z-5.000 I2.799 J-1.813 K0.000 F30.000
G2 X-2.932 Y-12.610 Z-5.000 I-3.963 J1.856 K0.000 F30.000
G2 X-3.776 Y-12.648 Z-5.000 I-0.472 J1.103 K0.000 F30.000
G2 X-4.851 Y-12.165 Z-5.000 I0.484 J2.518 K0.000 F30.000
G2 X-5.730 Y-8.696 Z-5.000 I3.369 J2.699 K0.000 F30.000
G3 X-5.457 Y-7.507 Z-5.000 I-3.807 J1.499 K0.000 F30.000
G3 X-6.450 Y-8.106 Z-5.000 I1.199 J-3.112 K0.000 F30.000
G2 X-9.784 Y-8.478 Z-5.000 I-2.116 J3.831 K0.000 F30.000
G2 X-10.489 Y-8.013 Z-5.000 I0.266 J1.170 K0.000 F30.000
G2 X-11.075 Y-6.991 Z-5.000 I1.872 J1.753 K0.000 F30.000
G2 X-9.747 Y-3.668 Z-5.000 I4.312 J0.203 K0.000 F30.000
G3 X-8.827 Y-2.865 Z-5.000 I-2.199 J3.450 K0.000 F30.000
G3 X-9.983 Y-2.766 Z-5.000 I-0.859 J-3.223 K0.000 F30.000
G2 X-12.899 Y-1.108 Z-5.000 I0.540 J4.343 K0.000 F30.000
G2 X-13.196 Y-0.318 Z-5.000 I0.903 J0.790 K0.000 F30.000
G2 X-13.069 Y0.854 Z-5.000 I2.545 J0.318 K0.000 F30.000
G2 X-10.041 Y2.762 Z-5.000 I3.608 J-2.370 K0.000 F30.000
G3 X-8.825 Y2.870 Z-5.000 I0.249 J4.084 K0.000 F30.000
G3 X-9.702 Y3.630 Z-5.000 I-2.589 J-2.102 K0.000 F30.000
G2 X-11.087 Y6.686 Z-5.000 I2.990 J3.196 K0.000 F30.000
G2 X-10.862 Y7.499 Z-5.000 I1.195 J0.108 K0.000 F30.000
G2 X-10.071 Y8.373 Z-5.000 I2.246 J-1.239 K0.000 F30.000
G2 X-6.500 Y8.137 Z-5.000 I1.526 J-4.038 K0.000 F30.000
G3 X-5.453 Y7.509 Z-5.000 I2.602 J3.157 K0.000 F30.000
G3 X-5.716 Y8.639 Z-5.000 I-3.330 J-0.179 K0.000 F30.000
G2 X-5.040 Y11.925 Z-5.000 I4.297 J0.828 K0.000 F30.000
G2 X-4.380 Y12.452 Z-5.000 I1.031 J-0.615 K0.000 F30.000
G2 X-3.226 Y12.693 Z-5.000 I1.088 J-2.322 K0.000 F30.000
G2 X-0.476 Y10.403 Z-5.000 I-1.139 J-4.164 K0.000 F30.000
G3 X0.002 Y9.280 Z-5.000 I3.961 J1.025 K0.000 F30.000
G3 X0.454 Y10.349 Z-5.000 I-2.799 J1.813 K0.000 F30.000
G2 X2.932 Y12.610 Z-5.000 I3.963 J-1.856 K0.000 F30.000
G2 X3.776 Y12.648 Z-5.000 I0.472 J-1.103 K0.000 F30.000
G2 X4.851 Y12.165 Z-5.000 I-0.484 J-2.518 K0.000 F30.000
G2 X5.730 Y8.696 Z-5.000 I-3.369 J-2.699 K0.000 F30.000
G3 X5.457 Y7.507 Z-5.000 I3.807 J-1.499 K0.000 F30.000
G1 X5.457 Y7.507 Z-10.000 F30.000
G3 X6.450 Y8.106 Z-10.000 I-1.199 J3.112 K0.000 F30.000
G2 X9.784 Y8.478 Z-10.000 I2.116 J-3.831 K0.000 F30.000
G2 X10.489 Y8.013 Z-10.000 I-0.266 J-1.170 K0.000 F30.000
G2 X11.075 Y6.991 Z-10.000 I-1.872 J-1.753 K0.000 F30.000
G2 X9.747 Y3.668 Z-10.000 I-4.312 J-0.203 K0.000 F30.000
G3 X8.827 Y2.865 Z-10.000 I2.199 J-3.450 K0.000 F30.000
G3 X9.983 Y2.766 Z-10.000 I0.859 J3.223 K0.000 F30.000
G2 X12.899 Y1.108 Z-10.000 I-0.540 J-4.343 K0.000 F30.000
G2 X13.196 Y0.318 Z-10.000 I-0.903 J-0.790 K0.000 F30.000
G2 X13.069 Y-0.854 Z-10.000 I-2.545 J-0.318 K0.000 F30.000
G2 X10.041 Y-2.762 Z-10.000 I-3.608 J2.370 K0.000 F30.000
G3 X8.825 Y-2.870 Z-10.000 I-0.249 J-4.084 K0.000 F30.000
G3 X9.702 Y-3.630 Z-10.000 I2.589 J2.102 K0.000 F30.000
G2 X11.087 Y-6.686 Z-10.000 I-2.990 J-3.196 K0.000 F30.000
G2 X10.862 Y-7.499 Z-10.000 I-1.195 J-0.108 K0.000 F30.000
G2 X10.071 Y-8.373 Z-10.000 I-2.246 J1.239 K0.000 F30.000
G2 X6.500 Y-8.137 Z-10.000 I-1.526 J4.038 K0.000 F30.000
G3 X5.453 Y-7.509 Z-10.000 I-2.602 J-3.157 K0.000 F30.000
G3 X5.716 Y-8.639 Z-10.000 I3.330 J0.179 K0.000 F30.000
G2 X5.040 Y-11.925 Z-10.000 I-4.297 J-0.828 K0.000 F30.000
G2 X4.380 Y-12.452 Z-10.000 I-1.031 J0.615 K0.000 F30.000
G2 X3.226 Y-12.693 Z-10.000 I-1.088 J2.322 K0.000 F30.000
G2 X0.476 Y-10.403 Z-10.000 I1.139 J4.164 K0.000 F30.000
G3 X-0.002 Y-9.280 Z-10.000 I-3.961 J-1.025 K0.000 F30.000
G3 X-0.454 Y-10.349 Z-10.000 I2.799 J-1.813 K0.000 F30.000
G2 X-2.932 Y-12.610 Z-10.000 I-3.963 J1.856 K0.000 F30.000
G2 X-3.776 Y-12.648 Z-10.000 I-0.472 J1.103 K0.000 F30.000
G2 X-4.851 Y-12.165 Z-10.000 I0.484 J2.518 K0.000 F30.000
G2 X-5.730 Y-8.696 Z-10.000 I3.369 J2.699 K0.000 F30.000
G3 X-5.457 Y-7.507 Z-10.000 I-3.807 J1.499 K0.000 F30.000
G3 X-6.450 Y-8.106 Z-10.000 I1.199 J-3.112 K0.000 F30.000
G2 X-9.784 Y-8.478 Z-10.000 I-2.116 J3.831 K0.000 F30.000
G2 X-10.489 Y-8.013 Z-10.000 I0.266 J1.170 K0.000 F30.000
G2 X-11.075 Y-6.991 Z-10.000 I1.872 J1.753 K0.000 F30.000
G2 X-9.747 Y-3.668 Z-10.000 I4.312 J0.203 K0.000 F30.000
G3 X-8.827 Y-2.865 Z-10.000 I-2.199 J3.450 K0.000 F30.000
G3 X-9.983 Y-2.766 Z-10.000 I-0.859 J-3.223 K0.000 F30.000
G2 X-12.899 Y-1.108 Z-10.000 I0.540 J4.343 K0.000 F30.000
G2 X-13.196 Y-0.318 Z-10.000 I0.903 J0.790 K0.000 F30.000
G2 X-13.069 Y0.854 Z-10.000 I2.545 J0.318 K0.000 F30.000
G2 X-10.041 Y2.762 Z-10.000 I3.608 J-2.370 K0.000 F30.000
G3 X-8.825 Y2.870 Z-10.000 I0.249 J4.084 K0.000 F30.000
G3 X-9.702 Y3.630 Z-10.000 I-2.589 J-2.102 K0.000 F30.000
G2 X-11.087 Y6.686 Z-10.000 I2.990 J3.196 K0.000 F30.000
G2 X-10.862 Y7.499 Z-10.000 I1.195 J0.108 K0.000 F30.000
G2 X-10.071 Y8.373 Z-10.000 I2.246 J-1.239 K0.000 F30.000
G2 X-6.500 Y8.137 Z-10.000 I1.526 J-4.038 K0.000 F30.000
G3 X-5.453 Y7.509 Z-10.000 I2.602 J3.157 K0.000 F30.000
G3 X-5.716 Y8.639 Z-10.000 I-3.330 J-0.179 K0.000 F30.000
G2 X-5.040 Y11.925 Z-10.000 I4.297 J0.828 K0.000 F30.000
G2 X-4.380 Y12.452 Z-10.000 I1.031 J-0.615 K0.000 F30.000
G2 X-3.226 Y12.693 Z-10.000 I1.088 J-2.322 K0.000 F30.000
G2 X-0.476 Y10.403 Z-10.000 I-1.139 J-4.164 K0.000 F30.000
G3 X0.002 Y9.280 Z-10.000 I3.961 J1.025 K0.000 F30.000
G3 X0.454 Y10.349 Z-10.000 I-2.799 J1.813 K0.000 F30.000
G2 X2.932 Y12.610 Z-10.000 I3.963 J-1.856 K0.000 F30.000
G2 X3.776 Y12.648 Z-10.000 I0.472 J-1.103 K0.000 F30.000
G2 X4.851 Y12.165 Z-10.000 I-0.484 J-2.518 K0.000 F30.000
G2 X5.730 Y8.696 Z-10.000 I-3.369 J-2.699 K0.000 F30.000
G3 X5.457 Y7.507 Z-10.000 I3.807 J-1.499 K0.000 F30.000
G0 Z3.000
G0 Z3.000
(Finish operation: Profile001)
(Begin postamble)
M5
G17 G90
M2
