(Exported by FreeCAD)
(Post Processor: grbl_post)
(Output Time:2021-12-24 10:44:54.514732)
(Begin preamble)
G17 G90
G21
(Begin operation: Fixture)
(Path: Fixture)
G54
(Finish operation: Fixture)
(Begin operation: 2.5mm_Endmill001)
(Path: 2.5mm_Endmill001)
(2.5mm_Endmill001)
(Begin toolchange)
( M6 T1.0 )
M4 S100.0
(Finish operation: 2.5mm_Endmill001)
(Begin operation: Profile001)
(Path: Profile001)
(Profile001)
(Compensated Tool Path. Diameter: 2.5)
G0 Z2.000
G0 X0.000 Y0.000
G0 X0.717 Y-2.646
G0 X0.717 Y-2.646 Z1.000
G1 X0.717 Y-2.646 Z-5.000 F30.000
G1 X0.544 Y-2.693 Z-5.000 F30.000
G2 X-0.559 Y2.690 Z-5.000 I-0.543 J2.693 K0.000 F30.000
G2 X0.890 Y-2.599 Z-5.000 I0.559 J-2.690 K0.000 F30.000
G1 X0.717 Y-2.646 Z-5.000 F30.000
G1 X0.717 Y-2.646 Z-10.000 F30.000
G1 X0.544 Y-2.693 Z-10.000 F30.000
G2 X-0.559 Y2.690 Z-10.000 I-0.543 J2.693 K0.000 F30.000
G2 X0.890 Y-2.599 Z-10.000 I0.559 J-2.690 K0.000 F30.000
G1 X0.717 Y-2.646 Z-10.000 F30.000
G0 Z2.000
G0 Z2.000
(Finish operation: Profile001)
(Begin operation: Fixture)
(Path: Fixture)
G54
G0 Z-3.000
(Finish operation: Fixture)
(Begin operation: Drilling)
(Path: Drilling)
(Drilling)
(Begin Drilling)
G0 Z2.000
G90
G99
G81 X0.000 Y0.000 Z-10.000 F30.000 R1.000
G80
G0 Z2.000
G81 X-6.250 Y0.000 Z-10.000 F30.000 R1.000
G80
G0 Z2.000
G81 X6.250 Y0.000 Z-10.000 F30.000 R1.000
G80
G0 Z2.000
G0 Z2.000
(Finish operation: Drilling)
(Begin operation: Fixture)
(Path: Fixture)
G54
G0 Z-3.000
(Finish operation: Fixture)
(Begin operation: Profile)
(Path: Profile)
(Profile)
(Compensated Tool Path. Diameter: 2.5)
G0 Z2.000
G0 X0.000 Y0.000
G0 X-13.724 Y13.720
G0 X-13.724 Y13.720
G1 X-13.724 Y13.720 Z-5.000 F30.000
G2 X-14.819 Y14.202 Z-5.000 I0.738 J3.161 K0.000 F30.000
G3 X-18.110 Y14.362 Z-5.000 I-1.854 J-4.223 K0.000 F30.000
G3 X-18.588 Y13.966 Z-5.000 I0.533 J-1.131 K0.000 F30.000
G3 X-19.177 Y13.088 Z-5.000 I3.180 J-2.771 K0.000 F30.000
G3 X-19.247 Y12.418 Z-5.000 I1.162 J-0.460 K0.000 F30.000
G3 X-18.508 Y10.245 Z-5.000 I4.599 J0.353 K0.000 F30.000
G3 X-17.760 Y9.419 Z-5.000 I3.218 J2.162 K0.000 F30.000
G2 X-17.292 Y8.807 Z-5.000 I-1.696 J-1.783 K0.000 F30.000
G2 X-18.482 Y8.928 Z-5.000 I-0.275 J3.234 K0.000 F30.000
G3 X-21.661 Y8.063 Z-5.000 I-0.459 J-4.589 K0.000 F30.000
G3 X-21.994 Y7.538 Z-5.000 I0.856 J-0.911 K0.000 F30.000
G3 X-22.283 Y6.521 Z-5.000 I3.880 J-1.653 K0.000 F30.000
G3 X-22.143 Y5.863 Z-5.000 I1.248 J-0.078 K0.000 F30.000
G3 X-20.768 Y4.025 Z-5.000 I4.265 J1.757 K0.000 F30.000
G3 X-19.801 Y3.470 Z-5.000 I2.393 J3.050 K0.000 F30.000
G2 X-19.167 Y3.033 Z-5.000 I-1.062 J-2.220 K0.000 F30.000
G2 X-20.336 Y2.779 Z-5.000 I-1.261 J2.991 K0.000 F30.000
G3 X-23.093 Y0.974 Z-5.000 I0.982 J-4.506 K0.000 F30.000
G3 X-23.247 Y0.373 Z-5.000 I1.096 J-0.601 K0.000 F30.000
G3 X-23.208 Y-0.684 Z-5.000 I4.201 J-0.373 K0.000 F30.000
G3 X-22.871 Y-1.267 Z-5.000 I1.211 J0.311 K0.000 F30.000
G3 X-20.995 Y-2.590 Z-5.000 I3.514 J2.989 K0.000 F30.000
G3 X-19.904 Y-2.819 Z-5.000 I1.333 J3.640 K0.000 F30.000
G2 X-19.166 Y-3.038 Z-5.000 I-0.324 J-2.440 K0.000 F30.000
G2 X-20.200 Y-3.641 Z-5.000 I-2.123 J2.455 K0.000 F30.000
G3 X-22.263 Y-6.209 Z-5.000 I2.326 J-3.982 K0.000 F30.000
G3 X-22.224 Y-6.829 Z-5.000 I1.228 J-0.233 K0.000 F30.000
G3 X-21.860 Y-7.822 Z-5.000 I4.111 J0.944 K0.000 F30.000
G3 X-21.360 Y-8.272 Z-5.000 I1.055 J0.670 K0.000 F30.000
G3 X-19.167 Y-8.951 Z-5.000 I2.418 J3.928 K0.000 F30.000
G3 X-18.059 Y-8.832 Z-5.000 I0.143 J3.874 K0.000 F30.000
G2 X-17.289 Y-8.812 Z-5.000 I0.445 J-2.421 K0.000 F30.000
G2 X-18.086 Y-9.705 Z-5.000 I-2.778 J1.679 K0.000 F30.000
G3 X-19.255 Y-12.785 Z-5.000 I3.443 J-3.069 K0.000 F30.000
G3 X-19.026 Y-13.363 Z-5.000 I1.240 J0.158 K0.000 F30.000
G3 X-18.373 Y-14.194 Z-5.000 I3.618 J2.168 K0.000 F30.000
G3 X-17.758 Y-14.468 Z-5.000 I0.797 J0.963 K0.000 F30.000
G3 X-15.463 Y-14.436 Z-5.000 I1.086 J4.483 K0.000 F30.000
G3 X-14.446 Y-13.980 Z-5.000 I-1.061 J3.729 K0.000 F30.000
G2 X-13.720 Y-13.724 Z-5.000 I1.172 J-2.165 K0.000 F30.000
G2 X-14.202 Y-14.819 Z-5.000 I-3.161 J0.738 K0.000 F30.000
G3 X-14.362 Y-18.110 Z-5.000 I4.223 J-1.854 K0.000 F30.000
G3 X-13.966 Y-18.588 Z-5.000 I1.131 J0.533 K0.000 F30.000
G3 X-13.088 Y-19.177 Z-5.000 I2.771 J3.180 K0.000 F30.000
G3 X-12.418 Y-19.247 Z-5.000 I0.460 J1.162 K0.000 F30.000
G3 X-10.245 Y-18.508 Z-5.000 I-0.353 J4.599 K0.000 F30.000
G3 X-9.419 Y-17.760 Z-5.000 I-2.162 J3.218 K0.000 F30.000
G2 X-8.807 Y-17.292 Z-5.000 I1.783 J-1.696 K0.000 F30.000
G2 X-8.928 Y-18.482 Z-5.000 I-3.234 J-0.275 K0.000 F30.000
G3 X-8.063 Y-21.661 Z-5.000 I4.589 J-0.459 K0.000 F30.000
G3 X-7.538 Y-21.994 Z-5.000 I0.911 J0.856 K0.000 F30.000
G3 X-6.521 Y-22.283 Z-5.000 I1.653 J3.880 K0.000 F30.000
G3 X-5.863 Y-22.143 Z-5.000 I0.078 J1.248 K0.000 F30.000
G3 X-4.025 Y-20.768 Z-5.000 I-1.757 J4.265 K0.000 F30.000
G3 X-3.470 Y-19.801 Z-5.000 I-3.050 J2.393 K0.000 F30.000
G2 X-3.033 Y-19.167 Z-5.000 I2.220 J-1.062 K0.000 F30.000
G2 X-2.779 Y-20.336 Z-5.000 I-2.991 J-1.261 K0.000 F30.000
G3 X-0.974 Y-23.093 Z-5.000 I4.506 J0.982 K0.000 F30.000
G3 X-0.373 Y-23.247 Z-5.000 I0.601 J1.096 K0.000 F30.000
G3 X0.684 Y-23.208 Z-5.000 I0.373 J4.201 K0.000 F30.000
G1 X0.975 Y-23.092 Z-5.000 F30.000
G3 X2.649 Y-20.820 Z-5.000 I-2.622 J3.684 K0.000 F30.000
G3 X2.819 Y-19.904 Z-5.000 I-3.564 J1.135 K0.000 F30.000
G2 X3.038 Y-19.166 Z-5.000 I2.440 J-0.324 K0.000 F30.000
G2 X3.641 Y-20.200 Z-5.000 I-2.455 J-2.123 K0.000 F30.000
G3 X6.209 Y-22.263 Z-5.000 I3.982 J2.326 K0.000 F30.000
G3 X6.829 Y-22.224 Z-5.000 I0.233 J1.228 K0.000 F30.000
G3 X7.822 Y-21.860 Z-5.000 I-0.944 J4.111 K0.000 F30.000
G3 X8.272 Y-21.360 Z-5.000 I-0.670 J1.055 K0.000 F30.000
G3 X8.951 Y-19.167 Z-5.000 I-3.928 J2.418 K0.000 F30.000
G3 X8.832 Y-18.059 Z-5.000 I-3.874 J0.143 K0.000 F30.000
G2 X8.812 Y-17.289 Z-5.000 I2.421 J0.445 K0.000 F30.000
G2 X9.705 Y-18.086 Z-5.000 I-1.679 J-2.778 K0.000 F30.000
G3 X12.785 Y-19.255 Z-5.000 I3.069 J3.443 K0.000 F30.000
G3 X13.363 Y-19.026 Z-5.000 I-0.158 J1.240 K0.000 F30.000
G3 X14.194 Y-18.373 Z-5.000 I-2.168 J3.618 K0.000 F30.000
G3 X14.468 Y-17.758 Z-5.000 I-0.963 J0.797 K0.000 F30.000
G3 X14.436 Y-15.463 Z-5.000 I-4.483 J1.086 K0.000 F30.000
G3 X13.980 Y-14.446 Z-5.000 I-3.729 J-1.061 K0.000 F30.000
G2 X13.724 Y-13.720 Z-5.000 I2.165 J1.172 K0.000 F30.000
G2 X14.819 Y-14.202 Z-5.000 I-0.738 J-3.161 K0.000 F30.000
G3 X18.110 Y-14.362 Z-5.000 I1.854 J4.223 K0.000 F30.000
G3 X18.588 Y-13.966 Z-5.000 I-0.533 J1.131 K0.000 F30.000
G3 X19.177 Y-13.088 Z-5.000 I-3.180 J2.771 K0.000 F30.000
G3 X19.247 Y-12.418 Z-5.000 I-1.162 J0.460 K0.000 F30.000
G3 X18.508 Y-10.245 Z-5.000 I-4.599 J-0.353 K0.000 F30.000
G3 X17.760 Y-9.419 Z-5.000 I-3.218 J-2.162 K0.000 F30.000
G2 X17.292 Y-8.807 Z-5.000 I1.696 J1.783 K0.000 F30.000
G2 X18.482 Y-8.928 Z-5.000 I0.275 J-3.234 K0.000 F30.000
G3 X21.661 Y-8.063 Z-5.000 I0.459 J4.589 K0.000 F30.000
G3 X21.994 Y-7.538 Z-5.000 I-0.856 J0.911 K0.000 F30.000
G3 X22.283 Y-6.521 Z-5.000 I-3.880 J1.653 K0.000 F30.000
G3 X22.143 Y-5.863 Z-5.000 I-1.248 J0.078 K0.000 F30.000
G3 X20.768 Y-4.025 Z-5.000 I-4.265 J-1.757 K0.000 F30.000
G3 X19.801 Y-3.470 Z-5.000 I-2.393 J-3.050 K0.000 F30.000
G2 X19.167 Y-3.033 Z-5.000 I1.062 J2.220 K0.000 F30.000
G2 X20.336 Y-2.779 Z-5.000 I1.261 J-2.991 K0.000 F30.000
G3 X23.093 Y-0.974 Z-5.000 I-0.982 J4.506 K0.000 F30.000
G3 X23.247 Y-0.373 Z-5.000 I-1.096 J0.601 K0.000 F30.000
G3 X23.208 Y0.684 Z-5.000 I-4.201 J0.373 K0.000 F30.000
G3 X22.871 Y1.267 Z-5.000 I-1.211 J-0.311 K0.000 F30.000
G3 X20.995 Y2.590 Z-5.000 I-3.514 J-2.989 K0.000 F30.000
G3 X19.904 Y2.819 Z-5.000 I-1.333 J-3.640 K0.000 F30.000
G2 X19.166 Y3.038 Z-5.000 I0.324 J2.440 K0.000 F30.000
G2 X20.200 Y3.641 Z-5.000 I2.123 J-2.455 K0.000 F30.000
G3 X22.263 Y6.209 Z-5.000 I-2.326 J3.982 K0.000 F30.000
G3 X22.224 Y6.829 Z-5.000 I-1.228 J0.233 K0.000 F30.000
G3 X21.860 Y7.822 Z-5.000 I-4.111 J-0.944 K0.000 F30.000
G3 X21.360 Y8.272 Z-5.000 I-1.055 J-0.670 K0.000 F30.000
G3 X19.167 Y8.951 Z-5.000 I-2.418 J-3.928 K0.000 F30.000
G3 X18.059 Y8.832 Z-5.000 I-0.143 J-3.874 K0.000 F30.000
G2 X17.289 Y8.812 Z-5.000 I-0.445 J2.421 K0.000 F30.000
G2 X18.086 Y9.705 Z-5.000 I2.778 J-1.679 K0.000 F30.000
G3 X19.255 Y12.785 Z-5.000 I-3.443 J3.069 K0.000 F30.000
G3 X19.026 Y13.363 Z-5.000 I-1.240 J-0.158 K0.000 F30.000
G3 X18.373 Y14.194 Z-5.000 I-3.618 J-2.168 K0.000 F30.000
G3 X17.758 Y14.468 Z-5.000 I-0.797 J-0.963 K0.000 F30.000
G3 X15.463 Y14.436 Z-5.000 I-1.086 J-4.483 K0.000 F30.000
G3 X14.446 Y13.980 Z-5.000 I1.061 J-3.729 K0.000 F30.000
G2 X13.720 Y13.724 Z-5.000 I-1.172 J2.165 K0.000 F30.000
G2 X14.202 Y14.819 Z-5.000 I3.161 J-0.738 K0.000 F30.000
G3 X14.362 Y18.110 Z-5.000 I-4.223 J1.854 K0.000 F30.000
G3 X13.966 Y18.588 Z-5.000 I-1.131 J-0.533 K0.000 F30.000
G3 X13.088 Y19.177 Z-5.000 I-2.771 J-3.180 K0.000 F30.000
G3 X12.418 Y19.247 Z-5.000 I-0.460 J-1.162 K0.000 F30.000
G3 X10.245 Y18.508 Z-5.000 I0.353 J-4.599 K0.000 F30.000
G3 X9.419 Y17.760 Z-5.000 I2.162 J-3.218 K0.000 F30.000
G2 X8.807 Y17.292 Z-5.000 I-1.783 J1.696 K0.000 F30.000
G2 X8.928 Y18.482 Z-5.000 I3.234 J0.275 K0.000 F30.000
G3 X8.063 Y21.661 Z-5.000 I-4.589 J0.459 K0.000 F30.000
G3 X7.538 Y21.994 Z-5.000 I-0.911 J-0.856 K0.000 F30.000
G3 X6.521 Y22.283 Z-5.000 I-1.653 J-3.880 K0.000 F30.000
G3 X5.863 Y22.143 Z-5.000 I-0.078 J-1.248 K0.000 F30.000
G3 X4.025 Y20.768 Z-5.000 I1.757 J-4.265 K0.000 F30.000
G3 X3.470 Y19.801 Z-5.000 I3.050 J-2.393 K0.000 F30.000
G2 X3.033 Y19.167 Z-5.000 I-2.220 J1.062 K0.000 F30.000
G2 X2.779 Y20.336 Z-5.000 I2.991 J1.261 K0.000 F30.000
G3 X0.974 Y23.093 Z-5.000 I-4.506 J-0.982 K0.000 F30.000
G3 X0.373 Y23.247 Z-5.000 I-0.601 J-1.096 K0.000 F30.000
G3 X-0.684 Y23.208 Z-5.000 I-0.373 J-4.201 K0.000 F30.000
G3 X-1.267 Y22.871 Z-5.000 I0.311 J-1.211 K0.000 F30.000
G3 X-2.590 Y20.995 Z-5.000 I2.989 J-3.514 K0.000 F30.000
G3 X-2.819 Y19.904 Z-5.000 I3.640 J-1.333 K0.000 F30.000
G2 X-3.038 Y19.166 Z-5.000 I-2.440 J0.324 K0.000 F30.000
G2 X-3.641 Y20.200 Z-5.000 I2.455 J2.123 K0.000 F30.000
G3 X-6.209 Y22.263 Z-5.000 I-3.982 J-2.326 K0.000 F30.000
G3 X-6.829 Y22.224 Z-5.000 I-0.233 J-1.228 K0.000 F30.000
G3 X-7.822 Y21.860 Z-5.000 I0.944 J-4.111 K0.000 F30.000
G3 X-8.272 Y21.360 Z-5.000 I0.670 J-1.055 K0.000 F30.000
G3 X-8.951 Y19.167 Z-5.000 I3.928 J-2.418 K0.000 F30.000
G3 X-8.832 Y18.059 Z-5.000 I3.874 J-0.143 K0.000 F30.000
G2 X-8.812 Y17.289 Z-5.000 I-2.421 J-0.445 K0.000 F30.000
G2 X-9.705 Y18.086 Z-5.000 I1.679 J2.778 K0.000 F30.000
G3 X-12.785 Y19.255 Z-5.000 I-3.069 J-3.443 K0.000 F30.000
G3 X-13.363 Y19.026 Z-5.000 I0.158 J-1.240 K0.000 F30.000
G3 X-14.194 Y18.373 Z-5.000 I2.168 J-3.618 K0.000 F30.000
G3 X-14.468 Y17.758 Z-5.000 I0.963 J-0.797 K0.000 F30.000
G3 X-14.436 Y15.463 Z-5.000 I4.483 J-1.086 K0.000 F30.000
G3 X-13.980 Y14.446 Z-5.000 I3.729 J1.061 K0.000 F30.000
G2 X-13.724 Y13.720 Z-5.000 I-2.165 J-1.172 K0.000 F30.000
G1 X-13.724 Y13.720 Z-10.000 F30.000
G2 X-14.819 Y14.202 Z-10.000 I0.738 J3.161 K0.000 F30.000
G3 X-18.110 Y14.362 Z-10.000 I-1.854 J-4.223 K0.000 F30.000
G3 X-18.588 Y13.966 Z-10.000 I0.533 J-1.131 K0.000 F30.000
G3 X-19.177 Y13.088 Z-10.000 I3.180 J-2.771 K0.000 F30.000
G3 X-19.247 Y12.418 Z-10.000 I1.162 J-0.460 K0.000 F30.000
G3 X-18.508 Y10.245 Z-10.000 I4.599 J0.353 K0.000 F30.000
G3 X-17.760 Y9.419 Z-10.000 I3.218 J2.162 K0.000 F30.000
G2 X-17.292 Y8.807 Z-10.000 I-1.696 J-1.783 K0.000 F30.000
G2 X-18.482 Y8.928 Z-10.000 I-0.275 J3.234 K0.000 F30.000
G3 X-21.661 Y8.063 Z-10.000 I-0.459 J-4.589 K0.000 F30.000
G3 X-21.994 Y7.538 Z-10.000 I0.856 J-0.911 K0.000 F30.000
G3 X-22.283 Y6.521 Z-10.000 I3.880 J-1.653 K0.000 F30.000
G3 X-22.143 Y5.863 Z-10.000 I1.248 J-0.078 K0.000 F30.000
G3 X-20.768 Y4.025 Z-10.000 I4.265 J1.757 K0.000 F30.000
G3 X-19.801 Y3.470 Z-10.000 I2.393 J3.050 K0.000 F30.000
G2 X-19.167 Y3.033 Z-10.000 I-1.062 J-2.220 K0.000 F30.000
G2 X-20.336 Y2.779 Z-10.000 I-1.261 J2.991 K0.000 F30.000
G3 X-23.093 Y0.974 Z-10.000 I0.982 J-4.506 K0.000 F30.000
G3 X-23.247 Y0.373 Z-10.000 I1.096 J-0.601 K0.000 F30.000
G3 X-23.208 Y-0.684 Z-10.000 I4.201 J-0.373 K0.000 F30.000
G3 X-22.871 Y-1.267 Z-10.000 I1.211 J0.311 K0.000 F30.000
G3 X-20.995 Y-2.590 Z-10.000 I3.514 J2.989 K0.000 F30.000
G3 X-19.904 Y-2.819 Z-10.000 I1.333 J3.640 K0.000 F30.000
G2 X-19.166 Y-3.038 Z-10.000 I-0.324 J-2.440 K0.000 F30.000
G2 X-20.200 Y-3.641 Z-10.000 I-2.123 J2.455 K0.000 F30.000
G3 X-22.263 Y-6.209 Z-10.000 I2.326 J-3.982 K0.000 F30.000
G3 X-22.224 Y-6.829 Z-10.000 I1.228 J-0.233 K0.000 F30.000
G3 X-21.860 Y-7.822 Z-10.000 I4.111 J0.944 K0.000 F30.000
G3 X-21.360 Y-8.272 Z-10.000 I1.055 J0.670 K0.000 F30.000
G3 X-19.167 Y-8.951 Z-10.000 I2.418 J3.928 K0.000 F30.000
G3 X-18.059 Y-8.832 Z-10.000 I0.143 J3.874 K0.000 F30.000
G2 X-17.289 Y-8.812 Z-10.000 I0.445 J-2.421 K0.000 F30.000
G2 X-18.086 Y-9.705 Z-10.000 I-2.778 J1.679 K0.000 F30.000
G3 X-19.255 Y-12.785 Z-10.000 I3.443 J-3.069 K0.000 F30.000
G3 X-19.026 Y-13.363 Z-10.000 I1.240 J0.158 K0.000 F30.000
G3 X-18.373 Y-14.194 Z-10.000 I3.618 J2.168 K0.000 F30.000
G3 X-17.758 Y-14.468 Z-10.000 I0.797 J0.963 K0.000 F30.000
G3 X-15.463 Y-14.436 Z-10.000 I1.086 J4.483 K0.000 F30.000
G3 X-14.446 Y-13.980 Z-10.000 I-1.061 J3.729 K0.000 F30.000
G2 X-13.720 Y-13.724 Z-10.000 I1.172 J-2.165 K0.000 F30.000
G2 X-14.202 Y-14.819 Z-10.000 I-3.161 J0.738 K0.000 F30.000
G3 X-14.362 Y-18.110 Z-10.000 I4.223 J-1.854 K0.000 F30.000
G3 X-13.966 Y-18.588 Z-10.000 I1.131 J0.533 K0.000 F30.000
G3 X-13.088 Y-19.177 Z-10.000 I2.771 J3.180 K0.000 F30.000
G3 X-12.418 Y-19.247 Z-10.000 I0.460 J1.162 K0.000 F30.000
G3 X-10.245 Y-18.508 Z-10.000 I-0.353 J4.599 K0.000 F30.000
G3 X-9.419 Y-17.760 Z-10.000 I-2.162 J3.218 K0.000 F30.000
G2 X-8.807 Y-17.292 Z-10.000 I1.783 J-1.696 K0.000 F30.000
G2 X-8.928 Y-18.482 Z-10.000 I-3.234 J-0.275 K0.000 F30.000
G3 X-8.063 Y-21.661 Z-10.000 I4.589 J-0.459 K0.000 F30.000
G3 X-7.538 Y-21.994 Z-10.000 I0.911 J0.856 K0.000 F30.000
G3 X-6.521 Y-22.283 Z-10.000 I1.653 J3.880 K0.000 F30.000
G3 X-5.863 Y-22.143 Z-10.000 I0.078 J1.248 K0.000 F30.000
G3 X-4.025 Y-20.768 Z-10.000 I-1.757 J4.265 K0.000 F30.000
G3 X-3.470 Y-19.801 Z-10.000 I-3.050 J2.393 K0.000 F30.000
G2 X-3.033 Y-19.167 Z-10.000 I2.220 J-1.062 K0.000 F30.000
G2 X-2.779 Y-20.336 Z-10.000 I-2.991 J-1.261 K0.000 F30.000
G3 X-0.974 Y-23.093 Z-10.000 I4.506 J0.982 K0.000 F30.000
G3 X-0.373 Y-23.247 Z-10.000 I0.601 J1.096 K0.000 F30.000
G3 X0.684 Y-23.208 Z-10.000 I0.373 J4.201 K0.000 F30.000
G1 X0.975 Y-23.092 Z-10.000 F30.000
G3 X2.649 Y-20.820 Z-10.000 I-2.622 J3.684 K0.000 F30.000
G3 X2.819 Y-19.904 Z-10.000 I-3.564 J1.135 K0.000 F30.000
G2 X3.038 Y-19.166 Z-10.000 I2.440 J-0.324 K0.000 F30.000
G2 X3.641 Y-20.200 Z-10.000 I-2.455 J-2.123 K0.000 F30.000
G3 X6.209 Y-22.263 Z-10.000 I3.982 J2.326 K0.000 F30.000
G3 X6.829 Y-22.224 Z-10.000 I0.233 J1.228 K0.000 F30.000
G3 X7.822 Y-21.860 Z-10.000 I-0.944 J4.111 K0.000 F30.000
G3 X8.272 Y-21.360 Z-10.000 I-0.670 J1.055 K0.000 F30.000
G3 X8.951 Y-19.167 Z-10.000 I-3.928 J2.418 K0.000 F30.000
G3 X8.832 Y-18.059 Z-10.000 I-3.874 J0.143 K0.000 F30.000
G2 X8.812 Y-17.289 Z-10.000 I2.421 J0.445 K0.000 F30.000
G2 X9.705 Y-18.086 Z-10.000 I-1.679 J-2.778 K0.000 F30.000
G3 X12.785 Y-19.255 Z-10.000 I3.069 J3.443 K0.000 F30.000
G3 X13.363 Y-19.026 Z-10.000 I-0.158 J1.240 K0.000 F30.000
G3 X14.194 Y-18.373 Z-10.000 I-2.168 J3.618 K0.000 F30.000
G3 X14.468 Y-17.758 Z-10.000 I-0.963 J0.797 K0.000 F30.000
G3 X14.436 Y-15.463 Z-10.000 I-4.483 J1.086 K0.000 F30.000
G3 X13.980 Y-14.446 Z-10.000 I-3.729 J-1.061 K0.000 F30.000
G2 X13.724 Y-13.720 Z-10.000 I2.165 J1.172 K0.000 F30.000
G2 X14.819 Y-14.202 Z-10.000 I-0.738 J-3.161 K0.000 F30.000
G3 X18.110 Y-14.362 Z-10.000 I1.854 J4.223 K0.000 F30.000
G3 X18.588 Y-13.966 Z-10.000 I-0.533 J1.131 K0.000 F30.000
G3 X19.177 Y-13.088 Z-10.000 I-3.180 J2.771 K0.000 F30.000
G3 X19.247 Y-12.418 Z-10.000 I-1.162 J0.460 K0.000 F30.000
G3 X18.508 Y-10.245 Z-10.000 I-4.599 J-0.353 K0.000 F30.000
G3 X17.760 Y-9.419 Z-10.000 I-3.218 J-2.162 K0.000 F30.000
G2 X17.292 Y-8.807 Z-10.000 I1.696 J1.783 K0.000 F30.000
G2 X18.482 Y-8.928 Z-10.000 I0.275 J-3.234 K0.000 F30.000
G3 X21.661 Y-8.063 Z-10.000 I0.459 J4.589 K0.000 F30.000
G3 X21.994 Y-7.538 Z-10.000 I-0.856 J0.911 K0.000 F30.000
G3 X22.283 Y-6.521 Z-10.000 I-3.880 J1.653 K0.000 F30.000
G3 X22.143 Y-5.863 Z-10.000 I-1.248 J0.078 K0.000 F30.000
G3 X20.768 Y-4.025 Z-10.000 I-4.265 J-1.757 K0.000 F30.000
G3 X19.801 Y-3.470 Z-10.000 I-2.393 J-3.050 K0.000 F30.000
G2 X19.167 Y-3.033 Z-10.000 I1.062 J2.220 K0.000 F30.000
G2 X20.336 Y-2.779 Z-10.000 I1.261 J-2.991 K0.000 F30.000
G3 X23.093 Y-0.974 Z-10.000 I-0.982 J4.506 K0.000 F30.000
G3 X23.247 Y-0.373 Z-10.000 I-1.096 J0.601 K0.000 F30.000
G3 X23.208 Y0.684 Z-10.000 I-4.201 J0.373 K0.000 F30.000
G3 X22.871 Y1.267 Z-10.000 I-1.211 J-0.311 K0.000 F30.000
G3 X20.995 Y2.590 Z-10.000 I-3.514 J-2.989 K0.000 F30.000
G3 X19.904 Y2.819 Z-10.000 I-1.333 J-3.640 K0.000 F30.000
G2 X19.166 Y3.038 Z-10.000 I0.324 J2.440 K0.000 F30.000
G2 X20.200 Y3.641 Z-10.000 I2.123 J-2.455 K0.000 F30.000
G3 X22.263 Y6.209 Z-10.000 I-2.326 J3.982 K0.000 F30.000
G3 X22.224 Y6.829 Z-10.000 I-1.228 J0.233 K0.000 F30.000
G3 X21.860 Y7.822 Z-10.000 I-4.111 J-0.944 K0.000 F30.000
G3 X21.360 Y8.272 Z-10.000 I-1.055 J-0.670 K0.000 F30.000
G3 X19.167 Y8.951 Z-10.000 I-2.418 J-3.928 K0.000 F30.000
G3 X18.059 Y8.832 Z-10.000 I-0.143 J-3.874 K0.000 F30.000
G2 X17.289 Y8.812 Z-10.000 I-0.445 J2.421 K0.000 F30.000
G2 X18.086 Y9.705 Z-10.000 I2.778 J-1.679 K0.000 F30.000
G3 X19.255 Y12.785 Z-10.000 I-3.443 J3.069 K0.000 F30.000
G3 X19.026 Y13.363 Z-10.000 I-1.240 J-0.158 K0.000 F30.000
G3 X18.373 Y14.194 Z-10.000 I-3.618 J-2.168 K0.000 F30.000
G3 X17.758 Y14.468 Z-10.000 I-0.797 J-0.963 K0.000 F30.000
G3 X15.463 Y14.436 Z-10.000 I-1.086 J-4.483 K0.000 F30.000
G3 X14.446 Y13.980 Z-10.000 I1.061 J-3.729 K0.000 F30.000
G2 X13.720 Y13.724 Z-10.000 I-1.172 J2.165 K0.000 F30.000
G2 X14.202 Y14.819 Z-10.000 I3.161 J-0.738 K0.000 F30.000
G3 X14.362 Y18.110 Z-10.000 I-4.223 J1.854 K0.000 F30.000
G3 X13.966 Y18.588 Z-10.000 I-1.131 J-0.533 K0.000 F30.000
G3 X13.088 Y19.177 Z-10.000 I-2.771 J-3.180 K0.000 F30.000
G3 X12.418 Y19.247 Z-10.000 I-0.460 J-1.162 K0.000 F30.000
G3 X10.245 Y18.508 Z-10.000 I0.353 J-4.599 K0.000 F30.000
G3 X9.419 Y17.760 Z-10.000 I2.162 J-3.218 K0.000 F30.000
G2 X8.807 Y17.292 Z-10.000 I-1.783 J1.696 K0.000 F30.000
G2 X8.928 Y18.482 Z-10.000 I3.234 J0.275 K0.000 F30.000
G3 X8.063 Y21.661 Z-10.000 I-4.589 J0.459 K0.000 F30.000
G3 X7.538 Y21.994 Z-10.000 I-0.911 J-0.856 K0.000 F30.000
G3 X6.521 Y22.283 Z-10.000 I-1.653 J-3.880 K0.000 F30.000
G3 X5.863 Y22.143 Z-10.000 I-0.078 J-1.248 K0.000 F30.000
G3 X4.025 Y20.768 Z-10.000 I1.757 J-4.265 K0.000 F30.000
G3 X3.470 Y19.801 Z-10.000 I3.050 J-2.393 K0.000 F30.000
G2 X3.033 Y19.167 Z-10.000 I-2.220 J1.062 K0.000 F30.000
G2 X2.779 Y20.336 Z-10.000 I2.991 J1.261 K0.000 F30.000
G3 X0.974 Y23.093 Z-10.000 I-4.506 J-0.982 K0.000 F30.000
G3 X0.373 Y23.247 Z-10.000 I-0.601 J-1.096 K0.000 F30.000
G3 X-0.684 Y23.208 Z-10.000 I-0.373 J-4.201 K0.000 F30.000
G3 X-1.267 Y22.871 Z-10.000 I0.311 J-1.211 K0.000 F30.000
G3 X-2.590 Y20.995 Z-10.000 I2.989 J-3.514 K0.000 F30.000
G3 X-2.819 Y19.904 Z-10.000 I3.640 J-1.333 K0.000 F30.000
G2 X-3.038 Y19.166 Z-10.000 I-2.440 J0.324 K0.000 F30.000
G2 X-3.641 Y20.200 Z-10.000 I2.455 J2.123 K0.000 F30.000
G3 X-6.209 Y22.263 Z-10.000 I-3.982 J-2.326 K0.000 F30.000
G3 X-6.829 Y22.224 Z-10.000 I-0.233 J-1.228 K0.000 F30.000
G3 X-7.822 Y21.860 Z-10.000 I0.944 J-4.111 K0.000 F30.000
G3 X-8.272 Y21.360 Z-10.000 I0.670 J-1.055 K0.000 F30.000
G3 X-8.951 Y19.167 Z-10.000 I3.928 J-2.418 K0.000 F30.000
G3 X-8.832 Y18.059 Z-10.000 I3.874 J-0.143 K0.000 F30.000
G2 X-8.812 Y17.289 Z-10.000 I-2.421 J-0.445 K0.000 F30.000
G2 X-9.705 Y18.086 Z-10.000 I1.679 J2.778 K0.000 F30.000
G3 X-12.785 Y19.255 Z-10.000 I-3.069 J-3.443 K0.000 F30.000
G3 X-13.363 Y19.026 Z-10.000 I0.158 J-1.240 K0.000 F30.000
G3 X-14.194 Y18.373 Z-10.000 I2.168 J-3.618 K0.000 F30.000
G3 X-14.468 Y17.758 Z-10.000 I0.963 J-0.797 K0.000 F30.000
G3 X-14.436 Y15.463 Z-10.000 I4.483 J-1.086 K0.000 F30.000
G3 X-13.980 Y14.446 Z-10.000 I3.729 J1.061 K0.000 F30.000
G2 X-13.724 Y13.720 Z-10.000 I-2.165 J-1.172 K0.000 F30.000
G0 Z2.000
G0 Z2.000
(Finish operation: Profile)
(Begin postamble)
M5
G17 G90
M2
