(Exported by FreeCAD)
(Post Processor: grbl_post)
(Output Time:2022-01-06 14:12:15.154782)
(Begin preamble)
G17 G90
G21
(Begin operation: Fixture)
(Path: Fixture)
G54
(Finish operation: Fixture)
(Begin operation: 2.5mm_Endmill003)
(Path: 2.5mm_Endmill003)
(2.5mm_Endmill003)
(Begin toolchange)
( M6 T1.0 )
M3 S100.0
(Finish operation: 2.5mm_Endmill003)
(Begin operation: Profile004)
(Path: Profile004)
(Profile004)
(Compensated Tool Path. Diameter: 2.5)
G0 Z2.000
G0 X0.000 Y0.000
G0 X-6.249 Y-0.002
G0 X-6.249 Y-0.002
G1 X-6.249 Y-0.002 Z-5.000 F30.000
G2 X-6.251 Y0.002 Z-5.000 I-0.001 J0.002 K0.000 F30.000
G2 X-6.248 Y0.001 Z-5.000 I0.001 J-0.002 K0.000 F30.000
G2 X-6.249 Y-0.002 Z-5.000 I-0.002 J-0.001 K0.000 F30.000
G1 X-6.249 Y-0.002 Z-10.000 F30.000
G2 X-6.251 Y0.002 Z-10.000 I-0.001 J0.002 K0.000 F30.000
G2 X-6.248 Y0.001 Z-10.000 I0.001 J-0.002 K0.000 F30.000
G2 X-6.249 Y-0.002 Z-10.000 I-0.002 J-0.001 K0.000 F30.000
G0 Z2.000
G0 Z2.000
G0 X-6.249 Y-0.002
G0 X6.249 Y0.002
G0 X6.249 Y0.002
G1 X6.249 Y0.002 Z-5.000 F30.000
G2 X6.252 Y0.001 Z-5.000 I0.001 J-0.002 K0.000 F30.000
G2 X6.251 Y-0.002 Z-5.000 I-0.002 J-0.001 K0.000 F30.000
G2 X6.249 Y0.002 Z-5.000 I-0.001 J0.002 K0.000 F30.000
G1 X6.249 Y0.002 Z-10.000 F30.000
G2 X6.252 Y0.001 Z-10.000 I0.001 J-0.002 K0.000 F30.000
G2 X6.251 Y-0.002 Z-10.000 I-0.002 J-0.001 K0.000 F30.000
G2 X6.249 Y0.002 Z-10.000 I-0.001 J0.002 K0.000 F30.000
G0 Z2.000
G0 Z2.000
(Finish operation: Profile004)
(Begin operation: Profile)
(Path: Profile)
(Profile)
(Compensated Tool Path. Diameter: 2.5)
G0 Z1.000
G0 X2.797 Y2.692
G1 X2.797 Y2.692 Z-3.500 F30.000
G1 X3.730 Y2.153 Z-3.500 F30.000
G1 X3.730 Y-2.153 Z-3.500 F30.000
G1 X-0.000 Y-4.307 Z-3.500 F30.000
G1 X-3.730 Y-2.153 Z-3.500 F30.000
G1 X-3.730 Y2.153 Z-3.500 F30.000
G1 X0.000 Y4.307 Z-3.500 F30.000
G1 X2.797 Y2.692 Z-3.500 F30.000
G1 X2.797 Y2.692 Z-7.000 F30.000
G1 X3.730 Y2.153 Z-7.000 F30.000
G1 X3.730 Y-2.153 Z-7.000 F30.000
G1 X-0.000 Y-4.307 Z-7.000 F30.000
G1 X-3.730 Y-2.153 Z-7.000 F30.000
G1 X-3.730 Y2.153 Z-7.000 F30.000
G1 X0.000 Y4.307 Z-7.000 F30.000
G1 X2.797 Y2.692 Z-7.000 F30.000
G0 Z1.000
G0 Z1.000
(Finish operation: Profile)
(Begin operation: Profile001)
(Path: Profile001)
(Profile001)
(Compensated Tool Path. Diameter: 2.5)
G0 Z2.000
G0 X0.000 Y0.000
G0 X0.717 Y-2.646
G0 X0.717 Y-2.646
G1 X0.717 Y-2.646 Z-5.000 F30.000
G1 X0.544 Y-2.693 Z-5.000 F30.000
G2 X-0.559 Y2.690 Z-5.000 I-0.543 J2.693 K0.000 F30.000
G2 X0.890 Y-2.599 Z-5.000 I0.559 J-2.690 K0.000 F30.000
G1 X0.717 Y-2.646 Z-5.000 F30.000
G1 X0.717 Y-2.646 Z-10.000 F30.000
G1 X0.544 Y-2.693 Z-10.000 F30.000
G2 X-0.559 Y2.690 Z-10.000 I-0.543 J2.693 K0.000 F30.000
G2 X0.890 Y-2.599 Z-10.000 I0.559 J-2.690 K0.000 F30.000
G1 X0.717 Y-2.646 Z-10.000 F30.000
G0 Z2.000
G0 Z2.000
(Finish operation: Profile001)
(Begin operation: Profile003)
(Path: Profile003)
(Profile003)
(Compensated Tool Path. Diameter: 2.5)
G0 Z2.000
G0 X0.000 Y0.000
G0 X-1.940 Y10.064
G0 X-1.940 Y10.064
G1 X-1.940 Y10.064 Z-5.000 F30.000
G2 X10.064 Y1.940 Z-5.000 I1.940 J-10.064 K0.000 F30.000
G2 X1.940 Y-10.064 Z-5.000 I-10.064 J-1.940 K0.000 F30.000
G2 X-1.940 Y10.064 Z-5.000 I-1.940 J10.064 K0.000 F30.000
G1 X-1.940 Y10.064 Z-10.000 F30.000
G2 X10.064 Y1.940 Z-10.000 I1.940 J-10.064 K0.000 F30.000
G2 X1.940 Y-10.064 Z-10.000 I-10.064 J-1.940 K0.000 F30.000
G2 X-1.940 Y10.064 Z-10.000 I-1.940 J10.064 K0.000 F30.000
G0 Z2.000
G0 Z2.000
(Finish operation: Profile003)
(Begin postamble)
M5
G17 G90
M2
