(Exported by FreeCAD)
(Post Processor: grbl_post)
(Output Time:2021-12-24 10:10:46.237698)
(Begin preamble)
G17 G90
G21
(Begin operation: Fixture)
(Path: Fixture)
G54
(Finish operation: Fixture)
(Begin operation: 2.5mm_Endmill003)
(Path: 2.5mm_Endmill003)
(2.5mm_Endmill003)
(Begin toolchange)
( M6 T1.0 )
M3 S100.0
(Finish operation: 2.5mm_Endmill003)
(Begin operation: hoes)
(Path: hoes)
(hoes)
(Compensated Tool Path. Diameter: 2.5)
G0 Z3.000
G0 X0.000 Y0.000
G0 X7.581 Y-4.738
G0 X7.581 Y-4.738 Z2.000
G1 X7.581 Y-4.738 Z-5.000 F30.000
G2 X7.770 Y-4.562 Z-5.000 I0.419 J-0.262 K0.000 F30.000
G2 X8.230 Y-5.438 Z-5.000 I0.230 J-0.438 K0.000 F30.000
G2 X7.581 Y-4.738 Z-5.000 I-0.230 J0.438 K0.000 F30.000
G1 X7.581 Y-4.738 Z-10.000 F30.000
G2 X7.770 Y-4.562 Z-10.000 I0.419 J-0.262 K0.000 F30.000
G2 X8.230 Y-5.438 Z-10.000 I0.230 J-0.438 K0.000 F30.000
G2 X7.581 Y-4.738 Z-10.000 I-0.230 J0.438 K0.000 F30.000
G0 Z3.000
G0 Z3.000
G0 X7.581 Y-4.738
G0 X7.991 Y-28.506
G0 X7.991 Y-28.506 Z2.000
G1 X7.991 Y-28.506 Z-5.000 F30.000
G2 X8.462 Y-28.825 Z-5.000 I0.009 J-0.495 K0.000 F30.000
G1 X8.492 Y-28.944 Z-5.000 F30.000
G2 X7.534 Y-29.168 Z-5.000 I-0.492 J-0.057 K0.000 F30.000
G2 X7.991 Y-28.506 Z-5.000 I0.466 J0.167 K0.000 F30.000
G1 X7.991 Y-28.506 Z-10.000 F30.000
G2 X8.462 Y-28.825 Z-10.000 I0.009 J-0.495 K0.000 F30.000
G1 X8.492 Y-28.944 Z-10.000 F30.000
G2 X7.534 Y-29.168 Z-10.000 I-0.492 J-0.057 K0.000 F30.000
G2 X7.991 Y-28.506 Z-10.000 I0.466 J0.167 K0.000 F30.000
G0 Z3.000
G0 Z3.000
G0 X7.991 Y-28.506
G0 X31.505 Y-28.990
G0 X31.505 Y-28.990 Z2.000
G1 X31.505 Y-28.990 Z-5.000 F30.000
G2 X32.466 Y-28.832 Z-5.000 I0.495 J-0.010 K0.000 F30.000
G2 X31.534 Y-29.168 Z-5.000 I-0.466 J-0.168 K0.000 F30.000
G2 X31.505 Y-28.990 Z-5.000 I0.466 J0.168 K0.000 F30.000
G1 X31.505 Y-28.990 Z-10.000 F30.000
G2 X32.466 Y-28.832 Z-10.000 I0.495 J-0.010 K0.000 F30.000
G2 X31.534 Y-29.168 Z-10.000 I-0.466 J-0.168 K0.000 F30.000
G2 X31.505 Y-28.990 Z-10.000 I0.466 J0.168 K0.000 F30.000
G0 Z3.000
G0 Z3.000
G0 X31.505 Y-28.990
G0 X31.990 Y-5.494
G0 X31.990 Y-5.494 Z2.000
G1 X31.990 Y-5.494 Z-5.000 F30.000
G2 X31.770 Y-4.562 Z-5.000 I0.010 J0.494 K0.000 F30.000
G2 X32.438 Y-4.770 Z-5.000 I0.230 J-0.438 K0.000 F30.000
G2 X32.230 Y-5.438 Z-5.000 I-0.438 J-0.230 K0.000 F30.000
G2 X31.990 Y-5.494 Z-5.000 I-0.230 J0.438 K0.000 F30.000
G1 X31.990 Y-5.494 Z-10.000 F30.000
G2 X31.770 Y-4.562 Z-10.000 I0.010 J0.494 K0.000 F30.000
G2 X32.438 Y-4.770 Z-10.000 I0.230 J-0.438 K0.000 F30.000
G2 X32.230 Y-5.438 Z-10.000 I-0.438 J-0.230 K0.000 F30.000
G2 X31.990 Y-5.494 Z-10.000 I-0.230 J0.438 K0.000 F30.000
G0 Z3.000
G0 Z3.000
(Finish operation: hoes)
(Begin operation: Fixture)
(Path: Fixture)
G54
G0 Z3.000
(Finish operation: Fixture)
(Begin operation: holes)
(Path: holes)
(holes)
(Compensated Tool Path. Diameter: 2.5)
G0 Z3.000
G0 X0.000 Y0.000
G0 X10.286 Y-8.743
G0 X10.286 Y-8.743 Z2.000
G1 X10.286 Y-8.743 Z-5.000 F30.000
G2 X18.100 Y-4.393 Z-5.000 I9.714 J-8.257 K0.000 F30.000
G2 X21.900 Y-29.607 Z-5.000 I1.900 J-12.607 K0.000 F30.000
G2 X10.286 Y-8.743 Z-5.000 I-1.900 J12.607 K0.000 F30.000
G1 X10.286 Y-8.743 Z-10.000 F30.000
G2 X18.100 Y-4.393 Z-10.000 I9.714 J-8.257 K0.000 F30.000
G2 X21.900 Y-29.607 Z-10.000 I1.900 J-12.607 K0.000 F30.000
G2 X10.286 Y-8.743 Z-10.000 I-1.900 J12.607 K0.000 F30.000
G0 Z3.000
G0 Z3.000
G0 X10.286 Y-8.743
G0 X39.847 Y-44.813
G0 X39.847 Y-44.813 Z2.000
G1 X39.847 Y-44.813 Z-5.000 F30.000
G2 X39.895 Y-44.782 Z-5.000 I0.153 J-0.187 K0.000 F30.000
G2 X40.105 Y-45.218 Z-5.000 I0.105 J-0.218 K0.000 F30.000
G2 X39.847 Y-44.813 Z-5.000 I-0.105 J0.218 K0.000 F30.000
G1 X39.847 Y-44.813 Z-10.000 F30.000
G2 X39.895 Y-44.782 Z-10.000 I0.153 J-0.187 K0.000 F30.000
G2 X40.105 Y-45.218 Z-10.000 I0.105 J-0.218 K0.000 F30.000
G2 X39.847 Y-44.813 Z-10.000 I-0.105 J0.218 K0.000 F30.000
G0 Z3.000
G0 Z3.000
G0 X39.847 Y-44.813
G0 X39.928 Y-50.253
G0 X39.928 Y-50.253 Z2.000
G1 X39.928 Y-50.253 Z-5.000 F30.000
G2 X41.057 Y-59.629 Z-5.000 I0.072 J-4.747 K0.000 F30.000
G2 X38.943 Y-50.371 Z-5.000 I-1.057 J4.629 K0.000 F30.000
G2 X39.928 Y-50.253 Z-5.000 I1.057 J-4.629 K0.000 F30.000
G1 X39.928 Y-50.253 Z-10.000 F30.000
G2 X41.057 Y-59.629 Z-10.000 I0.072 J-4.747 K0.000 F30.000
G2 X38.943 Y-50.371 Z-10.000 I-1.057 J4.629 K0.000 F30.000
G2 X39.928 Y-50.253 Z-10.000 I1.057 J-4.629 K0.000 F30.000
G0 Z3.000
G0 Z3.000
G0 X39.928 Y-50.253
G0 X39.999 Y-64.758
G0 X39.999 Y-64.758 Z2.000
G1 X39.999 Y-64.758 Z-5.000 F30.000
G2 X40.105 Y-65.218 Z-5.000 I0.001 J-0.242 K0.000 F30.000
G2 X39.895 Y-64.782 Z-5.000 I-0.105 J0.218 K0.000 F30.000
G2 X39.999 Y-64.758 Z-5.000 I0.105 J-0.218 K0.000 F30.000
G1 X39.999 Y-64.758 Z-10.000 F30.000
G2 X40.105 Y-65.218 Z-10.000 I0.001 J-0.242 K0.000 F30.000
G2 X39.895 Y-64.782 Z-10.000 I-0.105 J0.218 K0.000 F30.000
G2 X39.999 Y-64.758 Z-10.000 I0.105 J-0.218 K0.000 F30.000
G0 Z3.000
G0 Z3.000
G0 X39.999 Y-64.758
G0 X54.771 Y-69.920
G0 X54.771 Y-69.920 Z2.000
G1 X54.771 Y-69.920 Z-5.000 F30.000
G2 X54.895 Y-69.782 Z-5.000 I0.229 J-0.080 K0.000 F30.000
G2 X55.105 Y-70.218 Z-5.000 I0.105 J-0.218 K0.000 F30.000
G2 X54.771 Y-69.920 Z-5.000 I-0.105 J0.218 K0.000 F30.000
G1 X54.771 Y-69.920 Z-10.000 F30.000
G2 X54.895 Y-69.782 Z-10.000 I0.229 J-0.080 K0.000 F30.000
G2 X55.105 Y-70.218 Z-10.000 I0.105 J-0.218 K0.000 F30.000
G2 X54.771 Y-69.920 Z-10.000 I-0.105 J0.218 K0.000 F30.000
G0 Z3.000
G0 Z3.000
G0 X54.771 Y-69.920
G0 X54.998 Y-40.242
G0 X54.998 Y-40.242 Z2.000
G1 X54.998 Y-40.242 Z-5.000 F30.000
G2 X54.895 Y-39.782 Z-5.000 I0.002 J0.242 K0.000 F30.000
G2 X55.105 Y-40.218 Z-5.000 I0.105 J-0.218 K0.000 F30.000
G2 X54.998 Y-40.242 Z-5.000 I-0.105 J0.218 K0.000 F30.000
G1 X54.998 Y-40.242 Z-10.000 F30.000
G2 X54.895 Y-39.782 Z-10.000 I0.002 J0.242 K0.000 F30.000
G2 X55.105 Y-40.218 Z-10.000 I0.105 J-0.218 K0.000 F30.000
G2 X54.998 Y-40.242 Z-10.000 I-0.105 J0.218 K0.000 F30.000
G0 Z3.000
G0 Z3.000
G0 X54.998 Y-40.242
G0 X62.337 Y-47.462
G0 X62.337 Y-47.462 Z2.000
G1 X62.337 Y-47.462 Z-5.000 F30.000
G2 X80.673 Y-53.726 Z-5.000 I7.663 J-7.538 K0.000 F30.000
G2 X59.327 Y-56.274 Z-5.000 I-10.673 J-1.274 K0.000 F30.000
G2 X62.337 Y-47.462 Z-5.000 I10.673 J1.274 K0.000 F30.000
G1 X62.337 Y-47.462 Z-10.000 F30.000
G2 X80.673 Y-53.726 Z-10.000 I7.663 J-7.538 K0.000 F30.000
G2 X59.327 Y-56.274 Z-10.000 I-10.673 J-1.274 K0.000 F30.000
G2 X62.337 Y-47.462 Z-10.000 I10.673 J1.274 K0.000 F30.000
G0 Z3.000
G0 Z3.000
G0 X62.337 Y-47.462
G0 X84.770 Y-40.076
G0 X84.770 Y-40.076 Z2.000
G1 X84.770 Y-40.076 Z-5.000 F30.000
G2 X85.218 Y-39.895 Z-5.000 I0.230 J0.076 K0.000 F30.000
G2 X84.782 Y-40.105 Z-5.000 I-0.218 J-0.105 K0.000 F30.000
G2 X84.770 Y-40.076 Z-5.000 I0.218 J0.105 K0.000 F30.000
G1 X84.770 Y-40.076 Z-10.000 F30.000
G2 X85.218 Y-39.895 Z-10.000 I0.230 J0.076 K0.000 F30.000
G2 X84.782 Y-40.105 Z-10.000 I-0.218 J-0.105 K0.000 F30.000
G2 X84.770 Y-40.076 Z-10.000 I0.218 J0.105 K0.000 F30.000
G0 Z3.000
G0 Z3.000
G0 X84.770 Y-40.076
G0 X99.770 Y-44.926
G0 X99.770 Y-44.926 Z2.000
G1 X99.770 Y-44.926 Z-5.000 F30.000
G2 X99.895 Y-44.782 Z-5.000 I0.230 J-0.074 K0.000 F30.000
G2 X100.105 Y-45.218 Z-5.000 I0.105 J-0.218 K0.000 F30.000
G2 X99.770 Y-44.926 Z-5.000 I-0.105 J0.218 K0.000 F30.000
G1 X99.770 Y-44.926 Z-10.000 F30.000
G2 X99.895 Y-44.782 Z-10.000 I0.230 J-0.074 K0.000 F30.000
G2 X100.105 Y-45.218 Z-10.000 I0.105 J-0.218 K0.000 F30.000
G2 X99.770 Y-44.926 Z-10.000 I-0.105 J0.218 K0.000 F30.000
G0 Z3.000
G0 Z3.000
G0 X99.770 Y-44.926
G0 X99.891 Y-50.253
G0 X99.891 Y-50.253 Z2.000
G1 X99.891 Y-50.253 Z-5.000 F30.000
G2 X101.057 Y-59.629 Z-5.000 I0.109 J-4.747 K0.000 F30.000
G2 X98.943 Y-50.371 Z-5.000 I-1.057 J4.629 K0.000 F30.000
G2 X99.891 Y-50.253 Z-5.000 I1.057 J-4.629 K0.000 F30.000
G1 X99.891 Y-50.253 Z-10.000 F30.000
G2 X101.057 Y-59.629 Z-10.000 I0.109 J-4.747 K0.000 F30.000
G2 X98.943 Y-50.371 Z-10.000 I-1.057 J4.629 K0.000 F30.000
G2 X99.891 Y-50.253 Z-10.000 I1.057 J-4.629 K0.000 F30.000
G0 Z3.000
G0 Z3.000
G0 X99.891 Y-50.253
G0 X99.998 Y-64.758
G0 X99.998 Y-64.758 Z2.000
G1 X99.998 Y-64.758 Z-5.000 F30.000
G2 X100.105 Y-65.218 Z-5.000 I0.002 J-0.242 K0.000 F30.000
G2 X99.895 Y-64.782 Z-5.000 I-0.105 J0.218 K0.000 F30.000
G2 X99.998 Y-64.758 Z-5.000 I0.105 J-0.218 K0.000 F30.000
G1 X99.998 Y-64.758 Z-10.000 F30.000
G2 X100.105 Y-65.218 Z-10.000 I0.002 J-0.242 K0.000 F30.000
G2 X99.895 Y-64.782 Z-10.000 I-0.105 J0.218 K0.000 F30.000
G2 X99.998 Y-64.758 Z-10.000 I0.105 J-0.218 K0.000 F30.000
G0 Z3.000
G0 Z3.000
G0 X99.998 Y-64.758
G0 X85.229 Y-69.920
G0 X85.229 Y-69.920 Z2.000
G1 X85.229 Y-69.920 Z-5.000 F30.000
G2 X84.782 Y-70.105 Z-5.000 I-0.229 J-0.080 K0.000 F30.000
G2 X85.218 Y-69.895 Z-5.000 I0.218 J0.105 K0.000 F30.000
G2 X85.229 Y-69.920 Z-5.000 I-0.218 J-0.105 K0.000 F30.000
G1 X85.229 Y-69.920 Z-10.000 F30.000
G2 X84.782 Y-70.105 Z-10.000 I-0.229 J-0.080 K0.000 F30.000
G2 X85.218 Y-69.895 Z-10.000 I0.218 J0.105 K0.000 F30.000
G2 X85.229 Y-69.920 Z-10.000 I-0.218 J-0.105 K0.000 F30.000
G0 Z3.000
G0 Z3.000
(Finish operation: holes)
(Begin operation: Fixture)
(Path: Fixture)
G54
G0 Z3.000
(Finish operation: Fixture)
(Begin operation: ho)
(Path: ho)
(ho)
(Compensated Tool Path. Diameter: 2.5)
G0 Z3.000
G0 X0.000 Y0.000
G0 X59.975 Y-47.123
G0 X59.975 Y-47.123 Z2.000
G1 X59.975 Y-47.123 Z-3.500 F30.000
G2 X82.607 Y-53.100 Z-3.500 I10.025 J-7.877 K0.000 F30.000
G2 X57.393 Y-56.900 Z-3.500 I-12.607 J-1.900 K0.000 F30.000
G2 X59.975 Y-47.123 Z-3.500 I12.607 J1.900 K0.000 F30.000
G1 X59.975 Y-47.123 Z-7.000 F30.000
G2 X82.607 Y-53.100 Z-7.000 I10.025 J-7.877 K0.000 F30.000
G2 X57.393 Y-56.900 Z-7.000 I-12.607 J-1.900 K0.000 F30.000
G2 X59.975 Y-47.123 Z-7.000 I12.607 J1.900 K0.000 F30.000
G0 Z3.000
G0 Z3.000
(Finish operation: ho)
(Begin operation: Fixture)
(Path: Fixture)
G54
G0 Z3.000
(Finish operation: Fixture)
(Begin operation: slots)
(Path: slots)
(slots)
(Compensated Tool Path. Diameter: 2.5)
G0 Z3.000
G0 X0.000 Y0.000
G0 X13.083 Y-34.463
G0 X13.083 Y-34.463 Z2.000
G1 X13.083 Y-34.463 Z-5.000 F30.000
G2 X18.828 Y-39.283 Z-5.000 I-6629.527 J-7906.589 K0.000 F30.000
G1 X18.506 Y-39.667 Z-5.000 F30.000
G1 X12.761 Y-34.846 Z-5.000 F30.000
G1 X13.083 Y-34.463 Z-5.000 F30.000
G0 Z3.000
G0 X13.083 Y-45.750 Z3.000
G0 X13.083 Y-45.750 Z2.000
G1 X13.083 Y-45.750 Z-5.000 F30.000
G1 X23.750 Y-45.750 Z-5.000 F30.000
G1 X23.750 Y-46.250 Z-5.000 F30.000
G1 X6.250 Y-46.250 Z-5.000 F30.000
G1 X6.250 Y-45.750 Z-5.000 F30.000
G1 X13.083 Y-45.750 Z-5.000 F30.000
G0 Z3.000
G0 X44.167 Y-39.401 Z3.000
G0 X44.167 Y-39.401 Z2.000
G1 X44.167 Y-39.401 Z-5.000 F30.000
G1 X41.128 Y-22.167 Z-5.000 F30.000
G3 X41.621 Y-22.080 Z-5.000 I-11048.668 J62664.357 K0.000 F30.000
G1 X44.659 Y-39.314 Z-5.000 F30.000
G1 X44.167 Y-39.401 Z-5.000 F30.000
G0 Z3.000
G0 X44.102 Y-10.748 Z3.000
G0 X44.102 Y-10.748 Z2.000
G1 X44.102 Y-10.748 Z-5.000 F30.000
G1 X39.249 Y-10.759 Z-5.000 F30.000
G1 X39.247 Y-10.248 Z-5.000 F30.000
G1 X56.761 Y-10.209 Z-5.000 F30.000
G1 X56.762 Y-10.720 Z-5.000 F30.000
G1 X44.102 Y-10.748 Z-5.000 F30.000
G0 Z3.000
G0 X82.490 Y-14.874 Z3.000
G0 X82.490 Y-14.874 Z2.000
G1 X82.490 Y-14.874 Z-5.000 F30.000
G1 X82.983 Y-14.787 Z-5.000 F30.000
G3 X86.021 Y-32.021 Z-5.000 I1544411.438 J272295.863 K0.000 F30.000
G1 X85.529 Y-32.108 Z-5.000 F30.000
G1 X82.490 Y-14.874 Z-5.000 F30.000
G0 Z3.000
G0 X23.750 Y-87.750 Z3.000
G0 X23.750 Y-87.750 Z2.000
G1 X23.750 Y-87.750 Z-5.000 F30.000
G1 X23.750 Y-88.250 Z-5.000 F30.000
G1 X6.250 Y-88.250 Z-5.000 F30.000
G1 X6.250 Y-87.750 Z-5.000 F30.000
G1 X23.750 Y-87.750 Z-5.000 F30.000
G1 X23.750 Y-87.750 Z-10.000 F30.000
G1 X23.750 Y-88.250 Z-10.000 F30.000
G1 X6.250 Y-88.250 Z-10.000 F30.000
G1 X6.250 Y-87.750 Z-10.000 F30.000
G1 X23.750 Y-87.750 Z-10.000 F30.000
G0 Z3.000
G0 X23.750 Y-46.250 Z3.000
G0 X23.750 Y-46.250 Z2.000
G1 X23.750 Y-46.250 Z-10.000 F30.000
G1 X6.250 Y-46.250 Z-10.000 F30.000
G1 X6.250 Y-45.750 Z-10.000 F30.000
G1 X23.750 Y-45.750 Z-10.000 F30.000
G1 X23.750 Y-46.250 Z-10.000 F30.000
G0 Z3.000
G0 X18.506 Y-39.667 Z3.000
G0 X18.506 Y-39.667 Z2.000
G1 X18.506 Y-39.667 Z-10.000 F30.000
G1 X12.761 Y-34.846 Z-10.000 F30.000
G1 X13.083 Y-34.463 Z-10.000 F30.000
G2 X18.828 Y-39.283 Z-10.000 I-6629.527 J-7906.589 K0.000 F30.000
G1 X18.506 Y-39.667 Z-10.000 F30.000
G0 Z3.000
G0 X43.439 Y-35.271 Z3.000
G0 X43.439 Y-35.271 Z2.000
G1 X43.439 Y-35.271 Z-10.000 F30.000
G1 X41.128 Y-22.167 Z-10.000 F30.000
G3 X41.621 Y-22.080 Z-10.000 I-11048.668 J62664.357 K0.000 F30.000
G1 X44.659 Y-39.314 Z-10.000 F30.000
G1 X44.167 Y-39.401 Z-10.000 F30.000
G1 X43.439 Y-35.271 Z-10.000 F30.000
G0 Z3.000
G0 X43.383 Y-10.750 Z3.000
G0 X43.383 Y-10.750 Z2.000
G1 X43.383 Y-10.750 Z-10.000 F30.000
G1 X39.249 Y-10.759 Z-10.000 F30.000
G1 X39.247 Y-10.248 Z-10.000 F30.000
G1 X56.761 Y-10.209 Z-10.000 F30.000
G1 X56.762 Y-10.720 Z-10.000 F30.000
G1 X43.383 Y-10.750 Z-10.000 F30.000
G0 Z3.000
G0 X82.490 Y-14.874 Z3.000
G0 X82.490 Y-14.874 Z2.000
G1 X82.490 Y-14.874 Z-10.000 F30.000
G1 X82.983 Y-14.787 Z-10.000 F30.000
G3 X86.021 Y-32.021 Z-10.000 I1544411.438 J272295.863 K0.000 F30.000
G1 X85.529 Y-32.108 Z-10.000 F30.000
G1 X82.490 Y-14.874 Z-10.000 F30.000
G0 Z3.000
G0 Z3.000
(Finish operation: slots)
(Begin operation: Fixture)
(Path: Fixture)
G54
G0 Z3.000
(Finish operation: Fixture)
(Begin operation: Profile004)
(Path: Profile004)
(Profile004)
(Compensated Tool Path. Diameter: 2.5)
G0 Z3.000
G0 X0.000 Y0.000
G0 Y1.250
G0 Y1.250 Z2.000
G1 X0.000 Y1.250 Z-5.000 F30.000
G1 X80.000 Y1.250 Z-5.000 F30.000
G2 X80.884 Y0.884 Z-5.000 I0.000 J-1.250 K0.000 F30.000
G1 X110.884 Y-29.116 Z-5.000 F30.000
G2 X111.250 Y-30.000 Z-5.000 I-0.884 J-0.884 K0.000 F30.000
G1 X111.250 Y-65.000 Z-5.000 F30.000
G2 X110.884 Y-65.884 Z-5.000 I-1.250 J0.000 K0.000 F30.000
G1 X80.884 Y-95.884 Z-5.000 F30.000
G2 X80.000 Y-96.250 Z-5.000 I-0.884 J0.884 K0.000 F30.000
G1 X0.000 Y-96.250 Z-5.000 F30.000
G2 X-1.250 Y-95.000 Z-5.000 I0.000 J1.250 K0.000 F30.000
G1 X-1.250 Y0.000 Z-5.000 F30.000
G2 X0.000 Y1.250 Z-5.000 I1.250 J0.000 K0.000 F30.000
G1 X0.000 Y1.250 Z-10.000 F30.000
G1 X80.000 Y1.250 Z-10.000 F30.000
G2 X80.884 Y0.884 Z-10.000 I0.000 J-1.250 K0.000 F30.000
G1 X110.884 Y-29.116 Z-10.000 F30.000
G2 X111.250 Y-30.000 Z-10.000 I-0.884 J-0.884 K0.000 F30.000
G1 X111.250 Y-65.000 Z-10.000 F30.000
G2 X110.884 Y-65.884 Z-10.000 I-1.250 J0.000 K0.000 F30.000
G1 X80.884 Y-95.884 Z-10.000 F30.000
G2 X80.000 Y-96.250 Z-10.000 I-0.884 J0.884 K0.000 F30.000
G1 X0.000 Y-96.250 Z-10.000 F30.000
G2 X-1.250 Y-95.000 Z-10.000 I0.000 J1.250 K0.000 F30.000
G1 X-1.250 Y0.000 Z-10.000 F30.000
G2 X0.000 Y1.250 Z-10.000 I1.250 J0.000 K0.000 F30.000
G0 Z3.000
G0 Z3.000
(Finish operation: Profile004)
(Begin postamble)
M5
G17 G90
M2
