(Exported by FreeCAD)
(Post Processor: grbl_post)
(Output Time:2021-12-24 10:08:46.432289)
(Begin preamble)
G17 G90
G21
(Begin operation: Fixture)
(Path: Fixture)
G54
(Finish operation: Fixture)
(Begin operation: 2.5mm_Endmill006)
(Path: 2.5mm_Endmill006)
(2.5mm_Endmill006)
(Begin toolchange)
( M6 T1.0 )
M3 S100.0
(Finish operation: 2.5mm_Endmill006)
(Begin operation: Profile010)
(Path: Profile010)
(Profile010)
(Compensated Tool Path. Diameter: 2.5)
G0 Z3.000
G0 X0.000 Y0.000
G0 X9.895 Y-19.782
G0 X9.895 Y-19.782 Z2.000
G1 X9.895 Y-19.782 Z-5.000 F30.000
G2 X10.105 Y-20.218 Z-5.000 I0.105 J-0.218 K0.000 F30.000
G2 X9.895 Y-19.782 Z-5.000 I-0.105 J0.218 K0.000 F30.000
G1 X9.895 Y-19.782 Z-10.000 F30.000
G2 X10.105 Y-20.218 Z-10.000 I0.105 J-0.218 K0.000 F30.000
G2 X9.895 Y-19.782 Z-10.000 I-0.105 J0.218 K0.000 F30.000
G0 Z3.000
G0 Z3.000
G0 X9.895 Y-19.782
G0 X9.951 Y-25.252
G0 X9.951 Y-25.252 Z2.000
G1 X9.951 Y-25.252 Z-5.000 F30.000
G2 X11.057 Y-34.629 Z-5.000 I0.049 J-4.748 K0.000 F30.000
G2 X8.943 Y-25.371 Z-5.000 I-1.057 J4.629 K0.000 F30.000
G2 X9.951 Y-25.252 Z-5.000 I1.057 J-4.629 K0.000 F30.000
G1 X9.951 Y-25.252 Z-10.000 F30.000
G2 X11.057 Y-34.629 Z-10.000 I0.049 J-4.748 K0.000 F30.000
G2 X8.943 Y-25.371 Z-10.000 I-1.057 J4.629 K0.000 F30.000
G2 X9.951 Y-25.252 Z-10.000 I1.057 J-4.629 K0.000 F30.000
G0 Z3.000
G0 Z3.000
G0 X9.951 Y-25.252
G0 X9.999 Y-39.758
G0 X9.999 Y-39.758 Z2.000
G1 X9.999 Y-39.758 Z-5.000 F30.000
G2 X10.105 Y-40.218 Z-5.000 I0.001 J-0.242 K0.000 F30.000
G2 X9.895 Y-39.782 Z-5.000 I-0.105 J0.218 K0.000 F30.000
G2 X9.999 Y-39.758 Z-5.000 I0.105 J-0.218 K0.000 F30.000
G1 X9.999 Y-39.758 Z-10.000 F30.000
G2 X10.105 Y-40.218 Z-10.000 I0.001 J-0.242 K0.000 F30.000
G2 X9.895 Y-39.782 Z-10.000 I-0.105 J0.218 K0.000 F30.000
G2 X9.999 Y-39.758 Z-10.000 I0.105 J-0.218 K0.000 F30.000
G0 Z3.000
G0 Z3.000
G0 X9.999 Y-39.758
G0 X24.771 Y-44.920
G0 X24.771 Y-44.920 Z2.000
G1 X24.771 Y-44.920 Z-5.000 F30.000
G2 X25.218 Y-44.895 Z-5.000 I0.229 J-0.080 K0.000 F30.000
G2 X24.782 Y-45.105 Z-5.000 I-0.218 J-0.105 K0.000 F30.000
G2 X24.771 Y-44.920 Z-5.000 I0.218 J0.105 K0.000 F30.000
G1 X24.771 Y-44.920 Z-10.000 F30.000
G2 X25.218 Y-44.895 Z-10.000 I0.229 J-0.080 K0.000 F30.000
G2 X24.782 Y-45.105 Z-10.000 I-0.218 J-0.105 K0.000 F30.000
G2 X24.771 Y-44.920 Z-10.000 I0.218 J0.105 K0.000 F30.000
G0 Z3.000
G0 Z3.000
G0 X24.771 Y-44.920
G0 X24.998 Y-15.242
G0 X24.998 Y-15.242 Z2.000
G1 X24.998 Y-15.242 Z-5.000 F30.000
G2 X24.895 Y-14.782 Z-5.000 I0.002 J0.242 K0.000 F30.000
G2 X25.105 Y-15.218 Z-5.000 I0.105 J-0.218 K0.000 F30.000
G2 X24.998 Y-15.242 Z-5.000 I-0.105 J0.218 K0.000 F30.000
G1 X24.998 Y-15.242 Z-10.000 F30.000
G2 X24.895 Y-14.782 Z-10.000 I0.002 J0.242 K0.000 F30.000
G2 X25.105 Y-15.218 Z-10.000 I0.105 J-0.218 K0.000 F30.000
G2 X24.998 Y-15.242 Z-10.000 I-0.105 J0.218 K0.000 F30.000
G0 Z3.000
G0 Z3.000
G0 X24.998 Y-15.242
G0 X32.337 Y-22.462
G0 X32.337 Y-22.462 Z2.000
G1 X32.337 Y-22.462 Z-5.000 F30.000
G2 X38.726 Y-19.327 Z-5.000 I7.663 J-7.538 K0.000 F30.000
G2 X50.673 Y-28.726 Z-5.000 I1.274 J-10.673 K0.000 F30.000
G2 X41.274 Y-40.673 Z-5.000 I-10.673 J-1.274 K0.000 F30.000
G2 X32.337 Y-22.462 Z-5.000 I-1.274 J10.673 K0.000 F30.000
G1 X32.337 Y-22.462 Z-10.000 F30.000
G2 X38.726 Y-19.327 Z-10.000 I7.663 J-7.538 K0.000 F30.000
G2 X50.673 Y-28.726 Z-10.000 I1.274 J-10.673 K0.000 F30.000
G2 X41.274 Y-40.673 Z-10.000 I-10.673 J-1.274 K0.000 F30.000
G2 X32.337 Y-22.462 Z-10.000 I-1.274 J10.673 K0.000 F30.000
G0 Z3.000
G0 Z3.000
G0 X32.337 Y-22.462
G0 X54.770 Y-15.076
G0 X54.770 Y-15.076 Z2.000
G1 X54.770 Y-15.076 Z-5.000 F30.000
G2 X54.895 Y-14.782 Z-5.000 I0.230 J0.076 K0.000 F30.000
G2 X55.105 Y-15.218 Z-5.000 I0.105 J-0.218 K0.000 F30.000
G2 X54.770 Y-15.076 Z-5.000 I-0.105 J0.218 K0.000 F30.000
G1 X54.770 Y-15.076 Z-10.000 F30.000
G2 X54.895 Y-14.782 Z-10.000 I0.230 J0.076 K0.000 F30.000
G2 X55.105 Y-15.218 Z-10.000 I0.105 J-0.218 K0.000 F30.000
G2 X54.770 Y-15.076 Z-10.000 I-0.105 J0.218 K0.000 F30.000
G0 Z3.000
G0 Z3.000
G0 X54.770 Y-15.076
G0 X79.762 Y-19.954
G0 X79.762 Y-19.954 Z2.000
G1 X79.762 Y-19.954 Z-5.000 F30.000
G2 X79.895 Y-19.782 Z-5.000 I0.238 J-0.046 K0.000 F30.000
G2 X80.105 Y-20.218 Z-5.000 I0.105 J-0.218 K0.000 F30.000
G2 X79.762 Y-19.954 Z-5.000 I-0.105 J0.218 K0.000 F30.000
G1 X79.762 Y-19.954 Z-10.000 F30.000
G2 X79.895 Y-19.782 Z-10.000 I0.238 J-0.046 K0.000 F30.000
G2 X80.105 Y-20.218 Z-10.000 I0.105 J-0.218 K0.000 F30.000
G2 X79.762 Y-19.954 Z-10.000 I-0.105 J0.218 K0.000 F30.000
G0 Z3.000
G0 Z3.000
G0 X79.762 Y-19.954
G0 X79.997 Y-39.758
G0 X79.997 Y-39.758 Z2.000
G1 X79.997 Y-39.758 Z-5.000 F30.000
G2 X80.105 Y-40.218 Z-5.000 I0.003 J-0.242 K0.000 F30.000
G2 X79.895 Y-39.782 Z-5.000 I-0.105 J0.218 K0.000 F30.000
G2 X79.997 Y-39.758 Z-5.000 I0.105 J-0.218 K0.000 F30.000
G1 X79.997 Y-39.758 Z-10.000 F30.000
G2 X80.105 Y-40.218 Z-10.000 I0.003 J-0.242 K0.000 F30.000
G2 X79.895 Y-39.782 Z-10.000 I-0.105 J0.218 K0.000 F30.000
G2 X79.997 Y-39.758 Z-10.000 I0.105 J-0.218 K0.000 F30.000
G0 Z3.000
G0 Z3.000
G0 X79.997 Y-39.758
G0 X55.237 Y-44.950
G0 X55.237 Y-44.950 Z2.000
G1 X55.237 Y-44.950 Z-5.000 F30.000
G2 X54.782 Y-45.105 Z-5.000 I-0.237 J-0.050 K0.000 F30.000
G2 X55.218 Y-44.895 Z-5.000 I0.218 J0.105 K0.000 F30.000
G2 X55.237 Y-44.950 Z-5.000 I-0.218 J-0.105 K0.000 F30.000
G1 X55.237 Y-44.950 Z-10.000 F30.000
G2 X54.782 Y-45.105 Z-10.000 I-0.237 J-0.050 K0.000 F30.000
G2 X55.218 Y-44.895 Z-10.000 I0.218 J0.105 K0.000 F30.000
G2 X55.237 Y-44.950 Z-10.000 I-0.218 J-0.105 K0.000 F30.000
G0 Z3.000
G0 Z3.000
(Finish operation: Profile010)
(Begin operation: Fixture)
(Path: Fixture)
G54
G0 Z3.000
(Finish operation: Fixture)
(Begin operation: Profile011)
(Path: Profile011)
(Profile011)
(Compensated Tool Path. Diameter: 2.5)
G0 Z3.000
G0 X0.000 Y0.000
G0 X29.801 Y-22.351
G0 X29.801 Y-22.351 Z2.000
G1 X29.801 Y-22.351 Z-3.500 F30.000
G2 X52.607 Y-28.100 Z-3.500 I10.199 J-7.649 K0.000 F30.000
G2 X27.393 Y-31.900 Z-3.500 I-12.607 J-1.900 K0.000 F30.000
G2 X29.801 Y-22.351 Z-3.500 I12.607 J1.900 K0.000 F30.000
G1 X29.801 Y-22.351 Z-7.000 F30.000
G2 X52.607 Y-28.100 Z-7.000 I10.199 J-7.649 K0.000 F30.000
G2 X27.393 Y-31.900 Z-7.000 I-12.607 J-1.900 K0.000 F30.000
G2 X29.801 Y-22.351 Z-7.000 I12.607 J1.900 K0.000 F30.000
G0 Z3.000
G0 Z3.000
(Finish operation: Profile011)
(Begin operation: Fixture)
(Path: Fixture)
G54
G0 Z3.000
(Finish operation: Fixture)
(Begin operation: Profile012)
(Path: Profile012)
(Profile012)
(Compensated Tool Path. Diameter: 2.5)
G0 Z3.000
G0 X0.000 Y0.000
G0 X61.250 Y-8.750
G0 X61.250 Y-8.750 Z2.000
G1 X61.250 Y-8.750 Z-5.000 F30.000
G1 X78.750 Y-8.750 Z-5.000 F30.000
G1 X78.750 Y-9.250 Z-5.000 F30.000
G1 X61.250 Y-9.250 Z-5.000 F30.000
G1 X61.250 Y-8.750 Z-5.000 F30.000
G0 Z3.000
G0 X61.250 Y-50.750 Z3.000
G0 X61.250 Y-50.750 Z2.000
G1 X61.250 Y-50.750 Z-5.000 F30.000
G1 X78.750 Y-50.750 Z-5.000 F30.000
G1 X78.750 Y-51.250 Z-5.000 F30.000
G1 X61.250 Y-51.250 Z-5.000 F30.000
G1 X61.250 Y-50.750 Z-5.000 F30.000
G1 X61.250 Y-50.750 Z-10.000 F30.000
G1 X78.750 Y-50.750 Z-10.000 F30.000
G1 X78.750 Y-51.250 Z-10.000 F30.000
G1 X61.250 Y-51.250 Z-10.000 F30.000
G1 X61.250 Y-50.750 Z-10.000 F30.000
G0 Z3.000
G0 X61.250 Y-9.250 Z3.000
G0 X61.250 Y-9.250 Z2.000
G1 X61.250 Y-9.250 Z-10.000 F30.000
G1 X61.250 Y-8.750 Z-10.000 F30.000
G1 X78.750 Y-8.750 Z-10.000 F30.000
G1 X78.750 Y-9.250 Z-10.000 F30.000
G1 X61.250 Y-9.250 Z-10.000 F30.000
G0 Z3.000
G0 Z3.000
(Finish operation: Profile012)
(Begin operation: Fixture)
(Path: Fixture)
G54
G0 Z3.000
(Finish operation: Fixture)
(Begin operation: Profile013)
(Path: Profile013)
(Profile013)
(Compensated Tool Path. Diameter: 2.5)
G0 Z3.000
G0 X0.000 Y0.000
G0 Y1.250
G0 Y1.250 Z2.000
G1 X0.000 Y1.250 Z-5.000 F30.000
G1 X85.000 Y1.250 Z-5.000 F30.000
G2 X86.250 Y0.000 Z-5.000 I0.000 J-1.250 K0.000 F30.000
G1 X86.250 Y-60.000 Z-5.000 F30.000
G2 X85.000 Y-61.250 Z-5.000 I-1.250 J0.000 K0.000 F30.000
G1 X0.000 Y-61.250 Z-5.000 F30.000
G2 X-1.250 Y-60.000 Z-5.000 I0.000 J1.250 K0.000 F30.000
G1 X-1.250 Y0.000 Z-5.000 F30.000
G2 X0.000 Y1.250 Z-5.000 I1.250 J0.000 K0.000 F30.000
G1 X0.000 Y1.250 Z-10.000 F30.000
G1 X85.000 Y1.250 Z-10.000 F30.000
G2 X86.250 Y0.000 Z-10.000 I0.000 J-1.250 K0.000 F30.000
G1 X86.250 Y-60.000 Z-10.000 F30.000
G2 X85.000 Y-61.250 Z-10.000 I-1.250 J0.000 K0.000 F30.000
G1 X0.000 Y-61.250 Z-10.000 F30.000
G2 X-1.250 Y-60.000 Z-10.000 I0.000 J1.250 K0.000 F30.000
G1 X-1.250 Y0.000 Z-10.000 F30.000
G2 X0.000 Y1.250 Z-10.000 I1.250 J0.000 K0.000 F30.000
G0 Z3.000
G0 Z3.000
(Finish operation: Profile013)
(Begin postamble)
M5
G17 G90
M2
