(Exported by FreeCAD)
(Post Processor: grbl_post)
(Output Time:2021-11-18 08:47:08.348274)
(Begin preamble)
G17 G90
G21
(Begin operation: Fixture)
(Path: Fixture)
G54
(Finish operation: Fixture)
(Begin operation: 2.5mm_Endmill010)
(Path: 2.5mm_Endmill010)
(2.5mm_Endmill010)
(Begin toolchange)
( M6 T1.0 )
M3 S100.0
(Finish operation: 2.5mm_Endmill010)
(Begin operation: Profile017)
(Path: Profile017)
(Profile017)
(Compensated Tool Path. Diameter: 2.5)
G0 Z3.000
G0 X0.000 Y0.000
G0 X13.723 Y-12.809
G0 X13.723 Y-12.809 Z2.000
G1 X13.723 Y-12.809 Z-5.000 F60.000
G2 X14.460 Y-12.339 Z-5.000 I1.277 J-1.191 K0.000 F60.000
G2 X15.540 Y-15.661 Z-5.000 I0.540 J-1.661 K0.000 F60.000
G2 X13.723 Y-12.809 Z-5.000 I-0.540 J1.661 K0.000 F60.000
G1 X13.723 Y-12.809 Z-10.000 F60.000
G2 X14.460 Y-12.339 Z-10.000 I1.277 J-1.191 K0.000 F60.000
G2 X15.540 Y-15.661 Z-10.000 I0.540 J-1.661 K0.000 F60.000
G2 X13.723 Y-12.809 Z-10.000 I-0.540 J1.661 K0.000 F60.000
G0 Z3.000
G0 Z3.000
G0 X13.723 Y-12.809
G0 X43.255 Y-13.934
G0 X43.255 Y-13.934 Z2.000
G1 X43.255 Y-13.934 Z-5.000 F60.000
G2 X44.460 Y-12.339 Z-5.000 I1.745 J-0.066 K0.000 F60.000
G2 X46.661 Y-13.460 Z-5.000 I0.540 J-1.661 K0.000 F60.000
G2 X45.540 Y-15.661 Z-5.000 I-1.661 J-0.540 K0.000 F60.000
G2 X43.255 Y-13.934 Z-5.000 I-0.540 J1.661 K0.000 F60.000
G1 X43.255 Y-13.934 Z-10.000 F60.000
G2 X44.460 Y-12.339 Z-10.000 I1.745 J-0.066 K0.000 F60.000
G2 X46.661 Y-13.460 Z-10.000 I0.540 J-1.661 K0.000 F60.000
G2 X45.540 Y-15.661 Z-10.000 I-1.661 J-0.540 K0.000 F60.000
G2 X43.255 Y-13.934 Z-10.000 I-0.540 J1.661 K0.000 F60.000
G0 Z3.000
G0 Z3.000
(Finish operation: Profile017)
(Begin operation: Fixture)
(Path: Fixture)
G54
G0 Z3.000
(Finish operation: Fixture)
(Begin operation: Profile023)
(Path: Profile023)
(Profile023)
(Compensated Tool Path. Diameter: 2.5)
G0 Z3.000
G0 X0.000 Y0.000
G0 X5.842 Y-6.816
G0 X5.842 Y-6.816 Z2.000
G1 X5.842 Y-6.816 Z-5.000 F60.000
G2 X5.895 Y-6.782 Z-5.000 I0.158 J-0.184 K0.000 F60.000
G2 X6.105 Y-7.218 Z-5.000 I0.105 J-0.218 K0.000 F60.000
G2 X5.842 Y-6.816 Z-5.000 I-0.105 J0.218 K0.000 F60.000
G1 X5.842 Y-6.816 Z-10.000 F60.000
G2 X5.895 Y-6.782 Z-10.000 I0.158 J-0.184 K0.000 F60.000
G2 X6.105 Y-7.218 Z-10.000 I0.105 J-0.218 K0.000 F60.000
G2 X5.842 Y-6.816 Z-10.000 I-0.105 J0.218 K0.000 F60.000
G0 Z3.000
G0 Z3.000
G0 X5.842 Y-6.816
G0 X5.997 Y-20.758
G0 X5.997 Y-20.758 Z2.000
G1 X5.997 Y-20.758 Z-5.000 F60.000
G2 X6.105 Y-21.218 Z-5.000 I0.003 J-0.242 K0.000 F60.000
G2 X5.895 Y-20.782 Z-5.000 I-0.105 J0.218 K0.000 F60.000
G2 X5.997 Y-20.758 Z-5.000 I0.105 J-0.218 K0.000 F60.000
G1 X5.997 Y-20.758 Z-10.000 F60.000
G2 X6.105 Y-21.218 Z-10.000 I0.003 J-0.242 K0.000 F60.000
G2 X5.895 Y-20.782 Z-10.000 I-0.105 J0.218 K0.000 F60.000
G2 X5.997 Y-20.758 Z-10.000 I0.105 J-0.218 K0.000 F60.000
G0 Z3.000
G0 Z3.000
(Finish operation: Profile023)
(Begin operation: Fixture)
(Path: Fixture)
G54
G0 Z3.000
(Finish operation: Fixture)
(Begin operation: Profile018)
(Path: Profile018)
(Profile018)
(Compensated Tool Path. Diameter: 2.5)
G0 Z3.000
G0 X0.000 Y0.000
G0 X-1.250
G0 X-1.250 Z2.000
G1 X-1.250 Y0.000 Z-5.000 F60.000
G1 X-1.250 Y1.000 Z-5.000 F60.000
G2 X-0.000 Y2.250 Z-5.000 I1.250 J0.000 K0.000 F60.000
G1 X55.000 Y2.250 Z-5.000 F60.000
G2 X56.250 Y1.000 Z-5.000 I0.000 J-1.250 K0.000 F60.000
G1 X56.250 Y-29.000 Z-5.000 F60.000
G2 X55.000 Y-30.250 Z-5.000 I-1.250 J-0.000 K0.000 F60.000
G1 X-0.000 Y-30.250 Z-5.000 F60.000
G2 X-1.250 Y-29.000 Z-5.000 I-0.000 J1.250 K0.000 F60.000
G1 X-1.250 Y0.000 Z-5.000 F60.000
G1 X-1.250 Y0.000 Z-10.000 F60.000
G1 X-1.250 Y1.000 Z-10.000 F60.000
G2 X-0.000 Y2.250 Z-10.000 I1.250 J0.000 K0.000 F60.000
G1 X55.000 Y2.250 Z-10.000 F60.000
G2 X56.250 Y1.000 Z-10.000 I0.000 J-1.250 K0.000 F60.000
G1 X56.250 Y-29.000 Z-10.000 F60.000
G2 X55.000 Y-30.250 Z-10.000 I-1.250 J-0.000 K0.000 F60.000
G1 X-0.000 Y-30.250 Z-10.000 F60.000
G2 X-1.250 Y-29.000 Z-10.000 I-0.000 J1.250 K0.000 F60.000
G1 X-1.250 Y0.000 Z-10.000 F60.000
G0 Z3.000
G0 Z3.000
(Finish operation: Profile018)
(Begin postamble)
M5
G17 G90
M2
